P3
400 225
255
215 232 255
215 232 255
215 232 255
215 232 255
215 232 255
215 232 255
215 232 255
215 232 255
215 232 255
215 232 255
215 232 255
215 232 255
215 232 255
215 232 255
215 232 255
215 232 255
215 232 255
215 232 255
215 232 255
215 232 255
215 232 255
215 232 255
215 232 255
215 232 255
215 232 255
215 232 255
215 232 255
215 232 255
215 232 255
215 232 255
215 232 255
215 232 255
215 232 255
215 232 255
215 232 255
215 232 255
215 232 255
215 232 255
215 232 255
215 232 255
215 232 255
215 232 255
215 232 255
215 232 255
215 232 255
215 232 255
215 232 255
215 232 255
215 232 255
215 232 255
215 232 255
215 232 255
215 232 255
215 232 255
215 232 255
215 232 255
215 232 255
215 232 255
215 232 255
215 232 255
215 232 255
215 232 255
215 232 255
215 232 255
215 232 255
215 232 255
215 232 255
215 232 255
215 232 255
215 232 255
215 232 255
215 232 255
215 232 255
215 232 255
215 232 255
215 232 255
215 232 255
215 232 255
215 232 255
215 232 255
215 232 255
215 232 255
215 232 255
215 232 255
215 232 255
215 232 255
215 232 255
215 232 255
215 232 255
215 232 255
215 232 255
215 232 255
215 232 255
215 232 255
215 232 255
215 232 255
215 232 255
215 232 255
215 232 255
215 232 255
215 232 255
215 232 255
215 232 255
215 232 255
215 232 255
215 232 255
215 232 255
215 232 255
215 232 255
215 232 255
215 232 255
215 232 255
215 232 255
215 232 255
215 232 255
215 232 255
215 232 255
215 232 255
215 232 255
215 232 255
215 232 255
215 232 255
215 232 255
215 232 255
215 232 255
215 232 255
215 232 255
215 232 255
215 232 255
215 232 255
215 232 255
215 232 255
215 232 255
215 232 255
215 232 255
215 232 255
215 232 255
215 232 255
215 232 255
215 232 255
215 232 255
215 232 255
215 232 255
215 232 255
215 232 255
215 232 255
215 232 255
215 232 255
215 232 255
215 232 255
215 232 255
215 232 255
215 232 255
215 232 255
215 232 255
215 232 255
215 232 255
215 232 255
215 232 255
215 232 255
215 232 255
215 232 255
215 232 255
215 232 255
215 232 255
215 232 255
215 232 255
215 232 255
215 232 255
215 232 255
215 232 255
215 232 255
215 232 255
215 232 255
215 232 255
215 232 255
215 232 255
215 232 255
215 232 255
215 232 255
215 232 255
215 232 255
215 232 255
215 232 255
215 232 255
215 232 255
215 232 255
215 232 255
215 232 255
215 232 255
215 232 255
215 232 255
215 232 255
215 232 255
215 232 255
215 232 255
215 232 255
215 232 255
215 232 255
215 232 255
215 232 255
215 232 255
215 232 255
215 232 255
215 232 255
215 232 255
215 232 255
215 232 255
215 232 255
215 232 255
215 232 255
215 232 255
215 232 255
215 232 255
215 232 255
215 232 255
215 232 255
215 232 255
215 232 255
215 232 255
215 232 255
215 232 255
215 232 255
215 232 255
215 232 255
215 232 255
215 232 255
215 232 255
215 232 255
215 232 255
215 232 255
215 232 255
215 232 255
215 232 255
215 232 255
215 232 255
215 232 255
215 232 255
215 232 255
215 232 255
215 232 255
215 232 255
215 232 255
215 232 255
215 232 255
215 232 255
215 232 255
215 232 255
215 232 255
215 232 255
215 232 255
215 232 255
215 232 255
215 232 255
215 232 255
215 232 255
215 232 255
215 232 255
215 232 255
215 232 255
215 232 255
215 232 255
215 232 255
215 232 255
215 232 255
215 232 255
215 232 255
215 232 255
215 232 255
215 232 255
215 232 255
215 232 255
215 232 255
215 232 255
215 232 255
215 232 255
215 232 255
215 232 255
215 232 255
215 232 255
215 232 255
215 232 255
215 232 255
215 232 255
215 232 255
215 232 255
215 232 255
215 232 255
215 232 255
215 232 255
215 232 255
215 232 255
215 232 255
215 232 255
215 232 255
215 232 255
215 232 255
215 232 255
215 232 255
215 232 255
215 232 255
215 232 255
215 232 255
215 232 255
215 232 255
215 232 255
215 232 255
215 232 255
215 232 255
215 232 255
215 232 255
215 232 255
215 232 255
215 232 255
215 232 255
215 232 255
215 232 255
215 232 255
215 232 255
215 232 255
215 232 255
215 232 255
215 232 255
215 232 255
215 232 255
215 232 255
215 232 255
215 232 255
215 232 255
215 232 255
215 232 255
215 232 255
215 232 255
215 232 255
215 232 255
215 232 255
215 232 255
215 232 255
215 232 255
215 232 255
215 232 255
215 232 255
215 232 255
215 232 255
215 232 255
215 232 255
215 232 255
215 232 255
215 232 255
215 232 255
215 232 255
215 232 255
215 232 255
215 232 255
215 232 255
215 232 255
215 232 255
215 232 255
215 232 255
215 232 255
215 232 255
215 232 255
215 232 255
215 232 255
215 232 255
215 232 255
215 232 255
215 232 255
215 232 255
215 232 255
215 232 255
215 232 255
215 232 255
215 232 255
215 232 255
215 232 255
215 232 255
215 232 255
215 232 255
215 232 255
215 232 255
215 232 255
215 232 255
215 232 255
215 232 255
215 232 255
215 232 255
215 232 255
215 232 255
215 232 255
215 232 255
215 232 255
215 232 255
215 232 255
215 232 255
215 232 255
215 232 255
215 232 255
215 232 255
215 232 255
215 232 255
215 232 255
215 232 255
215 232 255
215 232 255
215 232 255
215 232 255
215 232 255
215 232 255
215 232 255
215 232 255
215 232 255
215 232 255
215 232 255
215 232 255
215 232 255
215 232 255
215 232 255
215 232 255
215 232 255
215 232 255
215 232 255
215 232 255
215 232 255
215 232 255
215 232 255
215 232 255
215 232 255
215 232 255
215 232 255
215 232 255
215 232 255
215 232 255
215 232 255
215 232 255
215 232 255
215 232 255
215 232 255
215 232 255
215 232 255
215 232 255
215 232 255
215 232 255
215 232 255
215 232 255
215 232 255
215 232 255
215 232 255
215 232 255
215 232 255
215 232 255
215 232 255
215 232 255
215 232 255
215 232 255
215 232 255
215 232 255
215 232 255
215 232 255
215 232 255
215 232 255
215 232 255
215 232 255
215 232 255
215 232 255
215 232 255
215 232 255
215 232 255
215 232 255
215 232 255
215 232 255
215 232 255
215 232 255
215 232 255
215 232 255
215 232 255
215 232 255
215 232 255
215 232 255
215 232 255
215 232 255
215 232 255
215 232 255
215 232 255
215 232 255
215 232 255
215 232 255
215 232 255
215 232 255
215 232 255
215 232 255
215 232 255
215 232 255
215 232 255
215 232 255
215 232 255
215 232 255
215 232 255
215 232 255
215 232 255
215 232 255
215 232 255
215 232 255
215 232 255
215 232 255
215 232 255
215 232 255
215 232 255
215 232 255
215 232 255
215 232 255
215 232 255
215 232 255
215 232 255
215 232 255
215 232 255
215 232 255
215 232 255
215 232 255
215 232 255
215 232 255
215 232 255
215 232 255
215 232 255
215 232 255
215 232 255
215 232 255
215 232 255
215 232 255
215 232 255
215 232 255
215 232 255
215 232 255
215 232 255
215 232 255
215 232 255
215 232 255
215 232 255
215 232 255
215 232 255
215 232 255
215 232 255
215 232 255
215 232 255
215 232 255
215 232 255
215 232 255
215 232 255
215 232 255
215 232 255
215 232 255
215 232 255
215 232 255
215 232 255
215 232 255
215 232 255
215 232 255
215 232 255
215 232 255
215 232 255
215 232 255
215 232 255
215 232 255
215 232 255
215 232 255
215 232 255
215 232 255
215 232 255
215 232 255
215 232 255
215 232 255
215 232 255
215 232 255
215 232 255
215 232 255
215 232 255
215 232 255
215 232 255
215 232 255
215 232 255
215 232 255
215 232 255
215 232 255
215 232 255
215 232 255
215 232 255
215 232 255
215 232 255
215 232 255
215 232 255
215 232 255
215 232 255
215 232 255
215 232 255
215 232 255
215 232 255
215 232 255
215 232 255
215 232 255
215 232 255
215 232 255
215 232 255
215 232 255
215 232 255
215 232 255
215 232 255
215 232 255
215 232 255
215 232 255
215 232 255
215 232 255
215 232 255
215 232 255
215 232 255
215 232 255
215 232 255
215 232 255
215 232 255
215 232 255
215 232 255
215 232 255
215 232 255
215 232 255
215 232 255
215 232 255
215 232 255
215 232 255
215 232 255
215 232 255
215 232 255
215 232 255
215 232 255
215 232 255
215 232 255
215 232 255
215 232 255
215 232 255
215 232 255
215 232 255
215 232 255
215 232 255
215 232 255
215 232 255
215 232 255
215 232 255
215 232 255
215 232 255
215 232 255
215 232 255
215 232 255
215 232 255
215 232 255
215 232 255
215 232 255
215 232 255
215 232 255
215 232 255
215 232 255
215 232 255
215 232 255
215 232 255
215 232 255
215 232 255
215 232 255
215 232 255
215 232 255
215 232 255
215 232 255
215 232 255
215 232 255
215 232 255
215 232 255
215 232 255
215 232 255
215 232 255
215 232 255
215 232 255
215 232 255
215 232 255
215 232 255
215 232 255
215 232 255
215 232 255
215 232 255
215 232 255
215 232 255
215 232 255
215 232 255
215 232 255
215 232 255
215 232 255
215 232 255
215 232 255
215 232 255
215 232 255
215 232 255
215 232 255
215 232 255
215 232 255
215 232 255
215 232 255
215 232 255
215 232 255
215 232 255
215 232 255
215 232 255
215 232 255
215 232 255
215 232 255
215 232 255
215 232 255
215 232 255
215 232 255
215 232 255
215 232 255
215 232 255
215 232 255
215 232 255
215 232 255
215 232 255
215 232 255
215 232 255
215 232 255
215 232 255
215 232 255
215 232 255
215 232 255
215 232 255
215 232 255
215 232 255
215 232 255
215 232 255
215 232 255
215 232 255
215 232 255
215 232 255
215 232 255
215 232 255
215 232 255
215 232 255
215 232 255
215 232 255
215 232 255
215 232 255
215 232 255
215 232 255
215 232 255
215 232 255
215 232 255
215 232 255
215 232 255
215 232 255
215 232 255
215 232 255
215 232 255
215 232 255
215 232 255
215 232 255
215 232 255
215 232 255
215 232 255
215 232 255
215 232 255
215 232 255
215 232 255
215 232 255
215 232 255
215 232 255
215 232 255
215 232 255
215 232 255
215 232 255
215 232 255
215 232 255
215 232 255
215 232 255
215 232 255
215 232 255
215 232 255
215 232 255
215 232 255
215 232 255
215 232 255
215 232 255
215 232 255
215 232 255
215 232 255
215 232 255
215 232 255
215 232 255
215 232 255
215 232 255
215 232 255
215 232 255
215 232 255
215 232 255
215 232 255
215 232 255
215 232 255
215 232 255
215 232 255
215 232 255
215 232 255
215 232 255
215 232 255
215 232 255
215 232 255
215 232 255
215 232 255
215 232 255
215 232 255
215 232 255
215 232 255
215 232 255
215 232 255
215 232 255
215 232 255
215 232 255
215 232 255
215 232 255
215 232 255
215 232 255
215 232 255
215 232 255
215 232 255
215 232 255
215 232 255
215 232 255
215 232 255
215 232 255
215 232 255
215 232 255
215 232 255
215 232 255
215 232 255
215 232 255
215 232 255
215 232 255
215 232 255
215 232 255
215 232 255
215 232 255
215 232 255
215 232 255
215 232 255
215 232 255
215 232 255
215 232 255
215 232 255
215 232 255
215 232 255
215 232 255
215 232 255
215 232 255
215 232 255
215 232 255
215 232 255
215 232 255
215 232 255
215 232 255
215 232 255
215 232 255
215 232 255
215 232 255
215 232 255
215 232 255
215 232 255
215 232 255
215 232 255
215 232 255
215 232 255
215 232 255
215 232 255
215 232 255
215 232 255
215 232 255
215 232 255
215 232 255
215 232 255
215 232 255
215 232 255
215 232 255
215 232 255
215 232 255
215 232 255
215 232 255
215 232 255
215 232 255
215 232 255
215 232 255
215 232 255
215 232 255
215 232 255
215 232 255
215 232 255
215 232 255
215 232 255
215 232 255
215 232 255
215 232 255
215 232 255
215 232 255
215 232 255
215 232 255
215 232 255
215 232 255
215 232 255
215 232 255
215 232 255
215 232 255
215 232 255
215 232 255
215 232 255
215 232 255
215 232 255
215 232 255
215 232 255
215 232 255
215 232 255
215 232 255
215 232 255
215 232 255
215 232 255
215 232 255
215 232 255
215 232 255
215 232 255
215 232 255
215 232 255
215 232 255
215 232 255
215 232 255
215 232 255
215 232 255
215 232 255
215 232 255
215 232 255
215 232 255
215 232 255
215 232 255
215 232 255
215 232 255
215 232 255
215 232 255
215 232 255
215 232 255
215 232 255
215 232 255
215 232 255
215 232 255
215 232 255
215 232 255
215 232 255
215 232 255
215 232 255
215 232 255
215 232 255
215 232 255
215 232 255
215 232 255
215 232 255
215 232 255
215 232 255
215 232 255
215 232 255
215 232 255
215 232 255
215 232 255
215 232 255
215 232 255
215 232 255
215 232 255
215 232 255
215 232 255
215 232 255
215 232 255
215 232 255
215 232 255
215 232 255
215 232 255
215 232 255
215 232 255
215 232 255
215 232 255
215 232 255
215 232 255
215 232 255
215 232 255
215 232 255
215 232 255
215 232 255
215 232 255
215 232 255
215 232 255
215 232 255
215 232 255
215 232 255
215 232 255
215 232 255
215 232 255
215 232 255
215 232 255
215 232 255
215 232 255
215 232 255
215 232 255
215 232 255
215 232 255
215 232 255
215 232 255
215 232 255
215 232 255
215 232 255
215 232 255
215 232 255
215 232 255
215 232 255
215 232 255
215 232 255
215 232 255
215 232 255
215 232 255
215 232 255
215 232 255
215 232 255
215 232 255
215 232 255
215 232 255
215 232 255
215 232 255
215 232 255
215 232 255
215 232 255
215 232 255
215 232 255
215 232 255
215 232 255
215 232 255
215 232 255
215 232 255
215 232 255
215 232 255
215 232 255
215 232 255
215 232 255
215 232 255
215 232 255
215 232 255
215 232 255
215 232 255
215 232 255
215 232 255
215 232 255
215 232 255
215 232 255
215 232 255
215 232 255
215 232 255
215 232 255
215 232 255
215 232 255
215 232 255
215 232 255
215 232 255
215 232 255
215 232 255
215 232 255
215 232 255
215 232 255
215 232 255
215 232 255
215 232 255
215 232 255
215 232 255
215 232 255
215 232 255
215 232 255
215 232 255
215 232 255
215 232 255
215 232 255
215 232 255
215 232 255
215 232 255
215 232 255
215 232 255
215 232 255
215 232 255
215 232 255
215 232 255
215 232 255
215 232 255
215 232 255
215 232 255
215 232 255
215 232 255
215 232 255
215 232 255
215 232 255
215 232 255
215 232 255
215 232 255
215 232 255
215 232 255
215 232 255
215 232 255
215 232 255
215 232 255
215 232 255
215 232 255
215 232 255
215 232 255
215 232 255
215 232 255
215 232 255
215 232 255
215 232 255
215 232 255
215 232 255
215 232 255
215 232 255
215 232 255
215 232 255
215 232 255
215 232 255
215 232 255
215 232 255
215 232 255
215 232 255
215 232 255
215 232 255
215 232 255
215 232 255
215 232 255
215 232 255
215 232 255
215 232 255
215 232 255
215 232 255
215 232 255
215 232 255
215 232 255
215 232 255
215 232 255
215 232 255
215 232 255
215 232 255
215 232 255
215 232 255
215 232 255
215 232 255
215 232 255
215 232 255
215 232 255
215 232 255
215 232 255
215 232 255
215 232 255
215 232 255
215 232 255
215 232 255
215 232 255
215 232 255
215 232 255
215 232 255
215 232 255
215 232 255
215 232 255
215 232 255
215 232 255
215 232 255
215 232 255
215 232 255
215 232 255
215 232 255
215 232 255
215 232 255
215 232 255
215 232 255
215 232 255
215 232 255
215 232 255
215 232 255
215 232 255
215 232 255
215 232 255
215 232 255
215 232 255
215 232 255
215 232 255
215 232 255
215 232 255
215 232 255
215 232 255
215 232 255
215 232 255
215 232 255
215 232 255
215 232 255
215 232 255
215 232 255
215 232 255
215 232 255
215 232 255
215 232 255
215 232 255
215 232 255
215 232 255
215 232 255
215 232 255
215 232 255
215 232 255
215 232 255
215 232 255
215 232 255
215 232 255
215 232 255
215 232 255
215 232 255
215 232 255
215 232 255
215 232 255
215 232 255
215 232 255
215 232 255
215 232 255
215 232 255
215 232 255
215 232 255
215 232 255
215 232 255
215 232 255
215 232 255
215 232 255
215 232 255
215 232 255
215 232 255
215 232 255
215 232 255
215 232 255
215 232 255
215 232 255
215 232 255
215 232 255
215 232 255
215 232 255
215 232 255
215 232 255
215 232 255
215 232 255
215 232 255
215 232 255
215 232 255
215 232 255
215 232 255
215 232 255
215 232 255
215 232 255
215 232 255
215 232 255
215 232 255
215 232 255
215 232 255
215 232 255
215 232 255
215 232 255
215 232 255
215 232 255
215 232 255
215 232 255
215 232 255
215 232 255
215 232 255
215 232 255
215 232 255
215 232 255
215 232 255
215 232 255
215 232 255
215 232 255
215 232 255
215 232 255
215 232 255
215 232 255
215 232 255
215 232 255
215 232 255
215 232 255
215 232 255
215 232 255
215 232 255
215 232 255
215 232 255
215 232 255
215 232 255
215 232 255
215 232 255
215 232 255
215 232 255
215 232 255
215 232 255
215 232 255
215 232 255
215 232 255
215 232 255
215 232 255
215 232 255
215 232 255
215 232 255
215 232 255
215 232 255
215 232 255
215 232 255
215 232 255
215 232 255
215 232 255
215 232 255
215 232 255
215 232 255
215 232 255
215 232 255
215 232 255
215 232 255
215 232 255
215 232 255
215 232 255
215 232 255
215 232 255
215 232 255
215 232 255
215 232 255
215 232 255
215 232 255
215 232 255
215 232 255
215 232 255
215 232 255
215 232 255
215 232 255
215 232 255
215 232 255
215 232 255
215 232 255
215 232 255
215 232 255
215 232 255
215 232 255
215 232 255
215 232 255
215 232 255
215 232 255
215 232 255
215 232 255
215 232 255
215 232 255
215 232 255
215 232 255
215 232 255
215 232 255
215 232 255
215 232 255
215 232 255
215 232 255
215 232 255
215 232 255
215 232 255
215 232 255
215 232 255
215 232 255
215 232 255
215 232 255
215 232 255
215 232 255
215 232 255
215 232 255
215 232 255
215 232 255
215 232 255
215 232 255
215 232 255
215 232 255
215 232 255
215 232 255
215 232 255
215 232 255
215 232 255
215 232 255
215 232 255
215 232 255
215 232 255
215 232 255
215 232 255
215 232 255
215 232 255
215 232 255
215 232 255
215 232 255
215 232 255
215 232 255
215 232 255
215 232 255
215 232 255
215 232 255
215 232 255
215 232 255
215 232 255
215 232 255
215 232 255
215 232 255
215 232 255
215 232 255
215 232 255
215 232 255
215 232 255
215 232 255
215 232 255
215 232 255
215 232 255
215 232 255
215 232 255
215 232 255
215 232 255
215 232 255
215 232 255
215 232 255
215 232 255
215 232 255
215 232 255
215 232 255
215 232 255
215 232 255
215 232 255
215 232 255
215 232 255
215 232 255
215 232 255
215 232 255
215 232 255
215 232 255
215 232 255
215 232 255
215 232 255
215 232 255
215 232 255
215 232 255
215 232 255
215 232 255
215 232 255
215 232 255
215 232 255
215 232 255
215 232 255
215 232 255
215 232 255
215 232 255
215 232 255
215 232 255
215 232 255
215 232 255
215 232 255
215 232 255
215 232 255
215 232 255
215 232 255
215 232 255
215 232 255
215 232 255
215 232 255
215 232 255
215 232 255
215 232 255
215 232 255
215 232 255
215 232 255
215 232 255
215 232 255
215 232 255
215 232 255
215 232 255
215 232 255
215 232 255
215 232 255
215 232 255
215 232 255
215 232 255
215 232 255
215 232 255
215 232 255
215 232 255
215 232 255
215 232 255
215 232 255
215 232 255
215 232 255
215 232 255
215 232 255
215 232 255
215 232 255
215 232 255
215 232 255
215 232 255
215 232 255
215 232 255
215 232 255
215 232 255
215 232 255
215 232 255
215 232 255
215 232 255
215 232 255
215 232 255
215 232 255
215 232 255
215 232 255
215 232 255
215 232 255
215 232 255
215 232 255
215 232 255
215 232 255
215 232 255
215 232 255
215 232 255
215 232 255
215 232 255
215 232 255
215 232 255
215 232 255
215 232 255
215 232 255
215 232 255
215 232 255
215 232 255
215 232 255
215 232 255
215 232 255
215 232 255
215 232 255
215 232 255
215 232 255
215 232 255
215 232 255
215 232 255
215 232 255
215 232 255
215 232 255
215 232 255
215 232 255
215 232 255
215 232 255
215 232 255
215 232 255
215 232 255
215 232 255
215 232 255
215 232 255
215 232 255
215 232 255
215 232 255
215 232 255
215 232 255
215 232 255
215 232 255
215 232 255
215 232 255
215 232 255
215 232 255
215 232 255
215 232 255
215 232 255
215 232 255
215 232 255
215 232 255
215 232 255
215 232 255
215 232 255
215 232 255
215 232 255
215 232 255
215 232 255
215 232 255
215 232 255
215 232 255
215 232 255
215 232 255
215 232 255
215 232 255
215 232 255
215 232 255
215 232 255
215 232 255
215 232 255
215 232 255
215 232 255
215 232 255
215 232 255
215 232 255
215 232 255
215 232 255
215 232 255
215 232 255
215 232 255
215 232 255
215 232 255
215 232 255
215 232 255
215 232 255
215 232 255
215 232 255
215 232 255
215 232 255
215 232 255
215 232 255
215 232 255
215 232 255
215 232 255
215 232 255
215 232 255
215 232 255
215 232 255
215 232 255
215 232 255
215 232 255
215 232 255
215 232 255
215 232 255
215 232 255
215 232 255
215 232 255
215 232 255
215 232 255
215 232 255
215 232 255
215 232 255
215 232 255
215 232 255
215 232 255
215 232 255
215 232 255
215 232 255
215 232 255
215 232 255
215 232 255
215 232 255
215 232 255
215 232 255
215 232 255
215 232 255
215 232 255
215 232 255
215 232 255
215 232 255
215 232 255
215 232 255
215 232 255
215 232 255
215 232 255
215 232 255
215 232 255
215 232 255
215 232 255
215 232 255
215 232 255
215 232 255
215 232 255
215 232 255
215 232 255
215 232 255
215 232 255
215 232 255
215 232 255
215 232 255
215 232 255
215 232 255
215 232 255
215 232 255
215 232 255
215 232 255
215 232 255
215 232 255
215 232 255
215 232 255
215 232 255
215 232 255
215 232 255
215 232 255
215 232 255
215 232 255
215 232 255
215 232 255
215 232 255
215 232 255
215 232 255
215 232 255
215 232 255
215 232 255
215 232 255
215 232 255
215 232 255
215 232 255
215 232 255
215 232 255
215 232 255
215 232 255
215 232 255
215 232 255
215 232 255
215 232 255
215 232 255
215 232 255
215 232 255
215 232 255
215 232 255
215 232 255
215 232 255
215 232 255
215 232 255
215 232 255
215 232 255
215 232 255
215 232 255
215 232 255
215 232 255
215 232 255
215 232 255
215 232 255
215 232 255
215 232 255
215 232 255
215 232 255
215 232 255
215 232 255
215 232 255
215 232 255
215 232 255
215 232 255
215 232 255
215 232 255
215 232 255
215 232 255
215 232 255
215 232 255
215 232 255
215 232 255
215 232 255
215 232 255
215 232 255
215 232 255
215 232 255
215 232 255
215 232 255
215 232 255
215 232 255
215 232 255
215 232 255
215 232 255
215 232 255
215 232 255
215 232 255
215 232 255
215 232 255
215 232 255
215 232 255
215 232 255
215 232 255
215 232 255
215 232 255
215 232 255
215 232 255
215 232 255
215 232 255
215 232 255
215 232 255
215 232 255
215 232 255
215 232 255
215 232 255
215 232 255
215 232 255
215 232 255
215 232 255
215 232 255
215 232 255
215 232 255
215 232 255
215 232 255
215 232 255
215 232 255
215 232 255
215 232 255
215 232 255
215 232 255
213 231 255
210 229 254
210 229 254
206 225 250
206 225 251
203 221 246
202 222 248
201 220 245
205 223 247
199 217 239
197 215 236
206 224 248
206 226 252
209 228 253
210 228 252
208 225 249
213 230 253
215 232 255
215 232 255
215 232 255
215 232 255
215 232 255
215 232 255
215 232 255
215 232 255
215 232 255
215 232 255
215 232 255
215 232 255
215 232 255
215 232 255
215 232 255
215 232 255
215 232 255
215 232 255
215 232 255
215 232 255
215 232 255
215 232 255
215 232 255
215 232 255
215 232 255
215 232 255
215 232 255
215 232 255
215 232 255
215 232 255
215 232 255
215 232 255
215 232 255
215 232 255
215 232 255
215 232 255
215 232 255
215 232 255
215 232 255
215 232 255
215 232 255
215 232 255
215 232 255
215 232 255
215 232 255
215 232 255
215 232 255
215 232 255
215 232 255
215 232 255
215 232 255
215 232 255
215 232 255
215 232 255
215 232 255
215 232 255
215 232 255
215 232 255
215 232 255
215 232 255
215 232 255
215 232 255
215 232 255
215 232 255
215 232 255
215 232 255
215 232 255
215 232 255
215 232 255
215 232 255
215 232 255
215 232 255
215 232 255
215 232 255
215 232 255
215 232 255
215 232 255
215 232 255
215 232 255
215 232 255
215 232 255
215 232 255
215 232 255
215 232 255
215 232 255
215 232 255
215 232 255
215 232 255
215 232 255
215 232 255
215 232 255
215 232 255
215 232 255
215 232 255
215 232 255
215 232 255
215 232 255
215 232 255
215 232 255
215 232 255
215 232 255
215 232 255
215 232 255
215 232 255
215 232 255
215 232 255
215 232 255
215 232 255
215 232 255
215 232 255
215 232 255
215 232 255
215 232 255
215 232 255
215 232 255
215 232 255
215 232 255
215 232 255
215 232 255
215 232 255
215 232 255
215 232 255
215 232 255
215 232 255
215 232 255
215 232 255
215 232 255
215 232 255
215 232 255
215 232 255
215 232 255
215 232 255
215 232 255
215 232 255
215 232 255
215 232 255
215 232 255
215 232 255
215 232 255
215 232 255
215 232 255
215 232 255
215 232 255
215 232 255
215 232 255
215 232 255
215 232 255
215 232 255
215 232 255
215 232 255
215 232 255
215 232 255
215 232 255
215 232 255
215 232 255
215 232 255
215 232 255
215 232 255
215 232 255
215 232 255
215 232 255
215 232 255
215 232 255
215 232 255
215 232 255
215 232 255
215 232 255
215 232 255
215 232 255
215 232 255
215 232 255
215 232 255
215 232 255
215 232 255
215 232 255
215 232 255
215 232 255
215 232 255
215 232 255
215 232 255
215 232 255
215 232 255
215 232 255
215 232 255
215 232 255
215 232 255
215 232 255
215 232 255
215 232 255
215 232 255
215 232 255
215 232 255
215 232 255
215 232 255
215 232 255
215 232 255
215 232 255
215 232 255
215 232 255
215 232 255
215 232 255
215 232 255
215 232 255
215 232 255
215 232 255
215 232 255
215 232 255
215 232 255
215 232 255
215 232 255
215 232 255
215 232 255
215 232 255
215 232 255
215 232 255
215 232 255
215 232 255
215 232 255
215 232 255
215 232 255
215 232 255
215 232 255
215 232 255
215 232 255
215 232 255
215 232 255
215 232 255
215 232 255
215 232 255
215 232 255
215 232 255
215 232 255
215 232 255
215 232 255
215 232 255
215 232 255
215 232 255
215 232 255
215 232 255
215 232 255
215 232 255
215 232 255
215 232 255
215 232 255
215 232 255
215 232 255
215 232 255
215 232 255
215 232 255
215 232 255
215 232 255
215 232 255
215 232 255
215 232 255
215 232 255
215 232 255
215 232 255
215 232 255
215 232 255
215 232 255
215 232 255
215 232 255
215 232 255
215 232 255
215 232 255
215 232 255
215 232 255
215 232 255
215 232 255
215 232 255
215 232 255
215 232 255
215 232 255
215 232 255
215 232 255
215 232 255
215 232 255
215 232 255
215 232 255
215 232 255
215 232 255
215 232 255
215 232 255
215 232 255
215 232 255
215 232 255
215 232 255
215 232 255
215 232 255
215 232 255
215 232 255
215 232 255
215 232 255
215 232 255
215 232 255
215 232 255
215 232 255
215 232 255
215 232 255
215 232 255
215 232 255
215 232 255
215 232 255
215 232 255
215 232 255
215 232 255
215 232 255
215 232 255
215 232 255
215 232 255
215 232 255
215 232 255
215 232 255
215 232 255
215 232 255
215 232 255
215 232 255
215 232 255
215 232 255
215 232 255
215 232 255
215 232 255
215 232 255
215 232 255
215 232 255
215 232 255
215 232 255
215 232 255
215 232 255
215 232 255
215 232 255
215 232 255
215 232 255
215 232 255
215 232 255
215 232 255
215 232 255
215 232 255
215 232 255
215 232 255
215 232 255
215 232 255
215 232 255
215 232 255
215 232 255
215 232 255
215 232 255
215 232 255
215 232 255
215 232 255
215 232 255
215 232 255
215 232 255
215 232 255
215 232 255
215 232 255
215 232 255
215 232 255
215 232 255
215 232 255
215 232 255
215 232 255
215 232 255
215 232 255
215 232 255
215 232 255
215 232 255
215 232 255
215 232 255
215 232 255
215 232 255
215 232 255
215 232 255
215 232 255
214 231 255
210 229 254
201 219 243
194 215 241
193 213 240
187 206 227
181 201 226
180 200 222
174 195 216
187 211 240
176 200 228
168 188 204
157 176 195
150 171 205
164 186 212
159 179 206
153 175 212
171 192 218
176 195 210
126 143 174
141 158 182
162 182 207
117 135 175
107 126 171
90 109 163
83 104 161
94 114 168
103 123 175
147 164 202
138 155 196
159 177 213
186 203 233
207 226 253
214 231 255
215 232 255
215 232 255
215 232 255
215 232 255
215 232 255
215 232 255
215 232 255
215 232 255
215 232 255
215 232 255
215 232 255
215 232 255
215 232 255
215 232 255
215 232 255
215 232 255
215 232 255
215 232 255
215 232 255
215 232 255
215 232 255
215 232 255
215 232 255
215 232 255
215 232 255
215 232 255
215 232 255
215 232 255
215 232 255
215 232 255
215 232 255
215 232 255
215 232 255
215 232 255
215 232 255
215 232 255
215 232 255
215 232 255
215 232 255
215 232 255
215 232 255
215 232 255
215 232 255
215 232 255
215 232 255
215 232 255
215 232 255
215 232 255
215 232 255
215 232 255
215 232 255
215 232 255
215 232 255
215 232 255
215 232 255
215 232 255
215 232 255
215 232 255
215 232 255
215 232 255
215 232 255
215 232 255
215 232 255
215 232 255
215 232 255
215 232 255
215 232 255
215 232 255
215 232 255
215 232 255
215 232 255
215 232 255
215 232 255
215 232 255
215 232 255
215 232 255
215 232 255
215 232 255
215 232 255
215 232 255
215 232 255
215 232 255
215 232 255
215 232 255
215 232 255
215 232 255
215 232 255
215 232 255
215 232 255
215 232 255
215 232 255
215 232 255
215 232 255
215 232 255
215 232 255
215 232 255
215 232 255
215 232 255
215 232 255
215 232 255
215 232 255
215 232 255
215 232 255
215 232 255
215 232 255
215 232 255
215 232 255
215 232 255
215 232 255
215 232 255
215 232 255
215 232 255
215 232 255
215 232 255
215 232 255
215 232 255
215 232 255
215 232 255
215 232 255
215 232 255
215 232 255
215 232 255
215 232 255
215 232 255
215 232 255
215 232 255
215 232 255
215 232 255
215 232 255
215 232 255
215 232 255
215 232 255
215 232 255
215 232 255
215 232 255
215 232 255
215 232 255
215 232 255
215 232 255
215 232 255
215 232 255
215 232 255
215 232 255
215 232 255
215 232 255
215 232 255
215 232 255
215 232 255
215 232 255
215 232 255
215 232 255
215 232 255
215 232 255
215 232 255
215 232 255
215 232 255
215 232 255
215 232 255
215 232 255
215 232 255
215 232 255
215 232 255
215 232 255
215 232 255
215 232 255
215 232 255
215 232 255
215 232 255
215 232 255
215 232 255
215 232 255
215 232 255
215 232 255
215 232 255
215 232 255
215 232 255
215 232 255
215 232 255
215 232 255
215 232 255
215 232 255
215 232 255
215 232 255
215 232 255
215 232 255
215 232 255
215 232 255
215 232 255
215 232 255
215 232 255
215 232 255
215 232 255
215 232 255
215 232 255
215 232 255
215 232 255
215 232 255
215 232 255
215 232 255
215 232 255
215 232 255
215 232 255
215 232 255
215 232 255
215 232 255
215 232 255
215 232 255
215 232 255
215 232 255
215 232 255
215 232 255
215 232 255
215 232 255
215 232 255
215 232 255
215 232 255
215 232 255
215 232 255
215 232 255
215 232 255
215 232 255
215 232 255
215 232 255
215 232 255
215 232 255
215 232 255
215 232 255
215 232 255
215 232 255
215 232 255
215 232 255
215 232 255
215 232 255
215 232 255
215 232 255
215 232 255
215 232 255
215 232 255
215 232 255
215 232 255
215 232 255
215 232 255
215 232 255
215 232 255
215 232 255
215 232 255
215 232 255
215 232 255
215 232 255
215 232 255
215 232 255
215 232 255
215 232 255
215 232 255
215 232 255
215 232 255
215 232 255
215 232 255
215 232 255
215 232 255
215 232 255
215 232 255
215 232 255
215 232 255
215 232 255
215 232 255
215 232 255
215 232 255
215 232 255
215 232 255
215 232 255
215 232 255
215 232 255
215 232 255
215 232 255
215 232 255
215 232 255
215 232 255
215 232 255
215 232 255
215 232 255
215 232 255
215 232 255
215 232 255
215 232 255
215 232 255
215 232 255
215 232 255
215 232 255
215 232 255
215 232 255
215 232 255
215 232 255
215 232 255
215 232 255
215 232 255
215 232 255
215 232 255
215 232 255
215 232 255
215 232 255
215 232 255
215 232 255
215 232 255
215 232 255
215 232 255
215 232 255
215 232 255
215 232 255
215 232 255
215 232 255
215 232 255
215 232 255
215 232 255
215 232 255
215 232 255
215 232 255
215 232 255
215 232 255
215 232 255
215 232 255
215 232 255
215 232 255
215 232 255
215 232 255
215 232 255
215 232 255
215 232 255
215 232 255
215 232 255
215 232 255
215 232 255
215 232 255
215 232 255
215 232 255
215 232 255
215 232 255
215 232 255
215 232 255
215 232 255
215 232 255
215 232 255
215 232 255
215 232 255
215 232 255
215 232 255
215 232 255
215 232 255
215 232 255
215 232 255
215 232 255
215 232 255
215 232 255
215 232 255
215 232 255
215 232 255
215 232 255
215 232 255
215 232 255
215 232 255
215 232 255
212 231 255
205 225 253
192 211 237
173 190 209
149 164 181
129 141 151
121 131 133
128 138 131
134 144 131
135 145 129
132 143 131
131 144 132
120 134 110
135 157 179
173 198 229
177 203 239
151 170 189
128 145 173
102 112 127
117 129 121
102 114 132
145 164 198
159 179 204
111 124 155
141 156 172
129 141 147
131 141 138
125 136 138
119 132 145
120 133 153
129 145 168
122 136 150
129 147 176
125 145 182
111 131 175
82 104 160
45 71 142
15 58 141
65 92 158
121 144 191
160 183 221
183 203 230
209 228 254
211 230 255
215 232 255
215 232 255
215 232 255
215 232 255
215 232 255
215 232 255
215 232 255
215 232 255
215 232 255
215 232 255
215 232 255
215 232 255
215 232 255
215 232 255
215 232 255
215 232 255
215 232 255
215 232 255
215 232 255
215 232 255
215 232 255
215 232 255
215 232 255
215 232 255
215 232 255
215 232 255
215 232 255
215 232 255
215 232 255
215 232 255
215 232 255
215 232 255
215 232 255
215 232 255
215 232 255
215 232 255
215 232 255
215 232 255
215 232 255
215 232 255
215 232 255
215 232 255
215 232 255
215 232 255
215 232 255
215 232 255
215 232 255
215 232 255
215 232 255
215 232 255
215 232 255
215 232 255
215 232 255
215 232 255
215 232 255
215 232 255
215 232 255
215 232 255
215 232 255
215 232 255
215 232 255
215 232 255
215 232 255
215 232 255
215 232 255
215 232 255
215 232 255
215 232 255
215 232 255
215 232 255
215 232 255
215 232 255
215 232 255
215 232 255
215 232 255
215 232 255
215 232 255
215 232 255
215 232 255
215 232 255
215 232 255
215 232 255
215 232 255
215 232 255
215 232 255
215 232 255
215 232 255
215 232 255
215 232 255
215 232 255
215 232 255
215 232 255
215 232 255
215 232 255
215 232 255
215 232 255
215 232 255
215 232 255
215 232 255
215 232 255
215 232 255
215 232 255
215 232 255
215 232 255
215 232 255
215 232 255
215 232 255
215 232 255
215 232 255
215 232 255
215 232 255
215 232 255
215 232 255
215 232 255
215 232 255
215 232 255
215 232 255
215 232 255
215 232 255
215 232 255
215 232 255
215 232 255
215 232 255
215 232 255
215 232 255
215 232 255
215 232 255
215 232 255
215 232 255
215 232 255
215 232 255
215 232 255
215 232 255
215 232 255
215 232 255
215 232 255
215 232 255
215 232 255
215 232 255
215 232 255
215 232 255
215 232 255
215 232 255
215 232 255
215 232 255
215 232 255
215 232 255
215 232 255
215 232 255
215 232 255
215 232 255
215 232 255
215 232 255
215 232 255
215 232 255
215 232 255
215 232 255
215 232 255
215 232 255
215 232 255
215 232 255
215 232 255
215 232 255
215 232 255
215 232 255
215 232 255
215 232 255
215 232 255
215 232 255
215 232 255
215 232 255
215 232 255
215 232 255
215 232 255
215 232 255
215 232 255
215 232 255
215 232 255
215 232 255
215 232 255
215 232 255
215 232 255
215 232 255
215 232 255
215 232 255
215 232 255
215 232 255
215 232 255
215 232 255
215 232 255
215 232 255
215 232 255
215 232 255
215 232 255
215 232 255
215 232 255
215 232 255
215 232 255
215 232 255
215 232 255
215 232 255
215 232 255
215 232 255
215 232 255
215 232 255
215 232 255
215 232 255
215 232 255
215 232 255
215 232 255
215 232 255
215 232 255
215 232 255
215 232 255
215 232 255
215 232 255
215 232 255
215 232 255
215 232 255
215 232 255
215 232 255
215 232 255
215 232 255
215 232 255
215 232 255
215 232 255
215 232 255
215 232 255
215 232 255
215 232 255
215 232 255
215 232 255
215 232 255
215 232 255
215 232 255
215 232 255
215 232 255
215 232 255
215 232 255
215 232 255
215 232 255
215 232 255
215 232 255
215 232 255
215 232 255
215 232 255
215 232 255
215 232 255
215 232 255
215 232 255
215 232 255
215 232 255
215 232 255
215 232 255
215 232 255
215 232 255
215 232 255
215 232 255
215 232 255
215 232 255
215 232 255
215 232 255
215 232 255
215 232 255
215 232 255
215 232 255
215 232 255
215 232 255
215 232 255
215 232 255
215 232 255
215 232 255
215 232 255
215 232 255
215 232 255
215 232 255
215 232 255
215 232 255
215 232 255
215 232 255
215 232 255
215 232 255
215 232 255
215 232 255
215 232 255
215 232 255
215 232 255
215 232 255
215 232 255
215 232 255
215 232 255
215 232 255
215 232 255
215 232 255
215 232 255
215 232 255
215 232 255
215 232 255
215 232 255
215 232 255
215 232 255
215 232 255
215 232 255
215 232 255
215 232 255
215 232 255
215 232 255
215 232 255
215 232 255
215 232 255
215 232 255
215 232 255
215 232 255
215 232 255
215 232 255
215 232 255
215 232 255
215 232 255
215 232 255
215 232 255
215 232 255
215 232 255
215 232 255
215 232 255
215 232 255
215 232 255
215 232 255
215 232 255
215 232 255
215 232 255
215 232 255
215 232 255
215 232 255
215 232 255
215 232 255
215 232 255
215 232 255
215 232 255
215 232 255
215 232 255
215 232 255
215 232 255
215 232 255
215 232 255
215 232 255
215 232 255
215 232 255
215 232 255
215 232 255
215 232 255
215 232 255
211 228 253
199 217 244
189 208 239
151 170 203
128 148 184
135 155 188
104 116 139
82 95 135
77 89 130
88 100 131
86 96 129
106 117 116
98 109 116
93 111 125
98 114 111
98 116 113
87 113 124
90 115 127
81 112 138
82 112 141
90 117 135
109 125 116
93 110 122
103 111 116
116 124 114
118 126 118
122 132 128
118 128 119
124 137 152
123 136 153
119 131 137
117 128 127
109 120 121
64 78 131
80 96 155
84 105 163
79 93 138
99 111 119
87 100 124
94 108 129
129 142 145
137 153 169
104 121 157
77 103 161
28 72 146
14 71 150
23 78 153
60 91 154
98 124 173
150 171 202
184 205 234
205 226 254
210 229 255
214 232 255
215 232 255
215 232 255
215 232 255
215 232 255
215 232 255
215 232 255
215 232 255
215 232 255
215 232 255
215 232 255
215 232 255
215 232 255
215 232 255
215 232 255
215 232 255
215 232 255
215 232 255
215 232 255
215 232 255
215 232 255
215 232 255
215 232 255
215 232 255
215 232 255
215 232 255
215 232 255
215 232 255
215 232 255
215 232 255
215 232 255
215 232 255
215 232 255
215 232 255
215 232 255
215 232 255
215 232 255
215 232 255
215 232 255
215 232 255
215 232 255
215 232 255
215 232 255
215 232 255
215 232 255
215 232 255
215 232 255
215 232 255
215 232 255
215 232 255
215 232 255
215 232 255
215 232 255
215 232 255
215 232 255
215 232 255
215 232 255
215 232 255
215 232 255
215 232 255
215 232 255
215 232 255
215 232 255
215 232 255
215 232 255
215 232 255
215 232 255
215 232 255
215 232 255
215 232 255
215 232 255
215 232 255
215 232 255
215 232 255
215 232 255
215 232 255
215 232 255
215 232 255
215 232 255
215 232 255
215 232 255
215 232 255
215 232 255
215 232 255
215 232 255
215 232 255
215 232 255
215 232 255
215 232 255
215 232 255
215 232 255
215 232 255
215 232 255
215 232 255
215 232 255
215 232 255
215 232 255
215 232 255
215 232 255
215 232 255
215 232 255
215 232 255
215 232 255
215 232 255
215 232 255
215 232 255
215 232 255
215 232 255
215 232 255
215 232 255
215 232 255
215 232 255
215 232 255
215 232 255
215 232 255
215 232 255
215 232 255
215 232 255
215 232 255
215 232 255
215 232 255
215 232 255
215 232 255
215 232 255
215 232 255
215 232 255
215 232 255
215 232 255
215 232 255
215 232 255
215 232 255
215 232 255
215 232 255
215 232 255
215 232 255
215 232 255
215 232 255
215 232 255
215 232 255
215 232 255
215 232 255
215 232 255
215 232 255
215 232 255
215 232 255
215 232 255
215 232 255
215 232 255
215 232 255
215 232 255
215 232 255
215 232 255
215 232 255
215 232 255
215 232 255
215 232 255
215 232 255
215 232 255
215 232 255
215 232 255
215 232 255
215 232 255
215 232 255
215 232 255
215 232 255
215 232 255
215 232 255
215 232 255
215 232 255
215 232 255
215 232 255
215 232 255
215 232 255
215 232 255
215 232 255
215 232 255
215 232 255
215 232 255
215 232 255
215 232 255
215 232 255
215 232 255
215 232 255
215 232 255
215 232 255
215 232 255
215 232 255
215 232 255
215 232 255
215 232 255
215 232 255
215 232 255
215 232 255
215 232 255
215 232 255
215 232 255
215 232 255
215 232 255
215 232 255
215 232 255
215 232 255
215 232 255
215 232 255
215 232 255
215 232 255
215 232 255
215 232 255
215 232 255
215 232 255
215 232 255
215 232 255
215 232 255
215 232 255
215 232 255
215 232 255
215 232 255
215 232 255
215 232 255
215 232 255
215 232 255
215 232 255
215 232 255
215 232 255
215 232 255
215 232 255
215 232 255
215 232 255
215 232 255
215 232 255
215 232 255
215 232 255
215 232 255
215 232 255
215 232 255
215 232 255
215 232 255
215 232 255
215 232 255
215 232 255
215 232 255
215 232 255
215 232 255
215 232 255
215 232 255
215 232 255
215 232 255
215 232 255
215 232 255
215 232 255
215 232 255
215 232 255
215 232 255
215 232 255
215 232 255
215 232 255
215 232 255
215 232 255
215 232 255
215 232 255
215 232 255
215 232 255
215 232 255
215 232 255
215 232 255
215 232 255
215 232 255
215 232 255
215 232 255
215 232 255
215 232 255
215 232 255
215 232 255
215 232 255
215 232 255
215 232 255
215 232 255
215 232 255
215 232 255
215 232 255
215 232 255
215 232 255
215 232 255
215 232 255
215 232 255
215 232 255
215 232 255
215 232 255
215 232 255
215 232 255
215 232 255
215 232 255
215 232 255
215 232 255
215 232 255
215 232 255
215 232 255
215 232 255
215 232 255
215 232 255
215 232 255
215 232 255
215 232 255
215 232 255
215 232 255
215 232 255
215 232 255
215 232 255
215 232 255
215 232 255
215 232 255
215 232 255
215 232 255
215 232 255
215 232 255
215 232 255
215 232 255
215 232 255
215 232 255
215 232 255
215 232 255
215 232 255
215 232 255
215 232 255
215 232 255
215 232 255
215 232 255
215 232 255
215 232 255
215 232 255
215 232 255
215 232 255
215 232 255
215 232 255
215 232 255
215 232 255
215 232 255
215 232 255
215 232 255
215 232 255
215 232 255
215 232 255
215 232 255
215 232 255
213 230 253
191 207 233
136 153 189
120 137 160
76 93 118
85 99 91
91 105 84
103 116 97
107 118 110
112 123 111
108 120 103
105 120 98
104 118 99
102 114 104
104 115 106
109 121 106
109 122 110
99 115 110
108 119 102
109 118 100
108 117 96
110 119 98
110 119 100
111 121 100
108 120 99
110 120 103
110 119 106
114 122 110
115 123 115
114 123 115
114 123 117
105 113 117
107 116 115
90 101 124
123 136 152
134 149 171
131 149 180
79 99 161
46 70 144
39 62 140
34 60 140
51 67 130
43 65 134
57 75 130
118 127 114
121 132 120
109 122 117
123 136 137
126 143 165
133 150 177
103 123 160
89 118 168
47 86 151
14 79 155
32 86 158
64 100 160
139 160 185
181 205 237
200 224 255
206 227 255
210 229 255
215 232 255
215 232 255
215 232 255
215 232 255
215 232 255
215 232 255
215 232 255
215 232 255
215 232 255
215 232 255
215 232 255
215 232 255
215 232 255
215 232 255
215 232 255
215 232 255
215 232 255
215 232 255
215 232 255
215 232 255
215 232 255
215 232 255
215 232 255
215 232 255
215 232 255
215 232 255
215 232 255
215 232 255
215 232 255
215 232 255
215 232 255
215 232 255
215 232 255
215 232 255
215 232 255
215 232 255
215 232 255
215 232 255
215 232 255
215 232 255
215 232 255
215 232 255
215 232 255
215 232 255
215 232 255
215 232 255
215 232 255
215 232 255
215 232 255
215 232 255
215 232 255
215 232 255
215 232 255
215 232 255
215 232 255
215 232 255
215 232 255
215 232 255
215 232 255
215 232 255
215 232 255
215 232 255
215 232 255
215 232 255
215 232 255
215 232 255
215 232 255
215 232 255
215 232 255
215 232 255
215 232 255
215 232 255
215 232 255
215 232 255
215 232 255
215 232 255
215 232 255
215 232 255
215 232 255
215 232 255
215 232 255
215 232 255
215 232 255
215 232 255
215 232 255
215 232 255
215 232 255
215 232 255
215 232 255
215 232 255
215 232 255
215 232 255
215 232 255
215 232 255
215 232 255
215 232 255
215 232 255
215 232 255
215 232 255
215 232 255
215 232 255
215 232 255
215 232 255
215 232 255
215 232 255
215 232 255
215 232 255
215 232 255
215 232 255
215 232 255
215 232 255
215 232 255
215 232 255
215 232 255
215 232 255
215 232 255
215 232 255
215 232 255
215 232 255
215 232 255
215 232 255
215 232 255
215 232 255
215 232 255
215 232 255
215 232 255
215 232 255
215 232 255
215 232 255
215 232 255
215 232 255
215 232 255
215 232 255
215 232 255
215 232 255
215 232 255
215 232 255
215 232 255
215 232 255
215 232 255
215 232 255
215 232 255
215 232 255
215 232 255
215 232 255
215 232 255
215 232 255
215 232 255
215 232 255
215 232 255
215 232 255
215 232 255
215 232 255
215 232 255
215 232 255
215 232 255
215 232 255
215 232 255
215 232 255
215 232 255
215 232 255
215 232 255
215 232 255
215 232 255
215 232 255
215 232 255
215 232 255
215 232 255
215 232 255
215 232 255
216 232 255
216 232 255
215 232 255
215 232 255
215 232 255
215 232 255
215 232 255
215 232 255
215 232 255
215 232 255
215 232 255
215 232 255
215 232 255
215 232 255
215 232 255
215 232 255
215 232 255
215 232 255
215 232 255
215 232 255
215 232 255
215 232 255
215 232 255
215 232 255
215 232 255
215 232 255
215 232 255
215 232 255
215 232 255
215 232 255
215 232 255
215 232 255
215 232 255
215 232 255
215 232 255
215 232 255
215 232 255
215 232 255
215 232 255
215 232 255
215 232 255
215 232 255
215 232 255
215 232 255
215 232 255
215 232 255
215 232 255
215 232 255
215 232 255
215 232 255
215 232 255
215 232 255
215 232 255
215 232 255
215 232 255
215 232 255
215 232 255
215 232 255
215 232 255
215 232 255
215 232 255
215 232 255
215 232 255
215 232 255
215 232 255
215 232 255
215 232 255
215 232 255
215 232 255
215 232 255
215 232 255
215 232 255
215 232 255
215 232 255
215 232 255
215 232 255
215 232 255
215 232 255
215 232 255
215 232 255
215 232 255
215 232 255
215 232 255
215 232 255
215 232 255
215 232 255
215 232 255
215 232 255
215 232 255
215 232 255
215 232 255
215 232 255
215 232 255
215 232 255
215 232 255
215 232 255
215 232 255
215 232 255
215 232 255
215 232 255
215 232 255
215 232 255
215 232 255
215 232 255
215 232 255
215 232 255
215 232 255
215 232 255
215 232 255
215 232 255
215 232 255
215 232 255
215 232 255
215 232 255
215 232 255
215 232 255
215 232 255
215 232 255
215 232 255
215 232 255
215 232 255
215 232 255
215 232 255
215 232 255
215 232 255
215 232 255
215 232 255
215 232 255
215 232 255
215 232 255
215 232 255
215 232 255
215 232 255
215 232 255
215 232 255
215 232 255
215 232 255
215 232 255
215 232 255
215 232 255
215 232 255
215 232 255
215 232 255
215 232 255
215 232 255
215 232 255
215 232 255
215 232 255
215 232 255
215 232 255
215 232 255
215 232 255
215 232 255
215 232 255
215 232 255
215 232 255
215 232 255
215 232 255
215 232 255
215 232 255
215 232 255
215 232 255
215 232 255
215 232 255
215 232 255
215 232 255
212 229 251
192 208 224
150 165 164
114 129 111
91 110 81
89 106 74
94 107 74
93 107 77
75 100 111
70 94 114
62 79 112
71 85 95
84 102 87
94 108 79
95 108 79
95 107 87
96 107 93
95 107 87
94 106 89
102 114 96
107 117 94
112 120 94
110 117 95
108 115 91
105 113 90
100 108 89
96 104 91
99 108 86
99 108 89
98 108 89
105 114 98
104 113 97
105 115 105
93 105 121
66 89 139
60 81 135
46 66 133
91 103 123
132 143 133
85 98 130
91 100 131
111 126 159
95 113 162
46 68 141
85 97 130
87 98 124
73 84 121
78 92 128
105 117 127
97 109 114
120 130 120
120 128 121
98 106 120
94 105 137
122 139 168
71 84 134
18 55 137
14 65 142
12 75 151
24 74 149
69 92 136
132 149 167
175 198 226
195 220 252
198 223 255
204 226 255
209 229 255
214 231 255
215 232 255
215 232 255
215 232 255
215 232 255
215 232 255
215 232 255
215 232 255
215 232 255
215 232 255
215 232 255
215 232 255
215 232 255
215 232 255
215 232 255
215 232 255
215 232 255
215 232 255
215 232 255
215 232 255
215 232 255
215 232 255
215 232 255
215 232 255
215 232 255
215 232 255
215 232 255
215 232 255
215 232 255
215 232 255
215 232 255
215 232 255
215 232 255
215 232 255
215 232 255
215 232 255
215 232 255
215 232 255
215 232 255
215 232 255
215 232 255
215 232 255
215 232 255
215 232 255
215 232 255
215 232 255
215 232 255
215 232 255
215 232 255
215 232 255
215 232 255
215 232 255
215 232 255
215 232 255
215 232 255
215 232 255
215 232 255
215 232 255
215 232 255
215 232 255
215 232 255
215 232 255
215 232 255
215 232 255
215 232 255
215 232 255
215 232 255
215 232 255
215 232 255
215 232 255
215 232 255
215 232 255
215 232 255
215 232 255
215 232 255
215 232 255
215 232 255
215 232 255
215 232 255
215 232 255
215 232 255
215 232 255
215 232 255
215 232 255
215 232 255
215 232 255
215 232 255
215 232 255
215 232 255
215 232 255
215 232 255
215 232 255
215 232 255
215 232 255
215 232 255
215 232 255
215 232 255
215 232 255
215 232 255
215 232 255
215 232 255
215 232 255
215 232 255
215 232 255
215 232 255
215 232 255
215 232 255
215 232 255
215 232 255
215 232 255
215 232 255
215 232 255
215 232 255
215 232 255
215 232 255
215 232 255
215 232 255
215 232 255
215 232 255
215 232 255
215 232 255
215 232 255
215 232 255
215 232 255
215 232 255
215 232 255
215 232 255
215 232 255
215 232 255
215 232 255
215 232 255
215 232 255
215 232 255
215 232 255
215 232 255
215 232 255
215 232 255
215 232 255
215 232 255
215 232 255
215 232 255
215 232 255
215 232 255
215 232 255
215 232 255
215 232 255
215 232 255
215 232 255
215 232 255
215 232 255
215 232 255
215 232 255
215 232 255
215 232 255
215 232 255
215 232 255
215 232 255
215 232 255
215 232 255
215 232 255
215 232 255
215 232 255
215 232 255
215 232 255
215 232 255
215 232 255
216 232 255
216 232 255
216 232 255
216 232 255
216 232 255
216 232 255
216 232 255
216 232 255
216 232 255
216 232 255
216 232 255
216 232 255
216 232 255
216 232 255
216 232 255
216 232 255
216 232 255
216 232 255
216 232 255
216 232 255
216 232 255
216 232 255
216 232 255
216 232 255
216 232 255
216 232 255
215 232 255
215 232 255
215 232 255
215 232 255
215 232 255
215 232 255
215 232 255
215 232 255
215 232 255
215 232 255
215 232 255
215 232 255
215 232 255
215 232 255
215 232 255
215 232 255
215 232 255
215 232 255
215 232 255
215 232 255
215 232 255
215 232 255
215 232 255
215 232 255
215 232 255
215 232 255
215 232 255
215 232 255
215 232 255
215 232 255
215 232 255
215 232 255
215 232 255
215 232 255
215 232 255
215 232 255
215 232 255
215 232 255
215 232 255
215 232 255
215 232 255
215 232 255
215 232 255
215 232 255
215 232 255
215 232 255
215 232 255
215 232 255
215 232 255
215 232 255
215 232 255
215 232 255
215 232 255
215 232 255
215 232 255
215 232 255
215 232 255
215 232 255
215 232 255
215 232 255
215 232 255
215 232 255
215 232 255
215 232 255
215 232 255
215 232 255
215 232 255
215 232 255
215 232 255
215 232 255
215 232 255
215 232 255
215 232 255
215 232 255
215 232 255
215 232 255
215 232 255
215 232 255
215 232 255
215 232 255
215 232 255
215 232 255
215 232 255
215 232 255
215 232 255
215 232 255
215 232 255
215 232 255
215 232 255
215 232 255
215 232 255
215 232 255
215 232 255
215 232 255
215 232 255
215 232 255
215 232 255
215 232 255
215 232 255
215 232 255
215 232 255
215 232 255
215 232 255
215 232 255
215 232 255
215 232 255
215 232 255
215 232 255
215 232 255
215 232 255
215 232 255
215 232 255
215 232 255
215 232 255
215 232 255
215 232 255
215 232 255
215 232 255
215 232 255
215 232 255
215 232 255
215 232 255
215 232 255
215 232 255
215 232 255
215 232 255
215 232 255
215 232 255
215 232 255
215 232 255
215 232 255
215 232 255
215 232 255
215 232 255
215 232 255
215 232 255
215 232 255
215 232 255
213 230 252
184 200 213
142 159 153
99 117 83
100 117 80
111 126 100
107 121 96
109 123 98
94 111 72
94 111 72
95 107 70
88 100 66
85 100 69
89 104 69
90 105 68
92 107 77
93 106 78
89 102 80
80 93 86
89 101 79
98 108 83
102 111 85
104 113 85
105 113 85
102 110 86
99 109 85
86 94 87
93 103 81
94 103 81
91 102 80
98 109 83
96 107 77
101 109 84
95 106 95
63 81 121
45 69 135
15 63 145
11 64 146
6 56 139
16 55 140
12 57 140
23 53 137
46 60 128
93 107 132
43 59 135
38 61 139
78 94 137
40 67 137
87 98 127
84 98 130
58 80 135
62 81 131
52 73 134
74 86 127
103 112 120
105 113 127
113 122 131
126 139 156
99 112 143
31 53 132
18 55 137
10 52 136
14 51 136
7 51 135
9 51 136
61 83 145
116 134 166
157 177 202
192 217 250
196 222 255
198 222 255
199 222 252
195 214 242
213 230 254
215 232 255
215 232 255
215 232 255
215 232 255
215 232 255
215 232 255
215 232 255
215 232 255
215 232 255
215 232 255
215 232 255
215 232 255
215 232 255
215 232 255
215 232 255
215 232 255
215 232 255
215 232 255
215 232 255
215 232 255
215 232 255
215 232 255
215 232 255
215 232 255
215 232 255
215 232 255
215 232 255
215 232 255
215 232 255
215 232 255
215 232 255
215 232 255
215 232 255
215 232 255
215 232 255
215 232 255
215 232 255
215 232 255
215 232 255
215 232 255
215 232 255
215 232 255
215 232 255
215 232 255
215 232 255
215 232 255
215 232 255
215 232 255
215 232 255
215 232 255
215 232 255
215 232 255
215 232 255
215 232 255
215 232 255
215 232 255
215 232 255
215 232 255
215 232 255
215 232 255
215 232 255
215 232 255
215 232 255
215 232 255
215 232 255
215 232 255
215 232 255
215 232 255
215 232 255
215 232 255
215 232 255
215 232 255
215 232 255
215 232 255
215 232 255
215 232 255
215 232 255
215 232 255
215 232 255
215 232 255
215 232 255
215 232 255
215 232 255
215 232 255
215 232 255
215 232 255
215 232 255
215 232 255
215 232 255
215 232 255
215 232 255
215 232 255
215 232 255
215 232 255
215 232 255
215 232 255
215 232 255
215 232 255
215 232 255
215 232 255
215 232 255
215 232 255
215 232 255
215 232 255
215 232 255
215 232 255
215 232 255
215 232 255
215 232 255
215 232 255
215 232 255
215 232 255
215 232 255
215 232 255
215 232 255
215 232 255
215 232 255
215 232 255
215 232 255
215 232 255
215 232 255
215 232 255
215 232 255
215 232 255
215 232 255
215 232 255
215 232 255
215 232 255
215 232 255
215 232 255
215 232 255
215 232 255
215 232 255
215 232 255
215 232 255
215 232 255
215 232 255
215 232 255
216 232 255
216 232 255
216 232 255
216 232 255
216 232 255
216 232 255
216 232 255
216 232 255
216 232 255
216 232 255
216 232 255
216 232 255
216 232 255
216 232 255
216 232 255
216 232 255
216 232 255
216 232 255
216 232 255
216 232 255
216 232 255
216 232 255
216 232 255
216 232 255
216 232 255
216 232 255
216 232 255
216 232 255
216 232 255
216 232 255
216 232 255
216 232 255
216 232 255
216 232 255
216 232 255
216 232 255
216 232 255
216 232 255
216 232 255
216 232 255
216 232 255
216 232 255
216 232 255
216 232 255
216 232 255
216 232 255
216 232 255
216 232 255
216 232 255
216 232 255
216 232 255
216 232 255
216 232 255
216 232 255
216 232 255
216 232 255
216 232 255
216 232 255
216 232 255
216 232 255
216 232 255
216 232 255
216 232 255
216 232 255
216 232 255
216 232 255
216 232 255
216 232 255
216 232 255
216 232 255
216 232 255
216 232 255
216 232 255
216 232 255
216 232 255
216 232 255
215 232 255
215 232 255
215 232 255
215 232 255
215 232 255
215 232 255
215 232 255
215 232 255
215 232 255
215 232 255
215 232 255
215 232 255
215 232 255
215 232 255
215 232 255
215 232 255
215 232 255
215 232 255
215 232 255
215 232 255
215 232 255
215 232 255
215 232 255
215 232 255
215 232 255
215 232 255
215 232 255
215 232 255
215 232 255
215 232 255
215 232 255
215 232 255
215 232 255
215 232 255
215 232 255
215 232 255
215 232 255
215 232 255
215 232 255
215 232 255
215 232 255
215 232 255
215 232 255
215 232 255
215 232 255
215 232 255
215 232 255
215 232 255
215 232 255
215 232 255
215 232 255
215 232 255
215 232 255
215 232 255
215 232 255
215 232 255
215 232 255
215 232 255
215 232 255
215 232 255
215 232 255
215 232 255
215 232 255
215 232 255
215 232 255
215 232 255
215 232 255
215 232 255
215 232 255
215 232 255
215 232 255
215 232 255
215 232 255
215 232 255
215 232 255
215 232 255
215 232 255
215 232 255
215 232 255
215 232 255
215 232 255
215 232 255
215 232 255
215 232 255
215 232 255
215 232 255
215 232 255
215 232 255
215 232 255
215 232 255
215 232 255
215 232 255
215 232 255
215 232 255
215 232 255
215 232 255
215 232 255
215 232 255
215 232 255
215 232 255
215 232 255
215 232 255
215 232 255
215 232 255
215 232 255
215 232 255
215 232 255
215 232 255
215 232 255
215 232 255
204 221 240
150 166 165
102 121 88
96 115 77
99 116 81
99 117 81
114 130 103
122 134 113
120 130 111
100 116 82
89 109 64
91 109 65
95 110 78
94 108 75
86 103 54
77 95 81
71 101 83
82 108 76
83 100 80
81 99 66
85 101 69
92 105 78
91 104 70
94 103 83
88 99 73
90 101 73
92 103 76
96 107 83
99 110 78
95 106 85
100 111 81
99 109 82
99 109 75
103 111 79
78 93 94
24 60 141
7 59 140
7 59 141
5 58 141
6 59 143
11 59 143
8 58 141
8 54 137
7 54 138
10 52 137
5 51 136
9 53 137
18 59 142
27 61 140
23 60 140
57 78 131
112 119 99
114 122 98
115 124 112
118 127 115
110 120 119
73 87 132
55 69 125
48 61 127
58 68 128
58 72 132
47 63 128
36 59 134
19 58 141
12 59 140
6 45 131
6 47 133
13 51 136
13 54 139
32 65 139
94 115 151
162 184 213
198 222 254
198 223 255
184 208 241
110 129 176
111 125 173
190 206 234
215 232 255
215 232 255
215 232 255
215 232 255
215 232 255
215 232 255
215 232 255
215 232 255
215 232 255
215 232 255
215 232 255
215 232 255
215 232 255
215 232 255
215 232 255
215 232 255
215 232 255
215 232 255
215 232 255
215 232 255
215 232 255
215 232 255
215 232 255
215 232 255
215 232 255
215 232 255
215 232 255
215 232 255
215 232 255
215 232 255
215 232 255
215 232 255
215 232 255
215 232 255
215 232 255
215 232 255
215 232 255
215 232 255
215 232 255
215 232 255
215 232 255
215 232 255
215 232 255
215 232 255
215 232 255
215 232 255
215 232 255
215 232 255
215 232 255
215 232 255
215 232 255
215 232 255
215 232 255
215 232 255
215 232 255
215 232 255
215 232 255
215 232 255
215 232 255
215 232 255
215 232 255
215 232 255
215 232 255
215 232 255
215 232 255
215 232 255
215 232 255
215 232 255
215 232 255
215 232 255
215 232 255
215 232 255
215 232 255
215 232 255
215 232 255
215 232 255
215 232 255
215 232 255
215 232 255
215 232 255
215 232 255
215 232 255
215 232 255
215 232 255
215 232 255
215 232 255
215 232 255
215 232 255
215 232 255
215 232 255
215 232 255
215 232 255
215 232 255
215 232 255
215 232 255
215 232 255
215 232 255
215 232 255
215 232 255
215 232 255
215 232 255
215 232 255
215 232 255
215 232 255
215 232 255
215 232 255
215 232 255
215 232 255
215 232 255
215 232 255
216 232 255
216 232 255
216 232 255
216 232 255
216 232 255
216 232 255
216 232 255
216 232 255
216 232 255
216 232 255
216 232 255
216 232 255
216 232 255
216 232 255
216 232 255
216 232 255
216 232 255
216 232 255
216 232 255
216 232 255
216 232 255
216 232 255
216 232 255
216 232 255
216 232 255
216 232 255
216 232 255
216 232 255
216 232 255
216 232 255
216 232 255
216 232 255
216 232 255
216 232 255
216 232 255
216 232 255
216 232 255
216 232 255
216 232 255
216 232 255
216 232 255
216 232 255
216 232 255
216 232 255
216 232 255
216 232 255
216 232 255
216 232 255
216 232 255
216 232 255
216 232 255
216 232 255
216 232 255
216 232 255
216 232 255
216 232 255
216 232 255
216 232 255
216 232 255
216 232 255
216 232 255
216 232 255
216 232 255
216 232 255
216 232 255
216 232 255
216 232 255
216 232 255
216 232 255
216 232 255
216 232 255
216 232 255
216 232 255
216 232 255
216 232 255
216 232 255
216 232 255
216 232 255
216 232 255
216 232 255
216 232 255
216 232 255
216 232 255
216 232 255
216 232 255
216 232 255
216 232 255
216 232 255
216 232 255
216 232 255
216 232 255
216 232 255
216 232 255
216 232 255
216 232 255
216 232 255
216 232 255
216 232 255
216 232 255
216 232 255
216 232 255
216 232 255
216 232 255
216 232 255
216 232 255
216 232 255
216 232 255
216 232 255
216 232 255
216 232 255
216 232 255
216 232 255
216 232 255
216 232 255
216 232 255
216 232 255
216 232 255
216 232 255
216 232 255
216 232 255
216 232 255
216 232 255
216 232 255
216 232 255
216 232 255
216 232 255
216 232 255
216 232 255
216 232 255
216 232 255
216 232 255
216 232 255
216 232 255
216 232 255
215 232 255
215 232 255
215 232 255
215 232 255
215 232 255
215 232 255
215 232 255
215 232 255
215 232 255
215 232 255
215 232 255
215 232 255
215 232 255
215 232 255
215 232 255
215 232 255
215 232 255
215 232 255
215 232 255
215 232 255
215 232 255
215 232 255
215 232 255
215 232 255
215 232 255
215 232 255
215 232 255
215 232 255
215 232 255
215 232 255
215 232 255
215 232 255
215 232 255
215 232 255
215 232 255
215 232 255
215 232 255
215 232 255
215 232 255
215 232 255
215 232 255
215 232 255
215 232 255
215 232 255
215 232 255
215 232 255
215 232 255
215 232 255
215 232 255
215 232 255
215 232 255
215 232 255
215 232 255
215 232 255
215 232 255
215 232 255
215 232 255
215 232 255
215 232 255
215 232 255
215 232 255
215 232 255
215 232 255
215 232 255
215 232 255
215 232 255
215 232 255
215 232 255
215 232 255
215 232 255
215 232 255
215 232 255
215 232 255
215 232 255
215 232 255
210 227 248
177 194 204
118 136 118
91 111 67
85 107 60
85 107 57
86 106 58
89 108 60
100 120 83
107 124 92
106 120 91
96 116 76
80 105 47
79 102 44
83 105 50
85 107 57
87 109 64
86 105 64
79 103 60
89 110 59
86 107 58
89 107 63
81 98 70
84 99 72
87 101 66
83 99 59
82 98 61
83 99 69
94 108 74
90 103 82
96 109 87
91 103 76
89 100 78
96 107 75
100 110 74
105 114 80
100 108 70
37 66 136
21 59 142
14 60 143
8 60 143
9 54 138
7 54 137
1 60 142
6 60 142
12 58 141
11 57 141
11 56 140
4 53 137
12 53 137
15 52 137
20 55 138
21 58 138
19 56 140
82 98 110
107 117 84
105 113 85
105 114 94
110 118 99
118 125 106
115 124 104
102 113 108
43 62 131
40 61 134
15 52 138
19 51 137
53 75 128
20 55 138
9 53 137
13 53 138
11 55 139
12 50 135
12 58 141
8 65 147
12 59 143
91 114 165
160 182 215
189 212 241
198 222 255
133 154 196
41 69 142
96 111 164
157 171 205
209 225 250
215 232 255
215 232 255
215 232 255
215 232 255
215 232 255
215 232 255
215 232 255
215 232 255
215 232 255
215 232 255
215 232 255
215 232 255
215 232 255
215 232 255
215 232 255
215 232 255
215 232 255
215 232 255
215 232 255
215 232 255
215 232 255
215 232 255
215 232 255
215 232 255
215 232 255
215 232 255
215 232 255
215 232 255
215 232 255
215 232 255
215 232 255
215 232 255
215 232 255
215 232 255
215 232 255
215 232 255
215 232 255
215 232 255
215 232 255
215 232 255
215 232 255
215 232 255
215 232 255
215 232 255
215 232 255
215 232 255
215 232 255
215 232 255
215 232 255
215 232 255
215 232 255
215 232 255
215 232 255
215 232 255
215 232 255
215 232 255
215 232 255
215 232 255
215 232 255
215 232 255
215 232 255
215 232 255
215 232 255
215 232 255
215 232 255
215 232 255
215 232 255
215 232 255
215 232 255
215 232 255
215 232 255
215 232 255
215 232 255
215 232 255
215 232 255
215 232 255
216 232 255
216 232 255
216 232 255
216 232 255
216 232 255
216 232 255
216 232 255
216 232 255
216 232 255
216 232 255
216 232 255
216 232 255
216 232 255
216 232 255
216 232 255
216 232 255
216 232 255
216 232 255
216 232 255
216 232 255
216 232 255
216 232 255
216 232 255
216 232 255
216 232 255
216 232 255
216 232 255
216 232 255
216 232 255
216 232 255
216 232 255
216 232 255
216 232 255
216 232 255
216 232 255
216 232 255
216 232 255
216 232 255
216 232 255
216 232 255
216 232 255
216 232 255
216 232 255
216 232 255
216 232 255
216 232 255
216 232 255
216 232 255
216 232 255
216 232 255
216 232 255
216 232 255
216 232 255
216 232 255
216 232 255
216 232 255
216 232 255
216 232 255
216 232 255
216 232 255
216 232 255
216 232 255
216 232 255
216 232 255
216 232 255
216 232 255
216 232 255
216 232 255
216 232 255
216 232 255
216 232 255
216 232 255
216 232 255
216 232 255
216 232 255
216 232 255
216 232 255
216 232 255
216 232 255
216 232 255
216 232 255
216 232 255
216 232 255
216 232 255
216 232 255
216 232 255
216 232 255
216 232 255
216 232 255
216 232 255
216 232 255
216 232 255
216 232 255
216 232 255
216 232 255
216 232 255
216 232 255
216 232 255
216 232 255
216 232 255
216 232 255
216 232 255
216 232 255
216 232 255
216 232 255
216 232 255
216 232 255
216 232 255
216 232 255
216 232 255
216 232 255
216 232 255
216 232 255
216 232 255
216 232 255
216 232 255
216 232 255
216 232 255
216 232 255
216 232 255
216 232 255
216 232 255
216 232 255
216 232 255
216 232 255
216 232 255
216 232 255
216 232 255
216 232 255
216 232 255
216 232 255
216 232 255
216 232 255
216 232 255
216 232 255
216 232 255
216 232 255
216 232 255
216 232 255
216 232 255
216 232 255
216 232 255
216 232 255
216 232 255
216 232 255
216 232 255
216 232 255
216 232 255
216 232 255
216 232 255
216 232 255
216 232 255
216 232 255
216 232 255
216 232 255
216 232 255
216 232 255
216 232 255
216 232 255
216 232 255
216 232 255
216 232 255
216 232 255
216 232 255
216 232 255
216 232 255
216 232 255
216 232 255
216 232 255
216 232 255
216 232 255
216 232 255
216 232 255
216 232 255
216 232 255
216 232 255
216 232 255
216 232 255
216 232 255
216 232 255
216 232 255
216 232 255
216 232 255
216 232 255
216 232 255
216 232 255
216 232 255
216 232 255
216 232 255
216 232 255
216 232 255
216 232 255
216 232 255
216 232 255
216 232 255
216 232 255
216 232 255
216 232 255
216 232 255
216 232 255
216 232 255
216 232 255
216 232 255
216 232 255
216 232 255
216 232 255
216 232 255
216 232 255
215 232 255
215 232 255
215 232 255
215 232 255
215 232 255
215 232 255
215 232 255
215 232 255
215 232 255
215 232 255
215 232 255
215 232 255
215 232 255
215 232 255
215 232 255
215 232 255
215 232 255
215 232 255
215 232 255
215 232 255
215 232 255
215 232 255
215 232 255
215 232 255
215 232 255
215 232 255
215 232 255
215 232 255
215 232 255
215 232 255
197 214 231
153 170 170
119 137 120
104 122 92
92 109 70
90 110 65
87 109 61
91 112 69
84 106 57
82 105 49
80 104 43
76 100 39
79 106 44
80 107 40
81 105 50
81 105 51
79 105 45
82 108 51
86 108 56
83 107 47
84 110 54
94 117 63
92 113 66
88 106 75
95 106 94
95 107 88
93 108 77
96 112 83
92 108 76
81 97 69
83 99 74
87 101 77
92 106 76
93 106 75
90 104 68
89 102 68
89 102 60
95 108 69
95 109 72
92 104 71
87 101 77
28 81 153
18 79 150
21 71 149
16 60 143
12 57 139
19 52 139
14 58 140
6 58 141
8 58 142
4 55 138
6 54 138
7 48 135
14 51 137
10 54 136
16 50 133
68 82 115
94 107 92
101 112 75
103 113 78
103 114 85
109 119 88
112 121 92
113 121 96
99 111 106
76 95 118
45 85 145
33 83 152
94 112 120
115 125 125
76 90 130
19 51 136
8 51 136
8 52 137
13 54 138
11 56 139
14 56 140
8 54 137
10 56 139
40 72 143
124 145 186
158 180 213
162 183 213
98 118 172
11 44 131
32 51 131
144 158 195
194 210 236
215 232 255
215 232 255
215 232 255
215 232 255
215 232 255
215 232 255
215 232 255
215 232 255
215 232 255
215 232 255
215 232 255
215 232 255
215 232 255
215 232 255
215 232 255
215 232 255
215 232 255
215 232 255
215 232 255
215 232 255
215 232 255
215 232 255
215 232 255
215 232 255
215 232 255
215 232 255
215 232 255
215 232 255
215 232 255
215 232 255
216 232 255
216 232 255
216 232 255
216 232 255
216 232 255
216 232 255
216 232 255
216 232 255
216 232 255
216 232 255
216 232 255
216 232 255
216 232 255
216 232 255
216 232 255
216 232 255
216 232 255
216 232 255
216 232 255
216 232 255
216 232 255
216 232 255
216 232 255
216 232 255
216 232 255
216 232 255
216 232 255
216 232 255
216 232 255
216 232 255
216 232 255
216 232 255
216 232 255
216 232 255
216 232 255
216 232 255
216 232 255
216 232 255
216 232 255
216 232 255
216 232 255
216 232 255
216 232 255
216 232 255
216 232 255
216 232 255
216 232 255
216 232 255
216 232 255
216 232 255
216 232 255
216 232 255
216 232 255
216 232 255
216 232 255
216 232 255
216 232 255
216 232 255
216 232 255
216 232 255
216 232 255
216 232 255
216 232 255
216 232 255
216 232 255
216 232 255
216 232 255
216 232 255
216 232 255
216 232 255
216 232 255
216 232 255
216 232 255
216 232 255
216 232 255
216 232 255
216 232 255
216 232 255
216 232 255
216 232 255
216 232 255
216 232 255
216 232 255
216 232 255
216 232 255
216 232 255
216 232 255
216 232 255
216 232 255
216 232 255
216 232 255
216 232 255
216 232 255
216 232 255
216 232 255
216 232 255
216 232 255
216 232 255
216 232 255
216 232 255
216 232 255
216 232 255
216 232 255
216 232 255
216 232 255
216 232 255
216 232 255
216 232 255
216 232 255
216 232 255
216 232 255
216 232 255
216 232 255
216 232 255
216 232 255
216 232 255
216 232 255
216 232 255
216 232 255
216 232 255
216 232 255
216 232 255
216 232 255
216 232 255
216 232 255
216 232 255
216 232 255
216 232 255
216 232 255
216 232 255
216 232 255
216 232 255
216 232 255
216 232 255
216 232 255
216 232 255
216 232 255
216 232 255
216 232 255
216 232 255
216 232 255
216 232 255
216 232 255
216 232 255
216 232 255
216 232 255
216 232 255
216 232 255
216 232 255
216 232 255
216 232 255
216 232 255
216 232 255
216 232 255
216 232 255
216 232 255
216 232 255
216 232 255
216 232 255
216 232 255
216 232 255
216 232 255
216 232 255
216 232 255
216 232 255
216 232 255
216 232 255
216 232 255
216 232 255
216 232 255
216 232 255
216 232 255
216 232 255
216 232 255
216 232 255
216 232 255
216 232 255
216 232 255
216 232 255
216 232 255
216 232 255
216 232 255
216 232 255
216 232 255
216 232 255
216 232 255
216 232 255
216 232 255
216 232 255
216 232 255
216 232 255
216 232 255
216 232 255
216 232 255
216 232 255
216 232 255
216 232 255
216 232 255
216 232 255
216 232 255
216 232 255
216 232 255
216 232 255
216 232 255
216 232 255
216 232 255
216 232 255
216 232 255
216 232 255
216 232 255
216 232 255
216 232 255
216 232 255
216 232 255
216 232 255
216 232 255
216 232 255
216 232 255
216 232 255
216 232 255
216 232 255
216 232 255
216 232 255
216 232 255
216 232 255
216 232 255
216 232 255
216 232 255
216 232 255
216 232 255
216 232 255
216 232 255
216 232 255
216 232 255
216 232 255
216 232 255
216 232 255
216 232 255
216 232 255
216 232 255
216 232 255
216 232 255
216 232 255
216 232 255
216 232 255
216 232 255
216 232 255
216 232 255
216 232 255
216 232 255
216 232 255
216 232 255
216 232 255
216 232 255
216 232 255
216 232 255
216 232 255
216 232 255
216 232 255
216 232 255
216 232 255
216 232 255
216 232 255
216 232 255
216 232 255
216 232 255
216 232 255
216 232 255
216 232 255
216 232 255
216 232 255
216 232 255
216 232 255
216 232 255
216 232 255
216 232 255
216 232 255
216 232 255
216 232 255
216 232 255
184 201 213
157 177 184
116 138 122
160 182 198
162 184 198
120 138 123
94 114 76
80 103 54
95 116 78
85 107 57
82 106 50
93 116 75
77 103 43
74 104 30
78 107 35
79 108 37
79 109 34
79 108 40
84 113 49
87 114 57
82 110 45
80 109 35
82 109 42
86 110 52
93 112 67
93 111 73
96 111 75
94 109 83
87 102 76
86 105 61
82 103 52
78 100 67
59 76 84
83 101 65
83 101 64
87 106 65
88 108 70
89 108 67
88 106 68
92 109 65
91 112 67
95 110 70
96 111 68
79 112 113
80 112 103
78 103 96
67 94 117
54 85 131
30 77 145
8 59 142
8 56 139
6 60 142
9 62 144
15 59 142
4 54 138
11 58 141
11 59 142
20 57 138
16 50 129
17 46 133
73 89 116
101 115 80
101 114 86
104 115 86
108 120 92
110 122 91
109 121 86
101 118 79
99 115 79
96 116 89
103 116 89
112 124 97
120 129 113
102 115 121
53 76 131
15 54 137
13 50 136
12 45 131
12 38 126
9 39 127
13 51 135
9 51 136
13 55 138
16 63 145
26 68 143
90 116 165
89 110 157
27 52 133
9 39 128
7 34 125
127 140 182
195 211 238
216 232 255
216 232 255
216 232 255
216 232 255
216 232 255
216 232 255
216 232 255
216 232 255
216 232 255
216 232 255
216 232 255
216 232 255
216 232 255
216 232 255
216 232 255
216 232 255
216 232 255
216 232 255
216 232 255
216 232 255
216 232 255
216 232 255
216 232 255
216 232 255
216 232 255
216 232 255
216 232 255
216 232 255
216 232 255
216 232 255
216 232 255
216 232 255
216 232 255
216 232 255
216 232 255
216 232 255
216 232 255
216 232 255
216 232 255
216 232 255
216 232 255
216 232 255
216 232 255
216 232 255
216 232 255
216 232 255
216 232 255
216 232 255
216 232 255
216 232 255
216 232 255
216 232 255
216 232 255
216 232 255
216 232 255
216 232 255
216 232 255
216 232 255
216 232 255
216 232 255
216 232 255
216 232 255
216 232 255
216 232 255
216 232 255
216 232 255
216 232 255
216 232 255
216 232 255
216 232 255
216 232 255
216 232 255
216 232 255
216 232 255
216 232 255
216 232 255
216 232 255
216 232 255
216 232 255
216 232 255
216 232 255
216 232 255
216 232 255
216 232 255
216 232 255
216 232 255
216 232 255
216 232 255
216 232 255
216 232 255
216 232 255
216 232 255
216 232 255
216 232 255
216 232 255
216 232 255
216 232 255
216 232 255
216 232 255
216 232 255
216 232 255
216 232 255
216 232 255
216 232 255
216 232 255
216 232 255
216 232 255
216 232 255
216 232 255
216 232 255
216 232 255
216 232 255
216 232 255
216 232 255
216 232 255
216 232 255
216 232 255
216 232 255
216 232 255
216 232 255
216 232 255
216 232 255
216 232 255
216 232 255
216 232 255
216 232 255
216 232 255
216 232 255
216 232 255
216 232 255
216 232 255
216 232 255
216 232 255
216 232 255
216 232 255
216 232 255
216 232 255
216 232 255
216 232 255
216 232 255
216 232 255
216 232 255
216 232 255
216 232 255
216 232 255
216 232 255
216 232 255
216 232 255
216 232 255
216 232 255
216 232 255
216 232 255
216 232 255
216 232 255
216 233 255
216 233 255
216 233 255
216 233 255
216 233 255
216 233 255
216 233 255
216 233 255
216 232 255
216 232 255
216 232 255
216 232 255
216 232 255
216 232 255
216 232 255
216 232 255
216 232 255
216 232 255
216 232 255
216 232 255
216 232 255
216 232 255
216 232 255
216 232 255
216 232 255
216 232 255
216 232 255
216 232 255
216 232 255
216 232 255
216 232 255
216 232 255
216 232 255
216 232 255
216 232 255
216 232 255
216 232 255
216 232 255
216 232 255
216 232 255
216 232 255
216 232 255
216 232 255
216 232 255
216 232 255
216 232 255
216 232 255
216 232 255
216 232 255
216 232 255
216 232 255
216 232 255
216 232 255
216 232 255
216 232 255
216 232 255
216 232 255
216 232 255
216 232 255
216 232 255
216 232 255
216 232 255
216 232 255
216 232 255
216 232 255
216 232 255
216 232 255
216 232 255
216 232 255
216 232 255
216 232 255
216 232 255
216 232 255
216 232 255
216 232 255
216 232 255
216 232 255
216 232 255
216 232 255
216 232 255
216 232 255
216 232 255
216 232 255
216 232 255
216 232 255
216 232 255
216 232 255
216 232 255
216 232 255
216 232 255
216 232 255
216 232 255
216 232 255
216 232 255
216 232 255
216 232 255
216 232 255
216 232 255
216 232 255
216 232 255
216 232 255
216 232 255
216 232 255
216 232 255
216 232 255
216 232 255
216 232 255
216 232 255
216 232 255
216 232 255
216 232 255
216 232 255
216 232 255
216 232 255
216 232 255
216 232 255
216 232 255
216 232 255
216 232 255
216 232 255
216 232 255
216 232 255
216 232 255
216 232 255
216 232 255
216 232 255
216 232 255
216 232 255
216 232 255
216 232 255
216 232 255
216 232 255
216 232 255
216 232 255
216 232 255
216 232 255
216 232 255
216 232 255
216 232 255
216 232 255
216 232 255
216 232 255
216 232 255
216 232 255
216 232 255
216 232 255
216 232 255
216 232 255
216 232 255
216 232 255
216 232 255
214 231 253
195 212 228
126 148 159
77 106 138
108 129 164
122 147 182
159 184 205
139 164 178
145 167 171
85 109 61
88 111 64
95 115 72
100 120 83
96 117 80
115 133 108
76 103 35
75 104 31
76 106 29
75 106 29
80 110 40
80 110 40
78 109 35
76 106 32
77 106 34
78 108 38
80 109 38
77 106 33
82 105 60
71 95 59
79 102 58
82 102 54
75 98 44
74 98 47
80 103 53
73 98 60
79 101 52
81 104 55
85 109 56
81 106 44
76 103 37
79 107 46
84 108 49
81 105 54
84 108 49
86 106 55
86 106 48
87 107 54
86 105 55
87 104 53
89 105 53
94 107 61
86 107 79
73 102 101
58 87 121
48 79 137
33 67 144
29 65 145
17 69 145
14 65 144
15 60 146
37 70 136
44 69 136
19 51 133
43 67 135
89 106 82
96 108 71
92 105 75
94 106 73
100 113 76
104 117 76
99 115 78
99 116 78
90 107 65
91 108 68
93 105 62
104 117 86
117 125 105
113 124 102
89 106 102
40 64 134
13 55 137
9 47 133
13 44 130
6 43 129
3 44 130
11 47 133
13 49 134
9 53 137
15 67 145
14 71 148
19 67 146
12 62 142
7 35 126
6 33 124
7 33 125
101 113 163
175 190 221
216 232 255
216 232 255
216 232 255
216 232 255
216 232 255
216 232 255
216 232 255
216 232 255
216 232 255
216 232 255
216 232 255
216 232 255
216 232 255
216 232 255
216 232 255
216 232 255
216 232 255
216 232 255
216 232 255
216 232 255
216 232 255
216 232 255
216 232 255
216 232 255
216 232 255
216 232 255
216 232 255
216 232 255
216 232 255
216 232 255
216 232 255
216 232 255
216 232 255
216 232 255
216 232 255
216 232 255
216 232 255
216 232 255
216 232 255
216 232 255
216 232 255
216 232 255
216 232 255
216 232 255
216 232 255
216 232 255
216 232 255
216 232 255
216 232 255
216 232 255
216 232 255
216 232 255
216 232 255
216 232 255
216 232 255
216 232 255
216 232 255
216 232 255
216 232 255
216 232 255
216 232 255
216 232 255
216 232 255
216 232 255
216 232 255
216 232 255
216 232 255
216 232 255
216 232 255
216 232 255
216 232 255
216 232 255
216 232 255
216 232 255
216 232 255
216 232 255
216 232 255
216 232 255
216 232 255
216 232 255
216 232 255
216 232 255
216 232 255
216 232 255
216 232 255
216 232 255
216 232 255
216 232 255
216 232 255
216 232 255
216 232 255
216 232 255
216 232 255
216 232 255
216 232 255
216 232 255
216 232 255
216 232 255
216 232 255
216 232 255
216 232 255
216 232 255
216 232 255
216 232 255
216 232 255
216 232 255
216 232 255
216 232 255
216 232 255
216 232 255
216 232 255
216 232 255
216 232 255
216 232 255
216 232 255
216 232 255
216 232 255
216 232 255
216 232 255
216 232 255
216 232 255
216 232 255
216 232 255
216 232 255
216 232 255
216 232 255
216 232 255
216 232 255
216 232 255
216 232 255
216 232 255
216 232 255
216 232 255
216 232 255
216 232 255
216 232 255
216 232 255
216 232 255
216 232 255
216 232 255
216 232 255
216 232 255
216 232 255
216 233 255
216 233 255
216 233 255
216 233 255
216 233 255
216 233 255
216 233 255
216 233 255
216 233 255
216 233 255
216 233 255
216 233 255
216 233 255
216 233 255
216 233 255
216 233 255
216 233 255
216 233 255
216 233 255
216 233 255
216 233 255
216 233 255
216 233 255
216 233 255
216 233 255
216 233 255
216 233 255
216 233 255
216 233 255
216 233 255
216 233 255
216 233 255
216 233 255
216 233 255
216 233 255
216 233 255
216 233 255
216 233 255
216 233 255
216 233 255
216 233 255
216 233 255
216 233 255
216 232 255
216 232 255
216 232 255
216 232 255
216 232 255
216 232 255
216 232 255
216 232 255
216 232 255
216 232 255
216 232 255
216 232 255
216 232 255
216 232 255
216 232 255
216 232 255
216 232 255
216 232 255
216 232 255
216 232 255
216 232 255
216 232 255
216 232 255
216 232 255
216 232 255
216 232 255
216 232 255
216 232 255
216 232 255
216 232 255
216 232 255
216 232 255
216 232 255
216 232 255
216 232 255
216 232 255
216 232 255
216 232 255
216 232 255
216 232 255
216 232 255
216 232 255
216 232 255
216 232 255
216 232 255
216 232 255
216 232 255
216 232 255
216 232 255
216 232 255
216 232 255
216 232 255
216 232 255
216 232 255
216 232 255
216 232 255
216 232 255
216 232 255
216 232 255
216 232 255
216 232 255
216 232 255
216 232 255
216 232 255
216 232 255
216 232 255
216 232 255
216 232 255
216 232 255
216 232 255
216 232 255
216 232 255
216 232 255
216 232 255
216 232 255
216 232 255
216 232 255
216 232 255
216 232 255
216 232 255
216 232 255
216 232 255
216 232 255
216 232 255
216 232 255
216 232 255
216 232 255
216 232 255
216 232 255
216 232 255
216 232 255
216 232 255
216 232 255
216 232 255
216 232 255
216 232 255
216 232 255
216 232 255
216 232 255
216 232 255
216 232 255
216 232 255
216 232 255
216 232 255
216 232 255
216 232 255
216 232 255
216 232 255
216 232 255
216 232 255
216 232 255
216 232 255
216 232 255
216 232 255
216 232 255
216 232 255
184 201 220
129 148 175
62 88 138
18 48 130
11 42 129
17 46 131
78 103 127
69 98 109
148 173 188
137 158 155
111 135 107
102 126 91
99 119 81
86 108 65
81 107 62
76 102 47
80 111 45
92 121 62
93 123 64
96 126 74
95 124 74
75 106 42
80 108 49
77 107 35
80 110 41
78 107 39
77 106 41
81 109 51
79 106 51
70 97 52
74 101 49
76 103 38
66 88 64
72 97 53
69 93 42
70 96 46
72 97 48
81 103 46
84 109 50
79 107 31
78 108 38
78 101 50
77 103 54
69 94 41
68 93 54
71 97 48
74 100 47
77 104 43
80 104 41
82 104 42
84 102 57
86 101 43
88 103 58
87 100 57
91 105 62
90 105 63
91 106 68
89 104 78
89 109 83
41 98 157
16 76 156
11 87 157
51 81 132
77 93 103
91 108 75
97 111 69
92 107 65
94 109 65
93 108 67
90 103 66
89 103 67
91 106 62
95 109 63
97 111 68
95 111 72
91 105 62
90 106 60
100 115 71
103 114 77
107 117 85
88 107 95
63 89 114
27 66 137
17 52 135
9 46 132
12 41 128
10 43 131
5 44 132
6 46 132
8 53 137
9 49 135
15 48 133
11 58 140
15 42 132
9 30 123
6 32 124
1 32 124
5 33 125
83 98 155
174 189 220
215 231 255
216 232 255
216 232 255
216 232 255
216 232 255
216 232 255
216 232 255
216 232 255
216 232 255
216 232 255
216 232 255
216 232 255
216 232 255
216 232 255
216 232 255
216 232 255
216 232 255
216 232 255
216 232 255
216 232 255
216 232 255
216 232 255
216 232 255
216 232 255
216 232 255
216 232 255
216 232 255
216 232 255
216 232 255
216 232 255
216 232 255
216 232 255
216 232 255
216 232 255
216 232 255
216 232 255
216 232 255
216 232 255
216 232 255
216 232 255
216 232 255
216 232 255
216 232 255
216 232 255
216 232 255
216 232 255
216 232 255
216 232 255
216 232 255
216 232 255
216 232 255
216 232 255
216 232 255
216 232 255
216 232 255
216 232 255
216 232 255
216 232 255
216 232 255
216 232 255
216 232 255
216 232 255
216 232 255
216 232 255
216 232 255
216 232 255
216 232 255
216 232 255
216 232 255
216 232 255
216 232 255
216 232 255
216 232 255
216 232 255
216 232 255
216 232 255
216 232 255
216 232 255
216 232 255
216 232 255
216 232 255
216 232 255
216 232 255
216 232 255
216 232 255
216 232 255
216 232 255
216 232 255
216 232 255
216 232 255
216 232 255
216 232 255
216 232 255
216 232 255
216 232 255
216 232 255
216 232 255
216 232 255
216 232 255
216 232 255
216 232 255
216 232 255
216 232 255
216 232 255
216 232 255
216 232 255
216 232 255
216 232 255
216 232 255
216 232 255
216 232 255
216 232 255
216 232 255
216 232 255
216 232 255
216 232 255
216 233 255
216 232 255
216 233 255
216 233 255
216 233 255
216 233 255
216 233 255
216 233 255
216 233 255
216 233 255
216 233 255
216 233 255
216 233 255
216 233 255
216 233 255
216 233 255
216 233 255
216 233 255
216 233 255
216 233 255
216 233 255
216 233 255
216 233 255
216 233 255
216 233 255
216 233 255
216 233 255
216 233 255
216 233 255
216 233 255
216 233 255
216 233 255
216 233 255
216 233 255
216 233 255
216 233 255
216 233 255
216 233 255
216 233 255
216 233 255
216 233 255
216 233 255
216 233 255
216 233 255
216 233 255
216 233 255
216 233 255
216 233 255
216 233 255
216 233 255
216 233 255
216 233 255
216 233 255
216 233 255
216 233 255
216 233 255
216 233 255
216 233 255
216 233 255
216 233 255
216 233 255
216 233 255
216 233 255
216 233 255
216 233 255
216 233 255
216 233 255
216 233 255
216 233 255
216 233 255
216 233 255
216 233 255
216 233 255
216 233 255
216 233 255
216 233 255
216 233 255
216 233 255
216 233 255
216 233 255
216 233 255
216 233 255
216 233 255
216 233 255
216 233 255
216 233 255
216 233 255
216 233 255
216 233 255
216 233 255
216 233 255
216 233 255
216 233 255
216 233 255
216 233 255
216 233 255
216 233 255
216 233 255
216 232 255
216 232 255
216 232 255
216 232 255
216 232 255
216 232 255
216 232 255
216 232 255
216 232 255
216 232 255
216 232 255
216 232 255
216 232 255
216 232 255
216 232 255
216 232 255
216 232 255
216 232 255
216 232 255
216 232 255
216 232 255
216 232 255
216 232 255
216 232 255
216 232 255
216 232 255
216 232 255
216 232 255
216 232 255
216 232 255
216 232 255
216 232 255
216 232 255
216 232 255
216 232 255
216 232 255
216 232 255
216 232 255
216 232 255
216 232 255
216 232 255
216 232 255
216 232 255
216 232 255
216 232 255
216 232 255
216 232 255
216 232 255
216 232 255
216 232 255
216 232 255
216 232 255
216 232 255
216 232 255
216 232 255
216 232 255
216 232 255
216 232 255
216 232 255
216 232 255
216 232 255
216 232 255
216 232 255
216 232 255
216 232 255
216 232 255
216 232 255
216 232 255
216 232 255
216 232 255
216 232 255
216 232 255
216 232 255
216 232 255
216 232 255
216 232 255
216 232 255
216 232 255
216 232 255
216 232 255
216 232 255
216 232 255
216 232 255
216 232 255
194 211 230
120 139 170
31 62 134
7 42 129
8 40 128
7 42 129
10 45 131
39 62 128
59 92 99
80 114 102
150 177 185
115 143 126
89 117 76
79 104 64
74 98 43
69 96 33
72 101 43
73 101 38
75 103 29
86 114 55
85 116 52
83 112 42
82 110 51
82 110 54
96 123 77
94 122 74
93 122 73
90 118 70
89 115 61
91 117 67
88 116 58
79 109 47
70 98 45
78 104 54
84 110 56
85 111 53
86 112 52
83 110 52
87 114 61
86 117 64
80 114 62
68 110 63
76 111 63
83 105 46
84 104 57
77 100 44
68 94 49
77 104 46
77 103 46
78 104 41
75 101 39
77 101 52
74 99 51
79 102 46
82 104 52
86 102 49
85 101 50
87 102 53
89 106 57
90 103 55
83 103 42
57 113 134
28 101 165
24 109 170
33 109 168
81 109 97
93 109 80
82 99 73
81 100 62
81 99 74
89 107 64
88 104 64
82 99 56
82 99 46
84 101 53
86 99 71
86 99 57
88 102 42
94 108 70
83 99 54
86 101 55
92 103 70
104 117 81
98 114 78
84 101 87
67 94 110
48 77 130
36 63 130
13 43 128
7 39 128
9 45 131
8 46 133
6 49 133
3 46 132
7 41 129
7 42 130
15 36 125
15 34 124
8 32 125
7 35 125
9 34 125
7 38 128
103 117 167
189 205 233
216 232 255
216 232 255
216 232 255
216 232 255
216 232 255
216 232 255
216 232 255
216 232 255
216 232 255
216 232 255
216 232 255
216 232 255
216 232 255
216 232 255
216 232 255
216 232 255
216 232 255
216 232 255
216 232 255
216 232 255
216 232 255
216 232 255
216 232 255
216 232 255
216 232 255
216 232 255
216 232 255
216 232 255
216 232 255
216 232 255
216 232 255
216 232 255
216 232 255
216 232 255
216 232 255
216 232 255
216 232 255
216 232 255
216 232 255
216 232 255
216 232 255
216 232 255
216 232 255
216 232 255
216 232 255
216 232 255
216 232 255
216 232 255
216 232 255
216 232 255
216 232 255
216 232 255
216 232 255
216 232 255
216 232 255
216 232 255
216 232 255
216 232 255
216 232 255
216 232 255
216 232 255
216 232 255
216 232 255
216 232 255
216 232 255
216 232 255
216 232 255
216 232 255
216 232 255
216 232 255
216 232 255
216 232 255
216 232 255
216 232 255
216 232 255
216 232 255
216 232 255
216 232 255
216 232 255
216 232 255
216 232 255
216 232 255
216 232 255
216 232 255
216 233 255
216 233 255
216 233 255
216 233 255
216 233 255
216 233 255
216 233 255
216 233 255
216 233 255
216 233 255
216 233 255
216 233 255
216 233 255
216 233 255
216 233 255
216 233 255
216 233 255
216 233 255
216 233 255
216 233 255
216 233 255
216 233 255
216 233 255
216 233 255
216 233 255
216 233 255
216 233 255
216 233 255
216 233 255
216 233 255
216 233 255
216 233 255
216 233 255
216 233 255
216 233 255
216 233 255
216 233 255
216 233 255
216 233 255
216 233 255
216 233 255
216 233 255
216 233 255
216 233 255
216 233 255
216 233 255
216 233 255
216 233 255
216 233 255
216 233 255
216 233 255
216 233 255
216 233 255
216 233 255
216 233 255
216 233 255
216 233 255
216 233 255
216 233 255
216 233 255
216 233 255
216 233 255
216 233 255
216 233 255
216 233 255
216 233 255
216 233 255
216 233 255
216 233 255
216 233 255
216 233 255
216 233 255
216 233 255
216 233 255
216 233 255
216 233 255
216 233 255
216 233 255
216 233 255
216 233 255
216 233 255
216 233 255
216 233 255
216 233 255
216 233 255
216 233 255
216 233 255
216 233 255
216 233 255
216 233 255
216 233 255
216 233 255
216 233 255
216 233 255
216 233 255
216 233 255
216 233 255
216 233 255
216 233 255
216 233 255
216 233 255
216 233 255
216 233 255
216 233 255
216 233 255
216 233 255
216 233 255
216 233 255
216 233 255
216 233 255
216 233 255
216 233 255
216 233 255
216 233 255
216 233 255
216 233 255
216 233 255
216 233 255
216 233 255
216 233 255
216 233 255
216 233 255
216 233 255
216 233 255
216 233 255
216 233 255
216 233 255
216 233 255
216 233 255
216 233 255
216 233 255
216 233 255
216 233 255
216 233 255
216 233 255
216 233 255
216 233 255
216 233 255
216 233 255
216 233 255
216 233 255
216 233 255
216 233 255
216 233 255
216 233 255
216 233 255
216 233 255
216 233 255
216 233 255
216 233 255
216 233 255
216 233 255
216 233 255
216 233 255
216 233 255
216 233 255
216 233 255
216 233 255
216 233 255
216 233 255
216 233 255
216 233 255
216 233 255
216 233 255
216 232 255
216 233 255
216 232 255
216 232 255
216 232 255
216 232 255
216 232 255
216 232 255
216 232 255
216 232 255
216 232 255
216 232 255
216 232 255
216 232 255
216 232 255
216 232 255
216 232 255
216 232 255
216 232 255
216 232 255
216 232 255
216 232 255
216 232 255
216 232 255
216 232 255
216 232 255
216 232 255
216 232 255
216 232 255
216 232 255
216 232 255
216 232 255
216 232 255
216 232 255
216 232 255
216 232 255
216 232 255
216 232 255
216 232 255
216 232 255
216 232 255
216 232 255
216 232 255
216 232 255
216 232 255
216 232 255
202 219 241
144 163 182
36 61 128
8 36 126
6 34 125
6 36 126
13 37 127
8 41 129
7 44 131
41 73 107
46 79 96
104 133 120
107 135 116
85 113 69
70 98 39
69 94 48
68 96 33
68 99 32
75 104 48
92 117 81
85 108 61
78 102 46
75 103 33
79 108 35
93 120 70
100 127 82
105 133 90
104 133 91
107 134 95
115 138 104
116 137 104
113 136 102
108 131 96
111 133 99
114 135 97
113 135 101
110 135 98
98 124 81
85 114 55
86 112 46
80 108 49
67 107 62
79 105 51
61 108 55
80 107 64
83 107 52
85 108 50
82 103 49
80 103 47
79 102 44
77 102 34
75 100 43
71 96 44
76 99 52
71 98 38
75 100 48
71 96 39
77 99 39
81 101 43
83 100 41
86 104 44
85 104 48
85 103 38
82 111 68
70 131 138
44 129 173
35 130 180
39 119 164
87 116 88
94 110 66
83 102 58
87 106 51
85 104 48
88 107 52
86 104 55
86 105 50
85 102 52
84 101 52
89 106 52
83 100 45
85 100 48
87 104 53
83 100 57
76 92 61
77 94 65
83 102 45
83 104 50
85 106 49
78 113 94
73 103 93
53 87 115
17 58 138
10 43 130
6 36 125
6 40 127
4 43 130
0 44 130
6 44 131
6 46 132
7 44 130
8 39 127
6 33 124
4 36 125
4 36 126
5 36 126
10 40 128
122 136 179
184 200 229
216 232 255
216 232 255
216 232 255
216 232 255
216 232 255
216 232 255
216 232 255
216 232 255
216 232 255
216 232 255
216 232 255
216 232 255
216 232 255
216 232 255
216 232 255
216 232 255
216 232 255
216 232 255
216 232 255
216 232 255
216 232 255
216 232 255
216 232 255
216 232 255
216 232 255
216 232 255
216 232 255
216 232 255
216 232 255
216 232 255
216 232 255
216 232 255
216 232 255
216 232 255
216 232 255
216 232 255
216 232 255
216 232 255
216 232 255
216 232 255
216 232 255
216 232 255
216 232 255
216 233 255
216 232 255
216 233 255
216 233 255
216 233 255
216 233 255
216 233 255
216 233 255
216 233 255
216 233 255
216 233 255
216 233 255
216 233 255
216 233 255
216 233 255
216 233 255
216 233 255
216 233 255
216 233 255
216 233 255
216 233 255
216 233 255
216 233 255
216 233 255
216 233 255
216 233 255
216 233 255
216 233 255
216 233 255
216 233 255
216 233 255
216 233 255
216 233 255
216 233 255
216 233 255
216 233 255
216 233 255
216 233 255
216 233 255
216 233 255
216 233 255
216 233 255
216 233 255
216 233 255
216 233 255
216 233 255
216 233 255
216 233 255
216 233 255
216 233 255
216 233 255
216 233 255
216 233 255
216 233 255
216 233 255
216 233 255
216 233 255
216 233 255
216 233 255
216 233 255
216 233 255
216 233 255
216 233 255
216 233 255
216 233 255
216 233 255
216 233 255
216 233 255
216 233 255
216 233 255
216 233 255
216 233 255
216 233 255
216 233 255
216 233 255
216 233 255
216 233 255
216 233 255
216 233 255
216 233 255
216 233 255
216 233 255
216 233 255
216 233 255
216 233 255
216 233 255
216 233 255
216 233 255
216 233 255
216 233 255
216 233 255
216 233 255
216 233 255
216 233 255
216 233 255
216 233 255
216 233 255
216 233 255
216 233 255
216 233 255
216 233 255
216 233 255
216 233 255
216 233 255
216 233 255
216 233 255
216 233 255
216 233 255
216 233 255
216 233 255
216 233 255
216 233 255
216 233 255
216 233 255
216 233 255
216 233 255
216 233 255
216 233 255
216 233 255
216 233 255
216 233 255
216 233 255
216 233 255
216 233 255
216 233 255
216 233 255
216 233 255
216 233 255
216 233 255
216 233 255
216 233 255
216 233 255
216 233 255
216 233 255
216 233 255
216 233 255
216 233 255
216 233 255
216 233 255
216 233 255
216 233 255
216 233 255
216 233 255
216 233 255
216 233 255
216 233 255
216 233 255
216 233 255
216 233 255
216 233 255
216 233 255
216 233 255
216 233 255
216 233 255
216 233 255
216 233 255
216 233 255
216 233 255
216 233 255
216 233 255
216 233 255
216 233 255
216 233 255
216 233 255
216 233 255
216 233 255
216 233 255
216 233 255
216 233 255
216 233 255
216 233 255
216 233 255
216 233 255
216 233 255
216 233 255
216 233 255
216 233 255
216 233 255
216 233 255
216 233 255
216 233 255
216 233 255
216 233 255
216 233 255
216 233 255
216 233 255
216 233 255
216 233 255
216 233 255
216 233 255
216 233 255
216 233 255
216 233 255
216 233 255
216 233 255
216 233 255
216 233 255
216 233 255
216 233 255
216 233 255
216 233 255
216 233 255
216 233 255
216 233 255
216 233 255
216 233 255
216 233 255
216 233 255
216 233 255
216 233 255
216 233 255
216 233 255
216 233 255
216 233 255
216 233 255
216 233 255
216 233 255
216 233 255
216 233 255
216 233 255
216 233 255
216 233 255
216 233 255
216 233 255
216 233 255
216 233 255
216 233 255
216 233 255
216 233 255
216 233 255
216 233 255
216 233 255
216 233 255
216 233 255
216 233 255
216 233 255
216 233 255
216 233 255
216 233 255
216 233 255
216 233 255
216 233 255
216 233 255
216 233 255
216 233 255
216 233 255
216 233 255
207 224 246
139 157 192
51 75 129
5 33 125
11 29 123
13 30 122
6 32 124
5 37 126
5 41 128
15 43 126
32 64 121
28 63 133
70 99 106
114 141 125
99 121 101
70 92 46
71 94 30
73 99 37
74 103 40
69 99 34
104 129 104
101 122 92
114 131 109
112 127 104
81 102 50
77 107 40
97 128 75
101 132 84
110 135 96
121 141 113
122 140 115
130 145 123
136 149 127
129 144 120
130 143 122
133 147 123
130 146 119
121 141 112
116 139 106
107 130 91
99 126 83
93 121 65
90 121 64
82 118 59
82 115 52
82 115 49
90 114 56
82 103 53
86 109 55
75 98 45
71 96 41
69 96 42
70 96 45
67 92 34
66 92 38
67 93 36
70 98 25
69 96 29
70 97 36
74 101 40
77 103 39
80 101 29
84 105 43
87 107 41
86 103 53
87 106 41
88 113 63
76 116 119
44 148 184
48 134 169
79 118 95
89 108 64
84 107 48
89 107 60
82 101 38
83 103 47
84 104 49
85 105 53
87 106 49
88 106 53
92 110 59
89 107 54
85 104 44
86 104 50
77 96 45
77 95 44
78 96 42
83 103 49
82 103 47
75 99 39
65 99 55
75 100 60
74 99 31
75 101 58
64 94 94
23 53 132
11 37 126
11 39 127
9 44 131
4 40 128
0 44 130
7 44 130
6 41 128
6 39 127
8 41 128
6 41 128
7 41 129
9 39 128
3 41 128
9 45 131
140 155 195
205 221 246
216 233 255
216 233 255
216 233 255
216 233 255
216 233 255
216 233 255
216 233 255
216 233 255
216 233 255
216 233 255
216 233 255
216 233 255
216 233 255
216 233 255
216 233 255
216 233 255
216 233 255
216 233 255
216 233 255
216 233 255
216 233 255
216 233 255
216 233 255
216 233 255
216 233 255
216 233 255
216 233 255
216 233 255
216 233 255
216 233 255
216 233 255
216 233 255
216 233 255
216 233 255
216 233 255
216 233 255
216 233 255
216 233 255
216 233 255
216 233 255
216 233 255
216 233 255
216 233 255
216 233 255
216 233 255
216 233 255
216 233 255
216 233 255
216 233 255
216 233 255
216 233 255
216 233 255
216 233 255
216 233 255
216 233 255
216 233 255
216 233 255
216 233 255
216 233 255
216 233 255
216 233 255
216 233 255
216 233 255
216 233 255
216 233 255
216 233 255
216 233 255
216 233 255
216 233 255
216 233 255
216 233 255
216 233 255
216 233 255
216 233 255
216 233 255
216 233 255
216 233 255
216 233 255
216 233 255
216 233 255
216 233 255
216 233 255
216 233 255
216 233 255
216 233 255
216 233 255
216 233 255
216 233 255
216 233 255
216 233 255
216 233 255
216 233 255
216 233 255
216 233 255
216 233 255
216 233 255
216 233 255
216 233 255
216 233 255
216 233 255
216 233 255
216 233 255
216 233 255
216 233 255
216 233 255
216 233 255
216 233 255
216 233 255
216 233 255
216 233 255
216 233 255
216 233 255
216 233 255
216 233 255
216 233 255
216 233 255
216 233 255
216 233 255
216 233 255
216 233 255
216 233 255
216 233 255
216 233 255
216 233 255
216 233 255
216 233 255
216 233 255
216 233 255
216 233 255
216 233 255
216 233 255
216 233 255
216 233 255
216 233 255
216 233 255
216 233 255
216 233 255
216 233 255
216 233 255
216 233 255
216 233 255
216 233 255
216 233 255
216 233 255
216 233 255
216 233 255
216 233 255
216 233 255
216 233 255
216 233 255
216 233 255
216 233 255
216 233 255
216 233 255
216 233 255
216 233 255
216 233 255
216 233 255
216 233 255
216 233 255
216 233 255
216 233 255
216 233 255
216 233 255
216 233 255
216 233 255
216 233 255
216 233 255
216 233 255
216 233 255
216 233 255
216 233 255
216 233 255
216 233 255
216 233 255
216 233 255
216 233 255
216 233 255
216 233 255
216 233 255
216 233 255
216 233 255
216 233 255
216 233 255
216 233 255
216 233 255
216 233 255
216 233 255
216 233 255
216 233 255
216 233 255
216 233 255
216 233 255
216 233 255
216 233 255
216 233 255
216 233 255
216 233 255
216 233 255
216 233 255
216 233 255
216 233 255
216 233 255
216 233 255
216 233 255
216 233 255
216 233 255
216 233 255
216 233 255
216 233 255
216 233 255
216 233 255
216 233 255
216 233 255
216 233 255
216 233 255
216 233 255
216 233 255
216 233 255
216 233 255
216 233 255
216 233 255
216 233 255
216 233 255
216 233 255
216 233 255
216 233 255
216 233 255
216 233 255
216 233 255
216 233 255
216 233 255
216 233 255
216 233 255
216 233 255
216 233 255
216 233 255
216 233 255
216 233 255
216 233 255
216 233 255
216 233 255
216 233 255
216 233 255
216 233 255
216 233 255
216 233 255
216 233 255
216 233 255
216 233 255
216 233 255
216 233 255
216 233 255
216 233 255
216 233 255
216 233 255
216 233 255
216 233 255
216 233 255
216 233 255
216 233 255
216 233 255
216 233 255
216 233 255
216 233 255
216 233 255
216 233 255
216 233 255
216 233 255
216 233 255
216 233 255
216 233 255
216 233 255
216 233 255
216 233 255
216 233 255
216 233 255
216 233 255
216 233 255
216 233 255
216 233 255
216 233 255
216 233 255
216 233 255
216 233 255
216 233 255
216 233 255
171 188 217
76 95 150
5 32 124
7 31 124
10 28 122
9 29 122
9 35 125
13 38 127
6 39 127
10 38 128
40 70 112
32 66 124
27 53 120
69 98 78
126 152 144
100 120 95
88 105 53
92 111 64
84 106 47
75 103 36
70 98 35
87 113 69
105 127 96
121 139 121
130 144 132
102 118 89
94 119 67
110 137 96
126 144 116
134 146 127
144 151 137
147 154 142
149 157 144
146 155 139
140 153 136
135 148 132
131 147 126
127 143 121
121 140 114
116 137 104
111 136 101
106 134 94
99 132 85
97 125 71
96 128 74
91 124 72
93 123 72
100 128 70
91 115 60
89 112 56
82 103 36
78 102 35
76 99 54
73 96 53
70 96 44
66 92 46
63 87 49
65 91 33
71 98 39
72 98 45
73 100 40
75 104 42
77 104 20
80 105 40
80 105 34
84 107 39
86 109 43
86 109 45
81 106 46
85 110 59
89 107 66
90 109 58
82 106 33
81 101 40
75 99 50
81 103 42
81 102 40
76 96 62
66 86 61
76 99 43
81 104 46
79 100 42
85 104 51
71 92 47
71 93 39
76 98 33
77 100 40
82 103 45
85 106 48
77 99 38
79 102 40
71 98 27
75 100 42
77 104 39
74 100 41
80 108 46
67 93 85
20 52 131
7 41 127
10 44 131
5 38 126
0 38 126
8 45 132
8 49 134
9 44 129
6 40 127
4 41 128
3 42 129
9 45 131
8 46 132
5 42 129
8 45 131
72 90 153
167 183 216
216 233 255
216 233 255
216 233 255
216 233 255
216 233 255
216 233 255
216 233 255
216 233 255
216 233 255
216 233 255
216 233 255
216 233 255
216 233 255
216 233 255
216 233 255
216 233 255
216 233 255
216 233 255
216 233 255
216 233 255
216 233 255
216 233 255
216 233 255
216 233 255
216 233 255
216 233 255
216 233 255
216 233 255
216 233 255
216 233 255
216 233 255
216 233 255
216 233 255
216 233 255
216 233 255
216 233 255
216 233 255
216 233 255
216 233 255
216 233 255
216 233 255
216 233 255
216 233 255
216 233 255
216 233 255
216 233 255
216 233 255
216 233 255
216 233 255
216 233 255
216 233 255
216 233 255
216 233 255
216 233 255
216 233 255
216 233 255
216 233 255
216 233 255
216 233 255
216 233 255
216 233 255
216 233 255
216 233 255
216 233 255
216 233 255
216 233 255
216 233 255
216 233 255
216 233 255
216 233 255
216 233 255
216 233 255
216 233 255
216 233 255
216 233 255
216 233 255
216 233 255
216 233 255
216 233 255
216 233 255
216 233 255
216 233 255
216 233 255
216 233 255
216 233 255
216 233 255
216 233 255
216 233 255
216 233 255
216 233 255
216 233 255
216 233 255
216 233 255
216 233 255
216 233 255
216 233 255
216 233 255
216 233 255
216 233 255
216 233 255
216 233 255
216 233 255
216 233 255
216 233 255
216 233 255
216 233 255
216 233 255
216 233 255
216 233 255
216 233 255
216 233 255
216 233 255
216 233 255
216 233 255
216 233 255
216 233 255
216 233 255
216 233 255
216 233 255
216 233 255
216 233 255
216 233 255
216 233 255
216 233 255
216 233 255
216 233 255
216 233 255
216 233 255
216 233 255
216 233 255
216 233 255
216 233 255
216 233 255
216 233 255
216 233 255
216 233 255
216 233 255
216 233 255
216 233 255
216 233 255
216 233 255
216 233 255
216 233 255
216 233 255
216 233 255
216 233 255
216 233 255
216 233 255
216 233 255
216 233 255
216 233 255
216 233 255
216 233 255
216 233 255
216 233 255
216 233 255
216 233 255
216 233 255
216 233 255
216 233 255
216 233 255
216 233 255
216 233 255
216 233 255
216 233 255
216 233 255
216 233 255
216 233 255
216 233 255
216 233 255
216 233 255
216 233 255
216 233 255
216 233 255
216 233 255
216 233 255
216 233 255
216 233 255
216 233 255
216 233 255
216 233 255
216 233 255
216 233 255
216 233 255
216 233 255
216 233 255
216 233 255
216 233 255
216 233 255
216 233 255
216 233 255
216 233 255
216 233 255
216 233 255
216 233 255
216 233 255
216 233 255
216 233 255
216 233 255
216 233 255
216 233 255
216 233 255
216 233 255
216 233 255
216 233 255
216 233 255
216 233 255
216 233 255
216 233 255
216 233 255
216 233 255
216 233 255
216 233 255
216 233 255
216 233 255
216 233 255
216 233 255
216 233 255
216 233 255
216 233 255
216 233 255
216 233 255
216 233 255
216 233 255
216 233 255
216 233 255
216 233 255
216 233 255
216 233 255
216 233 255
216 233 255
216 233 255
216 233 255
216 233 255
216 233 255
216 233 255
216 233 255
216 233 255
216 233 255
216 233 255
216 233 255
216 233 255
216 233 255
216 233 255
216 233 255
216 233 255
216 233 255
216 233 255
216 233 255
216 233 255
216 233 255
216 233 255
216 233 255
216 233 255
216 233 255
216 233 255
216 233 255
216 233 255
216 233 255
216 233 255
216 233 255
216 233 255
216 233 255
216 233 255
216 233 255
216 233 255
216 233 255
216 233 255
216 233 255
216 233 255
216 233 255
216 233 255
216 233 255
216 233 255
216 233 255
216 233 255
216 233 255
216 233 255
216 233 255
216 233 255
216 233 255
216 233 255
216 233 255
216 233 255
200 217 241
124 139 180
13 42 129
8 33 125
7 31 124
8 30 123
4 33 124
8 34 125
9 35 126
7 36 125
11 37 125
12 40 129
28 57 120
8 41 127
29 56 121
80 110 87
144 169 174
139 160 158
104 121 98
89 106 61
91 110 66
81 104 54
73 101 43
78 107 57
97 121 88
109 131 105
95 113 73
102 119 86
112 133 99
134 146 125
144 152 133
143 152 139
148 155 144
149 157 145
146 153 139
145 155 139
138 151 133
135 148 128
129 146 120
119 141 106
113 137 96
112 137 98
106 132 86
103 133 84
103 133 85
105 136 87
100 132 81
100 131 84
100 132 80
103 133 80
96 123 62
88 114 54
77 101 51
78 102 57
76 102 42
77 101 52
75 100 38
76 101 40
73 96 37
76 103 35
58 80 88
58 81 77
76 103 35
81 108 37
78 105 41
79 106 41
78 107 34
74 105 17
80 108 28
79 107 31
79 107 32
78 104 32
84 107 44
86 110 41
82 107 36
80 108 36
80 106 43
81 107 42
77 104 40
78 103 45
82 104 48
82 107 37
79 105 41
76 101 50
72 97 28
78 101 42
70 92 49
70 95 40
69 97 46
68 97 61
69 98 55
71 99 41
74 99 35
69 94 34
73 100 40
72 97 28
73 98 49
53 78 103
52 71 116
59 82 106
22 57 131
15 54 137
10 50 135
12 44 130
11 40 127
9 46 133
7 50 135
9 45 131
9 47 133
9 47 132
5 43 130
9 48 133
12 56 138
6 44 131
8 45 131
10 51 136
106 124 175
207 224 248
216 233 255
216 233 255
216 233 255
216 233 255
216 233 255
216 233 255
216 233 255
216 233 255
216 233 255
216 233 255
216 233 255
216 233 255
216 233 255
216 233 255
216 233 255
216 233 255
216 233 255
216 233 255
216 233 255
216 233 255
216 233 255
216 233 255
216 233 255
216 233 255
216 233 255
216 233 255
216 233 255
216 233 255
216 233 255
216 233 255
216 233 255
216 233 255
216 233 255
216 233 255
216 233 255
216 233 255
216 233 255
216 233 255
216 233 255
216 233 255
216 233 255
216 233 255
216 233 255
216 233 255
216 233 255
216 233 255
216 233 255
216 233 255
216 233 255
216 233 255
216 233 255
216 233 255
216 233 255
216 233 255
216 233 255
216 233 255
216 233 255
216 233 255
216 233 255
216 233 255
216 233 255
216 233 255
216 233 255
216 233 255
216 233 255
216 233 255
216 233 255
216 233 255
216 233 255
216 233 255
216 233 255
216 233 255
216 233 255
216 233 255
216 233 255
216 233 255
216 233 255
216 233 255
216 233 255
216 233 255
216 233 255
216 233 255
216 233 255
216 233 255
216 233 255
216 233 255
216 233 255
216 233 255
216 233 255
216 233 255
216 233 255
216 233 255
216 233 255
216 233 255
216 233 255
216 233 255
216 233 255
216 233 255
216 233 255
216 233 255
216 233 255
216 233 255
216 233 255
216 233 255
216 233 255
216 233 255
216 233 255
216 233 255
216 233 255
216 233 255
216 233 255
216 233 255
216 233 255
216 233 255
216 233 255
216 233 255
216 233 255
216 233 255
216 233 255
216 233 255
216 233 255
216 233 255
216 233 255
216 233 255
216 233 255
216 233 255
216 233 255
216 233 255
216 233 255
216 233 255
216 233 255
216 233 255
216 233 255
216 233 255
216 233 255
216 233 255
216 233 255
216 233 255
216 233 255
216 233 255
216 233 255
216 233 255
216 233 255
216 233 255
216 233 255
216 233 255
216 233 255
216 233 255
216 233 255
216 233 255
216 233 255
216 233 255
216 233 255
216 233 255
216 233 255
216 233 255
216 233 255
216 233 255
216 233 255
216 233 255
216 233 255
216 233 255
216 233 255
216 233 255
216 233 255
216 233 255
216 233 255
216 233 255
216 233 255
216 233 255
216 233 255
216 233 255
216 233 255
216 233 255
216 233 255
216 233 255
216 233 255
216 233 255
216 233 255
216 233 255
216 233 255
216 233 255
216 233 255
216 233 255
216 233 255
216 233 255
216 233 255
216 233 255
216 233 255
216 233 255
216 233 255
216 233 255
216 233 255
216 233 255
216 233 255
216 233 255
216 233 255
216 233 255
216 233 255
216 233 255
216 233 255
216 233 255
216 233 255
216 233 255
216 233 255
216 233 255
216 233 255
216 233 255
216 233 255
216 233 255
216 233 255
216 233 255
216 233 255
216 233 255
216 233 255
216 233 255
216 233 255
216 233 255
216 233 255
216 233 255
216 233 255
216 233 255
216 233 255
216 233 255
216 233 255
216 233 255
216 233 255
216 233 255
216 233 255
216 233 255
216 233 255
216 233 255
216 233 255
216 233 255
216 233 255
216 233 255
216 233 255
216 233 255
216 233 255
216 233 255
216 233 255
216 233 255
216 233 255
216 233 255
216 233 255
216 233 255
216 233 255
216 233 255
216 233 255
216 233 255
216 233 255
216 233 255
216 233 255
216 233 255
216 233 255
216 233 255
216 233 255
216 233 255
216 233 255
216 233 255
216 233 255
216 233 255
216 233 255
216 233 255
216 233 255
216 233 255
216 233 255
216 233 255
216 233 255
216 233 255
216 233 255
216 233 255
216 233 255
216 233 255
216 233 255
216 233 255
216 233 255
216 233 255
216 233 255
216 233 255
215 231 255
151 167 202
40 56 131
9 34 125
8 30 123
1 30 123
0 31 124
0 33 125
8 36 126
8 37 126
4 32 124
5 34 122
8 36 126
14 33 126
9 36 125
33 58 121
49 78 95
66 97 74
100 125 119
137 161 164
126 146 136
95 113 78
90 108 61
88 108 63
76 103 44
79 106 54
85 108 68
95 114 80
96 114 72
103 119 79
129 144 121
137 151 131
148 157 142
150 157 145
143 151 135
144 151 138
144 154 142
140 151 137
136 148 133
129 143 124
127 143 119
126 143 115
120 140 103
114 136 97
106 134 91
108 138 95
107 136 93
102 132 82
107 136 91
104 134 90
105 134 91
104 131 86
97 123 70
90 116 64
72 95 77
85 113 48
73 100 50
79 105 50
77 101 36
79 103 46
75 101 40
78 107 46
78 112 52
66 98 78
64 90 85
69 96 84
76 106 55
78 106 30
79 106 40
82 112 41
83 112 40
80 110 33
82 111 34
84 112 41
84 111 35
86 115 43
83 112 35
84 114 37
81 110 42
83 109 38
80 106 45
75 101 49
80 107 42
77 108 36
78 110 38
76 107 30
72 100 43
72 101 51
80 106 53
66 100 53
54 99 101
28 81 155
20 76 149
29 74 148
50 86 114
48 77 109
51 74 109
53 71 108
51 73 111
25 49 131
23 47 127
74 104 61
35 65 121
18 58 141
10 51 136
9 53 136
9 45 132
6 39 128
8 47 132
12 55 138
8 45 133
11 50 134
7 44 131
12 48 133
10 54 138
4 55 139
7 49 134
9 51 135
10 56 138
38 67 143
162 177 211
215 231 255
216 233 255
216 233 255
216 233 255
216 233 255
216 233 255
216 233 255
216 233 255
216 233 255
216 233 255
216 233 255
216 233 255
216 233 255
216 233 255
216 233 255
216 233 255
216 233 255
216 233 255
216 233 255
216 233 255
216 233 255
216 233 255
216 233 255
216 233 255
216 233 255
216 233 255
216 233 255
216 233 255
216 233 255
216 233 255
216 233 255
216 233 255
216 233 255
216 233 255
216 233 255
216 233 255
216 233 255
216 233 255
216 233 255
216 233 255
216 233 255
216 233 255
216 233 255
216 233 255
216 233 255
216 233 255
216 233 255
216 233 255
216 233 255
216 233 255
216 233 255
216 233 255
216 233 255
216 233 255
216 233 255
216 233 255
216 233 255
216 233 255
216 233 255
216 233 255
216 233 255
216 233 255
216 233 255
216 233 255
216 233 255
216 233 255
216 233 255
216 233 255
216 233 255
216 233 255
216 233 255
216 233 255
216 233 255
216 233 255
216 233 255
216 233 255
216 233 255
216 233 255
216 233 255
216 233 255
216 233 255
216 233 255
216 233 255
216 233 255
216 233 255
216 233 255
216 233 255
216 233 255
216 233 255
216 233 255
216 233 255
216 233 255
216 233 255
216 233 255
216 233 255
216 233 255
216 233 255
216 233 255
216 233 255
216 233 255
216 233 255
216 233 255
216 233 255
216 233 255
216 233 255
216 233 255
216 233 255
216 233 255
216 233 255
216 233 255
216 233 255
216 233 255
216 233 255
216 233 255
216 233 255
216 233 255
216 233 255
216 233 255
216 233 255
216 233 255
216 233 255
216 233 255
216 233 255
216 233 255
216 233 255
216 233 255
216 233 255
216 233 255
216 233 255
216 233 255
216 233 255
216 233 255
216 233 255
216 233 255
216 233 255
216 233 255
216 233 255
216 233 255
216 233 255
216 233 255
216 233 255
216 233 255
216 233 255
216 233 255
216 233 255
216 233 255
216 233 255
216 233 255
216 233 255
216 233 255
216 233 255
216 233 255
216 233 255
216 233 255
216 233 255
216 233 255
216 233 255
216 233 255
216 233 255
216 233 255
216 233 255
216 233 255
216 233 255
216 233 255
216 233 255
216 233 255
216 233 255
216 233 255
216 233 255
216 233 255
216 233 255
216 233 255
216 233 255
216 233 255
216 233 255
216 233 255
216 233 255
216 233 255
216 233 255
216 233 255
216 233 255
216 233 255
216 233 255
216 233 255
216 233 255
216 233 255
216 233 255
216 233 255
216 233 255
216 233 255
216 233 255
216 233 255
216 233 255
216 233 255
216 233 255
216 233 255
216 233 255
216 233 255
216 233 255
216 233 255
216 233 255
216 233 255
216 233 255
216 233 255
216 233 255
216 233 255
216 233 255
216 233 255
216 233 255
216 233 255
216 233 255
216 233 255
216 233 255
216 233 255
216 233 255
216 233 255
216 233 255
216 233 255
216 233 255
216 233 255
216 233 255
216 233 255
216 233 255
216 233 255
216 233 255
216 233 255
216 233 255
216 233 255
216 233 255
216 233 255
216 233 255
216 233 255
216 233 255
216 233 255
216 233 255
216 233 255
216 233 255
216 233 255
216 233 255
216 233 255
216 233 255
216 233 255
216 233 255
216 233 255
216 233 255
216 233 255
216 233 255
216 233 255
216 233 255
216 233 255
216 233 255
216 233 255
216 233 255
216 233 255
216 233 255
216 233 255
216 233 255
216 233 255
216 233 255
216 233 255
216 233 255
216 233 255
216 233 255
216 233 255
216 233 255
216 233 255
216 233 255
216 233 255
216 233 255
216 233 255
216 233 255
216 233 255
216 233 255
216 233 255
216 233 255
216 233 255
216 233 255
216 233 255
202 218 243
104 117 166
6 31 123
10 30 122
10 29 122
5 30 123
0 31 124
2 32 125
6 37 126
4 35 125
6 31 123
5 30 125
4 34 124
4 32 123
8 31 124
9 34 125
39 67 103
64 98 62
57 96 68
39 82 113
80 117 97
89 116 79
73 101 36
87 105 59
94 112 70
83 107 50
77 105 43
83 109 55
85 107 45
88 111 54
97 120 80
130 142 120
152 160 146
156 164 152
159 166 154
148 157 143
145 154 139
141 151 138
141 150 135
133 145 128
130 144 123
124 140 114
122 139 112
123 141 111
114 137 101
107 135 91
106 136 87
106 134 86
109 135 91
102 129 86
103 133 91
106 135 97
103 131 93
104 131 83
91 118 69
84 113 63
84 115 37
86 117 43
82 110 47
76 103 37
77 105 41
72 101 63
68 98 93
37 65 127
13 47 135
9 49 133
15 47 136
52 82 104
70 98 82
77 106 51
76 105 28
79 108 27
78 108 26
80 110 30
83 113 36
87 115 41
85 115 36
85 114 38
85 115 37
78 109 27
78 107 34
74 103 30
74 101 38
75 103 35
79 109 25
81 109 47
76 103 67
82 111 40
76 106 37
74 112 78
52 124 151
56 106 127
62 108 99
76 108 54
68 105 73
51 91 115
47 78 123
56 82 109
31 61 125
12 42 131
7 42 132
16 45 135
71 99 84
71 100 59
56 85 99
29 59 123
29 57 122
7 44 130
2 44 130
7 41 129
11 47 132
6 55 137
9 54 137
8 52 137
14 49 133
7 47 133
10 54 138
8 60 143
12 59 141
11 56 140
11 58 142
7 52 136
114 129 175
199 215 241
216 233 255
216 233 255
216 233 255
216 233 255
216 233 255
216 233 255
216 233 255
216 233 255
216 233 255
216 233 255
216 233 255
216 233 255
216 233 255
216 233 255
216 233 255
216 233 255
216 233 255
216 233 255
216 233 255
216 233 255
216 233 255
216 233 255
216 233 255
216 233 255
216 233 255
216 233 255
216 233 255
216 233 255
216 233 255
216 233 255
216 233 255
216 233 255
216 233 255
216 233 255
216 233 255
216 233 255
216 233 255
216 233 255
216 233 255
216 233 255
216 233 255
216 233 255
216 233 255
216 233 255
216 233 255
216 233 255
216 233 255
216 233 255
216 233 255
216 233 255
216 233 255
216 233 255
216 233 255
216 233 255
216 233 255
216 233 255
216 233 255
216 233 255
216 233 255
216 233 255
216 233 255
216 233 255
216 233 255
216 233 255
216 233 255
216 233 255
216 233 255
216 233 255
216 233 255
216 233 255
216 233 255
216 233 255
216 233 255
216 233 255
216 233 255
216 233 255
216 233 255
216 233 255
216 233 255
216 233 255
216 233 255
216 233 255
216 233 255
216 233 255
216 233 255
216 233 255
216 233 255
216 233 255
216 233 255
216 233 255
216 233 255
216 233 255
216 233 255
216 233 255
216 233 255
216 233 255
216 233 255
216 233 255
216 233 255
216 233 255
216 233 255
216 233 255
216 233 255
216 233 255
216 233 255
216 233 255
216 233 255
216 233 255
216 233 255
216 233 255
216 233 255
216 233 255
216 233 255
216 233 255
216 233 255
216 233 255
216 233 255
216 233 255
216 233 255
216 233 255
216 233 255
216 233 255
216 233 255
216 233 255
216 233 255
216 233 255
216 233 255
216 233 255
216 233 255
216 233 255
216 233 255
216 233 255
216 233 255
216 233 255
216 233 255
216 233 255
216 233 255
216 233 255
216 233 255
216 233 255
216 233 255
216 233 255
216 233 255
216 233 255
216 233 255
216 233 255
216 233 255
216 233 255
216 233 255
216 233 255
216 233 255
216 233 255
216 233 255
216 233 255
216 233 255
216 233 255
216 233 255
216 233 255
216 233 255
216 233 255
216 233 255
216 233 255
216 233 255
216 233 255
216 233 255
216 233 255
216 233 255
216 233 255
216 233 255
216 233 255
216 233 255
216 233 255
216 233 255
216 233 255
216 233 255
216 233 255
216 233 255
216 233 255
216 233 255
216 233 255
216 233 255
216 233 255
216 233 255
216 233 255
216 233 255
216 233 255
216 233 255
216 233 255
216 233 255
216 233 255
216 233 255
216 233 255
216 233 255
216 233 255
216 233 255
216 233 255
216 233 255
216 233 255
216 233 255
216 233 255
216 233 255
216 233 255
216 233 255
216 233 255
216 233 255
216 233 255
216 233 255
216 233 255
216 233 255
216 233 255
216 233 255
216 233 255
216 233 255
216 233 255
216 233 255
216 233 255
216 233 255
216 233 255
216 233 255
216 233 255
216 233 255
216 233 255
216 233 255
216 233 255
216 233 255
216 233 255
216 233 255
216 233 255
216 233 255
216 233 255
216 233 255
216 233 255
216 233 255
216 233 255
216 233 255
216 233 255
216 233 255
216 233 255
216 233 255
216 233 255
216 233 255
216 233 255
216 233 255
216 233 255
216 233 255
216 233 255
216 233 255
216 233 255
216 233 255
216 233 255
216 233 255
216 233 255
216 233 255
216 233 255
216 233 255
216 233 255
216 233 255
216 233 255
216 233 255
216 233 255
216 233 255
216 233 255
216 233 255
216 233 255
216 233 255
216 233 255
216 233 255
216 233 255
216 233 255
216 233 255
216 233 255
216 233 255
216 233 255
216 233 255
216 233 255
174 189 220
44 58 134
7 29 123
9 28 121
11 28 121
12 30 122
1 32 124
0 33 124
5 33 125
9 35 125
3 32 124
4 32 124
4 36 125
9 33 124
11 32 124
10 39 128
12 42 127
17 58 139
41 85 122
54 96 69
38 96 133
72 120 95
88 117 72
95 114 83
119 130 110
99 115 77
96 117 74
79 104 51
80 105 49
95 116 67
96 116 77
93 111 67
135 147 125
150 159 146
153 160 144
151 159 144
140 148 127
138 145 126
140 150 135
140 152 137
139 151 134
133 147 128
128 144 120
127 144 117
123 141 111
112 133 100
107 132 97
111 136 94
108 134 87
105 134 83
104 133 84
103 134 87
103 133 96
103 134 87
97 129 76
90 119 60
81 112 49
83 114 52
89 119 50
87 116 52
77 110 82
54 86 126
29 60 135
32 58 137
51 82 131
48 89 112
27 57 139
21 48 136
15 53 136
16 54 138
59 95 105
80 112 27
76 107 21
74 104 32
75 105 36
79 107 31
73 104 47
81 114 33
77 109 41
74 107 26
72 104 33
70 102 33
72 105 23
77 109 27
71 104 19
78 109 42
74 105 31
72 107 33
72 103 15
76 110 57
71 131 125
79 118 67
78 116 44
80 113 31
75 117 62
68 119 104
58 103 108
23 68 148
12 57 138
18 60 144
12 56 140
14 56 135
20 52 133
65 92 100
85 111 51
85 107 47
82 108 49
78 105 63
49 73 107
18 47 131
6 47 131
12 45 131
11 53 137
11 70 149
13 63 145
13 65 143
11 53 138
9 48 133
9 50 134
7 56 139
6 57 140
10 55 139
5 52 136
11 46 132
44 65 138
174 189 220
216 233 255
216 233 255
216 233 255
216 233 255
216 233 255
216 233 255
216 233 255
216 233 255
216 233 255
216 233 255
216 233 255
216 233 255
216 233 255
216 233 255
216 233 255
216 233 255
216 233 255
216 233 255
216 233 255
216 233 255
216 233 255
216 233 255
216 233 255
216 233 255
216 233 255
216 233 255
216 233 255
216 233 255
216 233 255
216 233 255
216 233 255
216 233 255
216 233 255
216 233 255
216 233 255
216 233 255
216 233 255
216 233 255
216 233 255
216 233 255
216 233 255
216 233 255
216 233 255
216 233 255
216 233 255
216 233 255
216 233 255
216 233 255
216 233 255
216 233 255
216 233 255
216 233 255
216 233 255
216 233 255
216 233 255
216 233 255
216 233 255
216 233 255
216 233 255
216 233 255
216 233 255
216 233 255
216 233 255
216 233 255
216 233 255
216 233 255
216 233 255
216 233 255
216 233 255
216 233 255
216 233 255
216 233 255
216 233 255
216 233 255
216 233 255
216 233 255
216 233 255
216 233 255
216 233 255
216 233 255
216 233 255
216 233 255
216 233 255
216 233 255
216 233 255
216 233 255
216 233 255
216 233 255
216 233 255
216 233 255
216 233 255
216 233 255
216 233 255
216 233 255
216 233 255
216 233 255
216 233 255
216 233 255
216 233 255
216 233 255
216 233 255
216 233 255
216 233 255
216 233 255
216 233 255
216 233 255
216 233 255
216 233 255
216 233 255
216 233 255
216 233 255
216 233 255
216 233 255
216 233 255
216 233 255
216 233 255
216 233 255
216 233 255
216 233 255
216 233 255
216 233 255
216 233 255
216 233 255
216 233 255
216 233 255
216 233 255
216 233 255
216 233 255
216 233 255
216 233 255
216 233 255
216 233 255
216 233 255
216 233 255
216 233 255
216 233 255
216 233 255
216 233 255
216 233 255
216 233 255
216 233 255
216 233 255
216 233 255
216 233 255
216 233 255
216 233 255
216 233 255
216 233 255
216 233 255
216 233 255
216 233 255
216 233 255
216 233 255
216 233 255
216 233 255
216 233 255
216 233 255
216 233 255
216 233 255
216 233 255
216 233 255
216 233 255
216 233 255
216 233 255
216 233 255
216 233 255
216 233 255
216 233 255
216 233 255
216 233 255
216 233 255
216 233 255
216 233 255
216 233 255
216 233 255
216 233 255
216 233 255
216 233 255
216 233 255
216 233 255
216 233 255
216 233 255
216 233 255
216 233 255
216 233 255
216 233 255
216 233 255
216 233 255
216 233 255
216 233 255
216 233 255
216 233 255
216 233 255
216 233 255
216 233 255
216 233 255
216 233 255
216 233 255
216 233 255
216 233 255
216 233 255
216 233 255
216 233 255
216 233 255
216 233 255
216 233 255
216 233 255
216 233 255
216 233 255
216 233 255
216 233 255
216 233 255
216 233 255
216 233 255
216 233 255
216 233 255
216 233 255
216 233 255
216 233 255
216 233 255
216 233 255
216 233 255
216 233 255
216 233 255
216 233 255
216 233 255
216 233 255
216 233 255
216 233 255
216 233 255
216 233 255
216 233 255
216 233 255
216 233 255
216 233 255
216 233 255
216 233 255
216 233 255
216 233 255
216 233 255
216 233 255
216 233 255
216 233 255
216 233 255
216 233 255
216 233 255
216 233 255
216 233 255
216 233 255
216 233 255
216 233 255
216 233 255
216 233 255
216 233 255
216 233 255
216 233 255
216 233 255
216 233 255
216 233 255
216 233 255
216 233 255
216 233 255
216 233 255
216 233 255
216 233 255
216 233 255
216 233 255
216 233 255
216 233 255
216 233 255
216 233 255
216 233 255
206 222 247
118 130 174
12 32 123
7 31 122
5 29 121
2 31 123
8 32 124
5 34 125
1 35 125
5 33 125
2 32 124
3 34 125
3 33 125
5 37 126
10 35 125
10 29 121
13 39 130
11 44 130
13 40 129
19 54 133
40 84 122
58 96 71
72 106 105
74 107 49
101 118 83
134 144 130
144 152 137
133 144 124
110 129 95
78 106 34
81 108 32
100 119 76
101 120 81
99 116 78
122 135 110
123 134 110
116 128 98
138 150 132
133 145 123
145 155 142
147 156 144
155 164 153
153 162 150
143 153 138
137 150 132
130 144 121
117 136 105
115 135 98
119 138 103
117 139 105
113 136 95
108 134 90
106 135 90
105 133 84
104 133 89
101 130 86
95 125 71
101 128 84
94 121 73
85 114 54
89 120 57
87 119 54
84 120 85
78 121 54
77 115 85
79 115 53
82 119 37
83 114 52
75 110 60
60 93 95
75 104 78
73 106 75
68 108 113
80 122 73
69 110 88
70 105 67
73 106 55
80 113 39
78 111 30
74 105 61
78 111 31
75 110 28
75 110 30
75 109 23
76 110 27
80 114 37
79 112 32
78 111 32
79 111 15
82 114 41
84 116 52
84 125 90
75 122 81
81 114 44
82 119 35
86 121 46
80 115 44
77 110 48
77 114 74
45 91 148
29 59 131
6 52 137
17 51 135
17 52 135
13 50 136
57 86 109
75 102 94
79 101 83
84 106 84
84 107 65
83 109 64
51 77 110
20 52 131
2 52 137
7 51 136
8 61 140
3 64 144
8 59 142
11 59 143
12 62 143
8 46 132
4 43 130
11 48 134
11 51 135
5 49 134
9 46 132
6 43 130
2 45 131
118 133 179
210 226 250
216 233 255
216 233 255
216 233 255
216 233 255
216 233 255
216 233 255
216 233 255
216 233 255
216 233 255
216 233 255
216 233 255
216 233 255
216 233 255
216 233 255
216 233 255
216 233 255
216 233 255
216 233 255
216 233 255
216 233 255
216 233 255
216 233 255
216 233 255
216 233 255
216 233 255
216 233 255
216 233 255
216 233 255
216 233 255
216 233 255
216 233 255
216 233 255
216 233 255
216 233 255
216 233 255
216 233 255
216 233 255
216 233 255
216 233 255
216 233 255
216 233 255
216 233 255
216 233 255
216 233 255
216 233 255
216 233 255
216 233 255
216 233 255
216 233 255
216 233 255
216 233 255
216 233 255
216 233 255
216 233 255
216 233 255
216 233 255
216 233 255
216 233 255
216 233 255
216 233 255
216 233 255
216 233 255
216 233 255
216 233 255
216 233 255
216 233 255
216 233 255
216 233 255
216 233 255
216 233 255
216 233 255
216 233 255
216 233 255
216 233 255
216 233 255
216 233 255
216 233 255
216 233 255
216 233 255
216 233 255
216 233 255
216 233 255
216 233 255
216 233 255
216 233 255
216 233 255
216 233 255
216 233 255
216 233 255
216 233 255
216 233 255
216 233 255
216 233 255
216 233 255
216 233 255
216 233 255
216 233 255
216 233 255
216 233 255
216 233 255
216 233 255
216 233 255
216 233 255
216 233 255
216 233 255
216 233 255
216 233 255
216 233 255
216 233 255
216 233 255
216 233 255
216 233 255
216 233 255
216 233 255
216 233 255
216 233 255
216 233 255
216 233 255
216 233 255
216 233 255
216 233 255
216 233 255
216 233 255
216 233 255
216 233 255
216 233 255
216 233 255
216 233 255
216 233 255
216 233 255
216 233 255
216 233 255
216 233 255
216 233 255
216 233 255
216 233 255
216 233 255
216 233 255
216 233 255
216 233 255
216 233 255
216 233 255
216 233 255
216 233 255
216 233 255
216 233 255
216 233 255
216 233 255
216 233 255
216 233 255
216 233 255
216 233 255
216 233 255
216 233 255
216 233 255
216 233 255
216 233 255
216 233 255
216 233 255
216 233 255
216 233 255
216 233 255
216 233 255
216 233 255
216 233 255
216 233 255
216 233 255
216 233 255
216 233 255
216 233 255
216 233 255
216 233 255
216 233 255
216 233 255
216 233 255
216 233 255
216 233 255
216 233 255
216 233 255
216 233 255
216 233 255
216 233 255
216 233 255
216 233 255
216 233 255
216 233 255
216 233 255
216 233 255
216 233 255
216 233 255
216 233 255
216 233 255
216 233 255
216 233 255
216 233 255
216 233 255
216 233 255
216 233 255
216 233 255
216 233 255
216 233 255
216 233 255
216 233 255
216 233 255
216 233 255
216 233 255
216 233 255
216 233 255
216 233 255
216 233 255
216 233 255
216 233 255
216 233 255
216 233 255
216 233 255
216 233 255
216 233 255
216 233 255
216 233 255
216 233 255
216 233 255
216 233 255
216 233 255
216 233 255
216 233 255
216 233 255
216 233 255
216 233 255
216 233 255
216 233 255
216 233 255
216 233 255
216 233 255
216 233 255
216 233 255
216 233 255
216 233 255
216 233 255
216 233 255
216 233 255
216 233 255
216 233 255
216 233 255
216 233 255
216 233 255
216 233 255
216 233 255
216 233 255
216 233 255
216 233 255
216 233 255
216 233 255
216 233 255
216 233 255
216 233 255
216 233 255
216 233 255
216 233 255
216 233 255
216 233 255
216 233 255
216 233 255
216 233 255
216 233 255
216 233 255
216 233 255
216 233 255
216 233 255
216 233 255
192 207 234
81 91 148
8 30 123
5 31 124
0 31 123
0 31 124
0 32 124
1 37 126
10 39 126
9 36 126
6 34 125
7 38 127
8 38 126
6 37 126
7 36 125
3 31 123
8 32 122
7 34 126
8 34 125
11 35 125
19 60 135
61 107 78
76 108 47
79 107 60
110 122 96
132 143 125
129 143 121
137 148 129
125 139 111
108 129 88
81 112 39
86 112 48
103 120 82
104 120 83
111 125 95
125 137 114
126 139 114
127 140 116
149 157 147
150 158 145
146 156 142
140 151 135
141 151 135
144 153 137
138 150 129
130 145 121
126 142 119
121 139 115
124 140 114
124 141 114
116 135 104
113 135 98
112 136 94
109 135 94
104 131 88
105 133 89
103 131 91
101 129 81
101 130 86
107 133 95
103 129 87
99 126 75
93 122 61
90 123 67
84 120 41
90 122 49
88 115 56
83 118 30
89 116 59
82 118 56
58 105 129
40 84 140
31 69 135
60 97 113
60 97 125
34 76 129
35 79 132
54 92 118
47 81 136
63 94 113
76 110 54
82 115 38
74 110 24
76 111 23
85 118 45
89 121 47
84 117 44
88 120 49
86 117 50
95 126 64
94 126 72
93 124 63
91 121 36
86 119 51
82 117 35
77 115 41
84 120 34
85 117 51
85 115 34
82 112 40
79 118 82
65 124 144
60 87 134
54 77 122
27 47 131
56 86 105
24 52 130
12 45 133
11 42 139
19 48 132
33 58 134
65 91 103
53 78 116
69 95 91
17 54 135
15 56 138
11 61 141
11 61 142
14 47 135
11 60 143
11 76 152
12 67 146
13 50 136
10 47 132
11 48 133
9 51 134
11 51 134
12 54 137
10 49 133
8 45 131
69 88 152
196 212 239
216 233 255
216 233 255
216 233 255
216 233 255
216 233 255
216 233 255
216 233 255
216 233 255
216 233 255
216 233 255
216 233 255
216 233 255
216 233 255
216 233 255
216 233 255
216 233 255
216 233 255
216 233 255
216 233 255
216 233 255
216 233 255
216 233 255
216 233 255
216 233 255
216 233 255
216 233 255
216 233 255
216 233 255
216 233 255
216 233 255
216 233 255
216 233 255
216 233 255
216 233 255
216 233 255
216 233 255
216 233 255
216 233 255
216 233 255
216 233 255
216 233 255
216 233 255
216 233 255
216 233 255
216 233 255
216 233 255
216 233 255
216 233 255
216 233 255
216 233 255
216 233 255
216 233 255
216 233 255
216 233 255
216 233 255
216 233 255
216 233 255
216 233 255
216 233 255
216 233 255
216 233 255
216 233 255
216 233 255
216 233 255
216 233 255
216 233 255
216 233 255
216 233 255
216 233 255
216 233 255
216 233 255
216 233 255
216 233 255
216 233 255
216 233 255
216 233 255
216 233 255
216 233 255
216 233 255
216 233 255
216 233 255
216 233 255
216 233 255
216 233 255
216 233 255
216 233 255
216 233 255
216 233 255
216 233 255
216 233 255
216 233 255
216 233 255
216 233 255
216 233 255
216 233 255
216 233 255
216 233 255
216 233 255
216 233 255
216 233 255
216 233 255
216 233 255
216 233 255
216 233 255
216 233 255
216 233 255
216 233 255
216 233 255
216 233 255
216 233 255
216 233 255
216 233 255
216 233 255
216 233 255
216 233 255
216 233 255
216 233 255
216 233 255
216 233 255
216 233 255
216 233 255
216 233 255
216 233 255
216 233 255
216 233 255
216 233 255
216 233 255
216 233 255
216 233 255
216 233 255
216 233 255
216 233 255
216 233 255
216 233 255
216 233 255
216 233 255
216 233 255
216 233 255
216 233 255
216 233 255
216 233 255
216 233 255
216 233 255
216 233 255
216 233 255
216 233 255
216 233 255
216 233 255
216 233 255
216 233 255
216 233 255
216 233 255
216 233 255
216 233 255
216 233 255
216 233 255
216 233 255
216 233 255
216 233 255
216 233 255
216 233 255
216 233 255
216 233 255
216 233 255
216 233 255
216 233 255
216 233 255
216 233 255
216 233 255
216 233 255
216 233 255
216 233 255
216 233 255
216 233 255
216 233 255
216 233 255
216 233 255
216 233 255
216 233 255
216 233 255
216 233 255
216 233 255
216 233 255
216 233 255
216 233 255
216 233 255
216 233 255
216 233 255
216 233 255
216 233 255
216 233 255
216 233 255
216 233 255
216 233 255
216 233 255
216 233 255
216 233 255
216 233 255
216 233 255
216 233 255
216 233 255
216 233 255
216 233 255
216 233 255
216 233 255
216 233 255
216 233 255
216 233 255
216 233 255
216 233 255
216 233 255
216 233 255
216 233 255
216 233 255
216 233 255
216 233 255
216 233 255
216 233 255
216 233 255
216 233 255
216 233 255
216 233 255
216 233 255
216 233 255
216 233 255
216 233 255
216 233 255
216 233 255
216 233 255
216 233 255
216 233 255
216 233 255
216 233 255
216 233 255
216 233 255
216 233 255
216 233 255
216 233 255
216 233 255
216 233 255
216 233 255
216 233 255
216 233 255
216 233 255
216 233 255
216 233 255
216 233 255
216 233 255
216 233 255
216 233 255
216 233 255
216 233 255
216 233 255
216 233 255
216 233 255
216 233 255
216 233 255
216 233 255
216 233 255
216 233 255
216 233 255
216 233 255
216 233 255
216 233 255
216 233 255
216 233 255
216 233 255
157 171 204
57 68 136
8 31 124
6 32 124
0 32 124
5 31 124
10 30 123
5 32 124
7 38 126
7 35 125
11 31 124
3 36 125
5 41 127
2 39 126
4 34 125
10 34 125
7 37 126
3 35 125
12 36 125
14 33 122
16 38 130
46 95 128
79 114 38
70 105 38
98 115 80
137 143 129
139 147 131
123 137 112
97 116 69
114 128 95
101 118 73
86 109 54
98 113 74
106 120 87
125 135 108
126 138 113
115 128 98
111 125 94
121 130 106
147 157 142
141 151 132
136 147 127
136 149 134
141 149 133
147 156 138
136 147 122
135 149 123
134 148 123
133 144 121
132 144 122
126 139 116
120 137 110
120 140 111
115 137 101
113 137 101
106 132 94
106 133 94
103 132 91
99 129 81
98 129 80
98 126 80
103 129 87
102 128 84
100 130 74
98 129 70
95 127 65
98 130 69
97 125 72
90 124 50
99 128 78
80 130 125
41 81 139
47 82 139
72 103 106
90 121 71
91 122 48
83 114 77
26 62 142
2 60 135
34 71 130
48 83 119
51 80 133
83 115 65
83 113 46
82 114 40
83 115 45
86 118 51
99 130 69
101 130 76
96 125 70
97 127 76
96 126 68
87 120 43
83 117 50
81 114 41
85 117 40
81 117 41
82 115 42
76 112 34
78 116 39
78 115 75
82 117 79
73 123 112
78 118 102
73 112 103
62 96 107
71 106 86
62 96 94
24 54 126
11 50 135
5 52 136
8 54 137
17 54 136
21 62 142
39 72 127
32 59 131
22 55 139
9 47 134
10 54 138
11 62 142
9 61 142
9 75 150
15 69 148
12 63 145
6 51 135
11 47 133
12 43 130
14 48 133
14 52 135
6 53 137
7 50 134
11 44 130
33 60 138
159 174 209
216 233 255
216 233 255
216 233 255
216 233 255
216 233 255
216 233 255
216 233 255
216 233 255
216 233 255
216 233 255
216 233 255
216 233 255
216 233 255
216 233 255
216 233 255
216 233 255
216 233 255
216 233 255
216 233 255
216 233 255
216 233 255
216 233 255
216 233 255
216 233 255
216 233 255
216 233 255
216 233 255
216 233 255
216 233 255
216 233 255
216 233 255
216 233 255
216 233 255
216 233 255
216 233 255
216 233 255
216 233 255
216 233 255
216 233 255
216 233 255
216 233 255
216 233 255
216 233 255
216 233 255
216 233 255
216 233 255
216 233 255
216 233 255
216 233 255
216 233 255
216 233 255
216 233 255
216 233 255
216 233 255
216 233 255
216 233 255
216 233 255
216 233 255
216 233 255
216 233 255
216 233 255
216 233 255
216 233 255
216 233 255
216 233 255
216 233 255
216 233 255
216 233 255
216 233 255
216 233 255
216 233 255
216 233 255
216 233 255
216 233 255
216 233 255
216 233 255
216 233 255
216 233 255
216 233 255
216 233 255
216 233 255
216 233 255
216 233 255
216 233 255
216 233 255
216 233 255
216 233 255
216 233 255
216 233 255
216 233 255
216 233 255
216 233 255
216 233 255
216 233 255
216 233 255
216 233 255
216 233 255
216 233 255
216 233 255
216 233 255
216 233 255
216 233 255
216 233 255
216 233 255
216 233 255
216 233 255
216 233 255
216 233 255
216 233 255
216 233 255
216 233 255
216 233 255
216 233 255
216 233 255
216 233 255
216 233 255
216 233 255
216 233 255
216 233 255
216 233 255
216 233 255
216 233 255
216 233 255
216 233 255
216 233 255
216 233 255
216 233 255
216 233 255
216 233 255
216 233 255
216 233 255
216 233 255
216 233 255
217 233 255
217 233 255
217 233 255
217 233 255
217 233 255
217 233 255
217 233 255
217 233 255
217 233 255
217 233 255
217 233 255
217 233 255
217 233 255
217 233 255
217 233 255
217 233 255
217 233 255
217 233 255
217 233 255
217 233 255
217 233 255
217 233 255
217 233 255
217 233 255
216 233 255
216 233 255
216 233 255
216 233 255
216 233 255
216 233 255
216 233 255
216 233 255
216 233 255
216 233 255
216 233 255
216 233 255
216 233 255
216 233 255
216 233 255
216 233 255
216 233 255
216 233 255
216 233 255
216 233 255
216 233 255
216 233 255
216 233 255
216 233 255
216 233 255
216 233 255
216 233 255
216 233 255
216 233 255
216 233 255
216 233 255
216 233 255
216 233 255
216 233 255
216 233 255
216 233 255
216 233 255
216 233 255
216 233 255
216 233 255
216 233 255
216 233 255
216 233 255
216 233 255
216 233 255
216 233 255
216 233 255
216 233 255
216 233 255
216 233 255
216 233 255
216 233 255
216 233 255
216 233 255
216 233 255
216 233 255
216 233 255
216 233 255
216 233 255
216 233 255
216 233 255
216 233 255
216 233 255
216 233 255
216 233 255
216 233 255
216 233 255
216 233 255
216 233 255
216 233 255
216 233 255
216 233 255
216 233 255
216 233 255
216 233 255
216 233 255
216 233 255
216 233 255
216 233 255
216 233 255
216 233 255
216 233 255
216 233 255
216 233 255
216 233 255
216 233 255
216 233 255
216 233 255
216 233 255
216 233 255
216 233 255
216 233 255
216 233 255
216 233 255
216 233 255
216 233 255
216 233 255
216 233 255
216 233 255
216 233 255
216 233 255
216 233 255
216 233 255
216 233 255
216 233 255
216 233 255
216 233 255
214 230 254
142 154 192
2 34 125
1 30 123
1 32 124
9 31 123
8 28 121
7 26 120
12 30 122
12 35 126
6 33 125
5 32 124
8 37 125
6 41 128
5 40 127
13 40 127
4 32 124
5 34 125
10 38 126
10 33 124
17 31 123
12 31 120
33 59 126
79 112 73
84 112 55
92 113 73
135 142 129
136 142 128
117 128 102
112 124 95
111 126 95
107 123 86
102 116 84
111 121 95
125 133 111
126 136 116
132 142 123
114 127 98
108 120 92
107 117 95
125 134 113
162 171 161
169 178 168
124 131 106
149 158 140
154 161 144
143 152 133
123 135 103
107 121 84
128 142 117
132 145 121
129 143 118
125 140 113
121 139 110
120 141 109
118 139 106
114 137 104
110 135 100
105 132 95
101 131 90
96 128 80
96 127 79
95 124 79
98 127 83
100 129 83
100 129 80
96 125 73
96 126 69
95 125 64
95 125 73
100 126 78
104 130 79
83 119 114
22 71 149
67 104 119
92 118 53
96 124 64
98 122 55
78 130 113
64 94 137
30 62 137
68 93 125
100 129 86
99 126 82
98 125 80
95 123 83
90 119 83
91 120 83
89 119 81
86 114 92
97 125 67
81 113 46
80 113 42
84 116 61
83 117 50
82 116 40
84 115 38
85 121 49
86 119 40
84 119 56
74 114 72
68 104 99
41 104 154
44 98 142
75 115 99
80 118 78
80 114 67
80 109 62
63 94 92
32 58 124
22 44 132
12 42 132
7 49 134
13 57 139
2 57 139
15 53 138
16 49 135
12 43 128
9 44 128
6 42 130
6 50 133
11 53 136
16 56 141
15 62 143
13 70 149
6 68 148
10 59 141
11 48 132
5 37 126
8 39 126
9 42 128
7 45 132
11 53 136
9 47 132
8 44 130
8 55 138
137 155 196
210 226 250
216 233 255
216 233 255
216 233 255
216 233 255
216 233 255
216 233 255
216 233 255
216 233 255
216 233 255
216 233 255
216 233 255
216 233 255
216 233 255
216 233 255
216 233 255
216 233 255
216 233 255
216 233 255
216 233 255
216 233 255
216 233 255
216 233 255
216 233 255
216 233 255
216 233 255
216 233 255
216 233 255
216 233 255
216 233 255
216 233 255
216 233 255
216 233 255
216 233 255
216 233 255
216 233 255
216 233 255
216 233 255
216 233 255
216 233 255
216 233 255
216 233 255
216 233 255
216 233 255
216 233 255
216 233 255
216 233 255
216 233 255
216 233 255
216 233 255
216 233 255
216 233 255
216 233 255
216 233 255
216 233 255
216 233 255
216 233 255
216 233 255
216 233 255
216 233 255
216 233 255
216 233 255
216 233 255
216 233 255
216 233 255
216 233 255
216 233 255
216 233 255
216 233 255
216 233 255
216 233 255
216 233 255
216 233 255
216 233 255
216 233 255
216 233 255
216 233 255
216 233 255
216 233 255
216 233 255
216 233 255
216 233 255
216 233 255
216 233 255
216 233 255
216 233 255
216 233 255
216 233 255
216 233 255
216 233 255
216 233 255
216 233 255
216 233 255
216 233 255
216 233 255
216 233 255
216 233 255
216 233 255
216 233 255
216 233 255
216 233 255
216 233 255
216 233 255
216 233 255
216 233 255
216 233 255
216 233 255
216 233 255
217 233 255
217 233 255
217 233 255
217 233 255
217 233 255
217 233 255
217 233 255
217 233 255
217 233 255
217 233 255
217 233 255
217 233 255
217 233 255
217 233 255
217 233 255
217 233 255
217 233 255
217 233 255
217 233 255
217 233 255
217 233 255
217 233 255
217 233 255
217 233 255
217 233 255
217 233 255
217 233 255
217 233 255
217 233 255
217 233 255
217 233 255
217 233 255
217 233 255
217 233 255
217 233 255
217 233 255
217 233 255
217 233 255
217 233 255
217 233 255
217 233 255
217 233 255
217 233 255
217 233 255
217 233 255
217 233 255
217 233 255
217 233 255
217 233 255
217 233 255
217 233 255
217 233 255
217 233 255
217 233 255
217 233 255
217 233 255
217 233 255
217 233 255
217 233 255
217 233 255
217 233 255
217 233 255
217 233 255
217 233 255
217 233 255
217 233 255
217 233 255
217 233 255
217 233 255
217 233 255
217 233 255
217 233 255
217 233 255
217 233 255
217 233 255
217 233 255
217 233 255
217 233 255
217 233 255
216 233 255
216 233 255
216 233 255
216 233 255
216 233 255
216 233 255
216 233 255
216 233 255
216 233 255
216 233 255
216 233 255
216 233 255
216 233 255
216 233 255
216 233 255
216 233 255
216 233 255
216 233 255
216 233 255
216 233 255
216 233 255
216 233 255
216 233 255
216 233 255
216 233 255
216 233 255
216 233 255
216 233 255
216 233 255
216 233 255
216 233 255
216 233 255
216 233 255
216 233 255
216 233 255
216 233 255
216 233 255
216 233 255
216 233 255
216 233 255
216 233 255
216 233 255
216 233 255
216 233 255
216 233 255
216 233 255
216 233 255
216 233 255
216 233 255
216 233 255
216 233 255
216 233 255
216 233 255
216 233 255
216 233 255
216 233 255
216 233 255
216 233 255
216 233 255
216 233 255
216 233 255
216 233 255
216 233 255
216 233 255
216 233 255
216 233 255
216 233 255
216 233 255
216 233 255
216 233 255
216 233 255
216 233 255
216 233 255
216 233 255
216 233 255
210 226 250
114 126 171
6 32 124
6 31 124
10 30 124
11 29 122
6 25 120
5 25 121
14 30 123
11 34 125
1 31 125
5 36 126
4 37 126
2 40 127
7 40 127
8 39 127
4 33 124
11 32 123
6 35 126
4 28 123
14 29 122
14 25 120
23 50 129
73 103 75
83 116 64
90 108 64
130 136 121
124 131 115
118 126 105
112 122 95
137 145 132
132 144 125
114 128 96
114 127 99
125 133 114
137 144 133
144 151 136
134 146 125
117 132 106
110 124 98
117 127 107
140 147 134
164 169 155
161 170 158
141 150 131
156 163 146
152 159 142
148 157 138
140 153 130
122 137 107
134 149 124
134 149 121
128 145 116
122 142 107
119 140 107
116 140 104
109 135 99
111 134 102
108 132 98
104 131 92
97 128 81
97 127 81
98 127 81
94 125 78
96 127 80
98 129 80
102 130 85
99 128 79
95 124 69
96 125 68
99 124 72
100 130 81
104 130 81
65 102 139
12 85 159
59 107 136
99 124 67
98 128 67
104 130 90
109 134 105
109 132 94
77 98 122
78 100 128
110 133 83
111 135 97
100 131 100
65 98 140
66 98 127
51 84 131
43 77 137
62 99 122
85 118 55
81 114 45
80 113 45
83 117 51
85 117 43
82 117 53
82 116 44
86 120 51
71 106 94
50 86 121
27 79 148
10 70 150
9 54 136
47 79 132
81 111 61
63 96 92
32 61 130
19 49 135
12 44 136
0 44 132
7 46 132
9 47 131
5 46 130
14 50 133
10 54 137
11 59 142
10 47 131
9 40 126
5 40 131
10 43 128
3 39 128
13 53 136
8 56 142
15 52 137
10 60 142
5 65 145
11 60 140
9 40 127
11 38 126
10 33 123
15 39 126
6 37 126
16 49 133
10 48 133
7 42 130
8 43 130
17 72 149
108 131 181
211 227 251
216 233 255
216 233 255
216 233 255
216 233 255
216 233 255
216 233 255
216 233 255
216 233 255
216 233 255
216 233 255
216 233 255
216 233 255
216 233 255
216 233 255
216 233 255
216 233 255
216 233 255
216 233 255
216 233 255
216 233 255
216 233 255
216 233 255
216 233 255
216 233 255
216 233 255
216 233 255
216 233 255
216 233 255
216 233 255
216 233 255
216 233 255
216 233 255
216 233 255
216 233 255
216 233 255
216 233 255
216 233 255
216 233 255
216 233 255
216 233 255
216 233 255
216 233 255
216 233 255
216 233 255
216 233 255
216 233 255
216 233 255
216 233 255
216 233 255
216 233 255
216 233 255
216 233 255
216 233 255
216 233 255
216 233 255
216 233 255
216 233 255
216 233 255
216 233 255
216 233 255
216 233 255
216 233 255
216 233 255
216 233 255
216 233 255
216 233 255
216 233 255
216 233 255
216 233 255
216 233 255
216 233 255
216 233 255
216 233 255
216 233 255
217 233 255
217 233 255
217 233 255
217 233 255
217 233 255
217 233 255
217 233 255
217 233 255
217 233 255
217 233 255
217 233 255
217 233 255
217 233 255
217 233 255
217 233 255
217 233 255
217 233 255
217 233 255
217 233 255
217 233 255
217 233 255
217 233 255
217 233 255
217 233 255
217 233 255
217 233 255
217 233 255
217 233 255
217 233 255
217 233 255
217 233 255
217 233 255
217 233 255
217 233 255
217 233 255
217 233 255
217 233 255
217 233 255
217 233 255
217 233 255
217 233 255
217 233 255
217 233 255
217 233 255
217 233 255
217 233 255
217 233 255
217 233 255
217 233 255
217 233 255
217 233 255
217 233 255
217 233 255
217 233 255
217 233 255
217 233 255
217 233 255
217 233 255
217 233 255
217 233 255
217 233 255
217 233 255
217 233 255
217 233 255
217 233 255
217 233 255
217 233 255
217 233 255
217 233 255
217 233 255
217 233 255
217 233 255
217 233 255
217 233 255
217 233 255
217 233 255
217 233 255
217 233 255
217 233 255
217 233 255
217 233 255
217 233 255
217 233 255
217 233 255
217 233 255
217 233 255
217 233 255
217 233 255
217 233 255
217 233 255
217 233 255
217 233 255
217 233 255
217 233 255
217 233 255
217 233 255
217 233 255
217 233 255
217 233 255
217 233 255
217 233 255
217 233 255
217 233 255
217 233 255
217 233 255
217 233 255
217 233 255
217 233 255
217 233 255
217 233 255
217 233 255
217 233 255
217 233 255
217 233 255
217 233 255
217 233 255
217 233 255
217 233 255
217 233 255
217 233 255
217 233 255
217 233 255
217 233 255
217 233 255
217 233 255
217 233 255
217 233 255
217 233 255
217 233 255
217 233 255
217 233 255
217 233 255
217 233 255
217 233 255
217 233 255
217 233 255
217 233 255
217 233 255
217 233 255
217 233 255
217 233 255
217 233 255
217 233 255
217 233 255
217 233 255
217 233 255
217 233 255
217 233 255
217 233 255
217 233 255
217 233 255
217 233 255
217 233 255
217 233 255
216 233 255
216 233 255
216 233 255
216 233 255
216 233 255
216 233 255
216 233 255
216 233 255
216 233 255
216 233 255
216 233 255
216 233 255
216 233 255
216 233 255
216 233 255
216 233 255
216 233 255
216 233 255
216 233 255
216 233 255
216 233 255
216 233 255
216 233 255
216 233 255
216 233 255
216 233 255
216 233 255
216 233 255
216 233 255
216 233 255
216 233 255
201 216 242
78 90 149
4 33 124
0 31 124
8 30 123
10 27 121
9 26 120
3 28 122
5 31 124
12 38 126
6 35 125
14 39 127
8 40 128
4 38 126
1 36 126
8 35 125
7 33 124
5 32 122
9 33 123
3 32 124
1 32 125
18 30 123
18 43 128
55 90 103
77 110 48
76 101 50
116 124 105
138 145 136
138 143 132
135 142 130
143 147 134
142 147 133
143 152 139
139 146 129
134 143 125
136 144 130
136 144 127
135 145 125
126 141 114
107 123 93
122 133 111
134 142 126
149 157 144
167 174 163
165 173 164
158 164 149
145 153 133
146 156 140
145 155 137
138 149 126
131 145 120
129 142 114
133 148 126
133 149 128
130 147 124
125 142 118
118 139 108
114 138 104
111 136 101
105 130 93
101 129 87
99 129 79
97 128 77
96 127 77
95 125 75
95 126 76
99 129 76
96 127 77
97 128 75
99 130 76
100 131 78
100 129 80
102 129 73
101 128 75
75 101 124
16 87 160
42 91 149
99 128 74
98 126 67
104 128 81
100 129 71
111 132 87
94 126 115
103 130 98
85 120 124
87 122 129
68 104 141
79 113 124
93 128 63
98 130 64
95 127 65
96 127 73
90 122 54
91 124 55
91 124 58
91 124 64
88 122 52
81 117 50
87 118 47
85 119 58
41 74 132
22 45 132
13 48 132
17 49 134
15 48 137
13 58 141
30 74 132
32 61 132
10 50 133
2 46 132
18 51 134
9 46 132
2 46 131
8 47 131
4 46 130
11 49 134
4 46 132
4 56 139
10 56 139
12 50 135
9 51 135
7 51 135
5 45 130
10 42 129
3 49 134
4 59 141
8 56 138
13 63 144
10 58 142
13 52 136
15 45 131
9 32 123
8 35 125
3 39 128
12 42 129
12 47 134
11 50 135
8 48 133
9 51 135
16 77 152
69 101 164
196 212 239
216 233 255
216 233 255
216 233 255
216 233 255
216 233 255
216 233 255
216 233 255
216 233 255
216 233 255
216 233 255
216 233 255
216 233 255
216 233 255
216 233 255
216 233 255
216 233 255
216 233 255
216 233 255
216 233 255
216 233 255
216 233 255
216 233 255
216 233 255
216 233 255
216 233 255
216 233 255
216 233 255
216 233 255
216 233 255
217 233 255
217 233 255
216 233 255
217 233 255
217 233 255
217 233 255
217 233 255
217 233 255
217 233 255
217 233 255
217 233 255
217 233 255
217 233 255
217 233 255
217 233 255
217 233 255
217 233 255
217 233 255
217 233 255
217 233 255
217 233 255
217 233 255
217 233 255
217 233 255
217 233 255
217 233 255
217 233 255
217 233 255
217 233 255
217 233 255
217 233 255
217 233 255
217 233 255
217 233 255
217 233 255
217 233 255
217 233 255
217 233 255
217 233 255
217 233 255
217 233 255
217 233 255
217 233 255
217 233 255
217 233 255
217 233 255
217 233 255
217 233 255
217 233 255
217 233 255
217 233 255
217 233 255
217 233 255
217 233 255
217 233 255
217 233 255
217 233 255
217 233 255
217 233 255
217 233 255
217 233 255
217 233 255
217 233 255
217 233 255
217 233 255
217 233 255
217 233 255
217 233 255
217 233 255
217 233 255
217 233 255
217 233 255
217 233 255
217 233 255
217 233 255
217 233 255
217 233 255
217 233 255
217 233 255
217 233 255
217 233 255
217 233 255
217 233 255
217 233 255
217 233 255
217 233 255
217 233 255
217 233 255
217 233 255
217 233 255
217 233 255
217 233 255
217 233 255
217 233 255
217 233 255
217 233 255
217 233 255
217 233 255
217 233 255
217 233 255
217 233 255
217 233 255
217 233 255
217 233 255
217 233 255
217 233 255
217 233 255
217 233 255
217 233 255
217 233 255
217 233 255
217 233 255
217 233 255
217 233 255
217 233 255
217 233 255
217 233 255
217 233 255
217 233 255
217 233 255
217 233 255
217 233 255
217 233 255
217 233 255
217 233 255
217 233 255
217 233 255
217 233 255
217 233 255
217 233 255
217 233 255
217 233 255
217 233 255
217 233 255
217 233 255
217 233 255
217 233 255
217 233 255
217 233 255
217 233 255
217 233 255
217 233 255
217 233 255
217 233 255
217 233 255
217 233 255
217 233 255
217 233 255
217 233 255
217 233 255
217 233 255
217 233 255
217 233 255
217 233 255
217 233 255
217 233 255
217 233 255
217 233 255
217 233 255
217 233 255
217 233 255
217 233 255
217 233 255
217 233 255
217 233 255
217 233 255
217 233 255
217 233 255
217 233 255
217 233 255
217 233 255
217 233 255
217 233 255
217 233 255
217 233 255
217 233 255
217 233 255
217 233 255
217 233 255
217 233 255
217 233 255
217 233 255
217 233 255
217 233 255
217 233 255
217 233 255
217 233 255
217 233 255
217 233 255
217 233 255
217 233 255
217 233 255
217 233 255
217 233 255
217 233 255
217 233 255
217 233 255
217 233 255
217 233 255
217 233 255
217 233 255
217 233 255
217 233 255
217 233 255
217 233 255
217 233 255
217 233 255
217 233 255
217 233 255
217 233 255
217 233 255
217 233 255
217 233 255
217 233 255
217 233 255
217 233 255
217 233 255
217 233 255
217 233 255
217 233 255
217 233 255
217 233 255
217 233 255
217 233 255
217 233 255
217 233 255
217 233 255
217 233 255
176 190 220
49 62 135
5 30 123
3 32 122
12 30 122
13 27 121
15 30 121
11 32 123
3 34 125
0 35 125
5 34 125
5 32 124
8 31 124
12 36 126
9 38 126
10 37 126
8 33 125
10 33 125
13 34 125
7 34 125
10 38 125
9 30 125
20 46 129
57 92 95
76 109 45
74 97 36
109 119 99
131 138 128
145 150 142
149 151 141
144 147 138
148 152 142
140 144 131
151 155 146
154 158 145
140 149 127
142 153 132
142 150 133
132 144 125
118 134 117
127 135 116
162 168 160
158 164 159
163 169 157
166 175 164
164 173 156
154 162 146
147 155 135
136 145 125
144 156 137
138 152 130
136 150 129
137 150 134
139 152 137
138 150 133
137 147 128
134 147 128
127 143 118
121 140 110
108 132 97
104 130 91
100 129 85
101 128 80
102 128 86
101 128 85
100 128 81
100 129 83
101 129 82
99 128 80
99 128 78
99 128 76
99 128 69
97 125 61
92 126 71
104 129 75
101 123 112
56 91 140
83 117 108
101 131 67
99 127 76
100 127 75
104 129 87
95 135 123
62 118 150
52 104 157
44 106 157
61 110 139
75 115 102
81 116 68
84 116 47
85 120 47
89 124 53
90 124 55
90 124 52
89 122 46
86 120 37
87 119 42
86 121 56
86 120 51
85 115 37
90 119 62
56 88 125
18 56 134
8 46 133
11 52 135
12 50 133
9 55 136
20 48 133
11 47 132
22 43 131
14 46 134
14 49 129
9 48 133
6 48 131
0 46 130
0 47 132
4 46 131
9 47 130
8 47 132
12 53 137
7 54 137
6 52 136
2 53 137
13 52 134
9 44 130
0 42 129
8 51 134
5 57 139
9 61 141
13 63 144
11 52 135
8 44 130
6 39 127
10 34 125
8 38 127
13 49 134
9 47 133
9 49 134
12 51 136
9 54 137
7 50 135
8 67 146
65 97 162
177 193 224
217 233 255
217 233 255
217 233 255
217 233 255
217 233 255
217 233 255
217 233 255
217 233 255
217 233 255
217 233 255
217 233 255
217 233 255
217 233 255
217 233 255
217 233 255
217 233 255
217 233 255
217 233 255
217 233 255
217 233 255
217 233 255
217 233 255
217 233 255
217 233 255
217 233 255
217 233 255
217 233 255
217 233 255
217 233 255
217 233 255
217 233 255
217 233 255
217 233 255
217 233 255
217 233 255
217 233 255
217 233 255
217 233 255
217 233 255
217 233 255
217 233 255
217 233 255
217 233 255
217 233 255
217 233 255
217 233 255
217 233 255
217 233 255
217 233 255
217 233 255
217 233 255
217 233 255
217 233 255
217 233 255
217 233 255
217 233 255
217 233 255
217 233 255
217 233 255
217 233 255
217 233 255
217 233 255
217 233 255
217 233 255
217 233 255
217 233 255
217 233 255
217 233 255
217 233 255
217 233 255
217 233 255
217 233 255
217 233 255
217 233 255
217 233 255
217 233 255
217 233 255
217 233 255
217 233 255
217 233 255
217 233 255
217 233 255
217 233 255
217 233 255
217 233 255
217 233 255
217 233 255
217 233 255
217 233 255
217 233 255
217 233 255
217 233 255
217 233 255
217 233 255
217 233 255
217 233 255
217 233 255
217 233 255
217 233 255
217 233 255
217 233 255
217 233 255
217 233 255
217 233 255
217 233 255
217 233 255
217 233 255
217 233 255
217 233 255
217 233 255
217 233 255
217 233 255
217 233 255
217 233 255
217 233 255
217 233 255
217 233 255
217 233 255
217 233 255
217 233 255
217 233 255
217 233 255
217 233 255
217 233 255
217 233 255
217 233 255
217 233 255
217 233 255
217 233 255
217 233 255
217 233 255
217 233 255
217 233 255
217 233 255
217 233 255
217 233 255
217 233 255
217 233 255
217 233 255
217 233 255
217 233 255
217 233 255
217 233 255
217 233 255
217 233 255
217 233 255
217 233 255
217 233 255
217 233 255
217 233 255
217 233 255
217 233 255
217 233 255
217 233 255
217 233 255
217 233 255
217 233 255
217 233 255
217 233 255
217 233 255
217 233 255
217 233 255
217 233 255
217 233 255
217 233 255
217 233 255
217 233 255
217 233 255
217 233 255
217 233 255
217 233 255
217 233 255
217 233 255
217 233 255
217 233 255
217 233 255
217 233 255
217 233 255
217 233 255
217 233 255
217 233 255
217 233 255
217 233 255
217 233 255
217 233 255
217 233 255
217 233 255
217 233 255
217 233 255
217 233 255
217 233 255
217 233 255
217 233 255
217 233 255
217 233 255
217 233 255
217 233 255
217 233 255
217 233 255
217 233 255
217 233 255
217 233 255
217 233 255
217 233 255
217 233 255
217 233 255
217 233 255
217 233 255
217 233 255
217 233 255
217 233 255
217 233 255
217 233 255
217 233 255
217 233 255
217 233 255
217 233 255
217 233 255
217 233 255
217 233 255
217 233 255
217 233 255
217 233 255
217 233 255
217 233 255
217 233 255
217 233 255
217 233 255
217 233 255
217 233 255
217 233 255
217 233 255
217 233 255
217 233 255
217 233 255
217 233 255
217 233 255
217 233 255
217 233 255
217 233 255
217 233 255
217 233 255
217 233 255
217 233 255
217 233 255
217 233 255
217 233 255
217 233 255
217 233 255
217 233 255
217 233 255
217 233 255
217 233 255
217 233 255
217 233 255
163 177 210
22 41 127
8 28 121
12 29 121
10 30 122
9 26 120
12 28 120
9 29 122
14 35 125
6 37 126
5 33 125
10 34 124
14 30 123
10 30 124
4 32 124
7 36 124
6 31 124
9 33 125
6 38 127
7 36 125
10 35 125
7 34 124
14 39 130
44 74 117
72 102 37
94 115 72
105 118 89
123 129 114
123 130 114
145 149 137
148 153 142
149 152 141
149 153 143
144 149 138
140 146 132
146 149 137
144 151 136
152 160 147
152 159 145
126 140 116
134 145 129
162 165 155
172 181 172
167 175 161
171 180 167
161 168 154
149 155 142
133 140 117
142 153 137
141 152 139
142 155 140
140 154 140
137 150 137
139 152 139
135 149 134
132 147 126
125 140 115
118 137 109
118 140 108
114 137 102
107 131 95
104 129 93
109 132 96
107 130 90
100 126 84
105 132 90
102 131 87
104 132 85
100 129 80
103 131 83
102 130 79
97 126 72
97 126 67
94 124 71
89 124 58
95 124 66
100 129 62
96 128 65
99 127 65
97 126 68
99 130 78
104 132 78
108 132 89
105 132 91
92 124 105
94 126 96
91 129 86
96 127 64
95 125 48
87 118 38
87 119 55
84 117 40
85 119 39
92 121 52
90 122 49
89 121 51
86 116 36
88 117 58
90 118 49
83 123 83
83 120 86
74 109 104
60 102 109
43 88 144
18 68 141
15 61 144
18 71 150
13 69 149
5 59 141
16 53 137
6 44 132
8 47 129
6 48 132
5 51 136
12 54 136
3 46 132
8 45 133
15 50 134
9 46 130
5 36 125
4 40 127
12 50 134
4 54 137
12 51 134
5 50 134
8 49 134
6 43 129
7 49 133
5 53 136
6 56 139
13 60 142
4 47 133
5 37 124
4 32 122
13 29 123
11 34 125
6 40 128
3 44 131
13 49 134
6 45 130
6 47 133
8 52 137
10 46 132
15 60 141
40 76 150
176 192 223
217 233 255
217 233 255
217 233 255
217 233 255
217 233 255
217 233 255
217 233 255
217 233 255
217 233 255
217 233 255
217 233 255
217 233 255
217 233 255
217 233 255
217 233 255
217 233 255
217 233 255
217 233 255
217 233 255
217 233 255
217 233 255
217 233 255
217 233 255
217 233 255
217 233 255
217 233 255
217 233 255
217 233 255
217 233 255
217 233 255
217 233 255
217 233 255
217 233 255
217 233 255
217 233 255
217 233 255
217 233 255
217 233 255
217 233 255
217 233 255
217 233 255
217 233 255
217 233 255
217 233 255
217 233 255
217 233 255
217 233 255
217 233 255
217 233 255
217 233 255
217 233 255
217 233 255
217 233 255
217 233 255
217 233 255
217 233 255
217 233 255
217 233 255
217 233 255
217 233 255
217 233 255
217 233 255
217 233 255
217 233 255
217 233 255
217 233 255
217 233 255
217 233 255
217 233 255
217 233 255
217 233 255
217 233 255
217 233 255
217 233 255
217 233 255
217 233 255
217 233 255
217 233 255
217 233 255
217 233 255
217 233 255
217 233 255
217 233 255
217 233 255
217 233 255
217 233 255
217 233 255
217 233 255
217 233 255
217 233 255
217 233 255
217 233 255
217 233 255
217 233 255
217 233 255
217 233 255
217 233 255
217 233 255
217 233 255
217 233 255
217 233 255
217 233 255
217 233 255
217 233 255
217 233 255
217 233 255
217 233 255
217 233 255
217 233 255
217 233 255
217 233 255
217 233 255
217 233 255
217 233 255
217 233 255
217 233 255
217 233 255
217 233 255
217 233 255
217 233 255
217 233 255
217 233 255
217 233 255
217 233 255
217 233 255
217 233 255
217 233 255
217 233 255
217 233 255
217 233 255
217 233 255
217 233 255
217 233 255
217 233 255
217 233 255
217 233 255
217 233 255
217 233 255
217 233 255
217 233 255
217 233 255
217 233 255
217 233 255
217 233 255
217 233 255
217 233 255
217 233 255
217 233 255
217 233 255
217 233 255
217 233 255
217 233 255
217 233 255
217 233 255
217 233 255
217 233 255
217 233 255
217 233 255
217 233 255
217 233 255
217 233 255
217 233 255
217 233 255
217 233 255
217 233 255
217 233 255
217 233 255
217 233 255
217 233 255
217 233 255
217 233 255
217 233 255
217 233 255
217 233 255
217 233 255
217 233 255
217 233 255
217 233 255
217 233 255
217 233 255
217 233 255
217 233 255
217 233 255
217 233 255
217 233 255
217 233 255
217 233 255
217 233 255
217 233 255
217 233 255
217 233 255
217 233 255
217 233 255
217 233 255
217 233 255
217 233 255
217 233 255
217 233 255
217 233 255
217 233 255
217 233 255
217 233 255
217 233 255
217 233 255
217 233 255
217 233 255
217 233 255
217 233 255
217 233 255
217 233 255
217 233 255
217 233 255
217 233 255
217 233 255
217 233 255
217 233 255
217 233 255
217 233 255
217 233 255
217 233 255
217 233 255
217 233 255
217 233 255
217 233 255
217 233 255
217 233 255
217 233 255
217 233 255
217 233 255
217 233 255
217 233 255
217 233 255
217 233 255
217 233 255
217 233 255
217 233 255
217 233 255
217 233 255
217 233 255
217 233 255
217 233 255
217 233 255
217 233 255
217 233 255
217 233 255
217 233 255
217 233 255
217 233 255
217 233 255
217 233 255
217 233 255
217 233 255
217 233 255
172 186 217
6 33 124
10 29 122
12 29 123
12 31 123
10 27 120
9 28 121
3 31 124
4 31 124
11 34 125
5 35 125
4 38 126
6 31 124
6 32 124
5 30 123
13 32 124
9 33 122
3 32 121
8 35 123
0 38 126
2 32 124
5 32 123
10 39 127
12 53 133
59 93 93
90 107 62
115 124 98
122 129 112
133 137 124
145 150 143
161 166 158
161 165 159
152 156 145
148 152 140
147 151 138
143 152 143
152 160 148
181 194 206
176 190 196
118 139 114
123 137 112
127 138 115
127 136 117
145 151 138
151 157 146
167 171 159
132 145 117
103 119 74
118 130 107
116 128 102
138 150 135
140 153 140
138 150 135
138 150 137
137 149 131
132 147 125
132 148 124
123 141 110
113 134 97
108 132 89
110 134 97
103 128 89
108 132 98
107 132 97
104 130 88
100 128 82
105 133 88
102 131 84
102 132 82
101 130 80
101 130 81
100 129 78
99 128 70
97 127 69
97 129 74
94 126 71
96 128 68
96 127 77
93 127 74
95 129 69
93 126 61
94 128 61
103 129 71
104 127 74
100 128 75
100 129 70
96 129 66
99 128 71
95 125 61
94 123 60
97 125 64
90 122 51
89 120 49
88 120 51
94 121 60
93 122 59
88 121 55
89 124 56
90 120 56
96 136 121
65 125 149
46 107 148
18 74 144
13 61 146
24 71 146
9 70 147
7 64 146
17 71 149
3 64 144
5 57 141
5 56 139
4 55 138
12 56 139
5 54 138
9 55 138
5 54 137
17 48 134
4 42 128
6 40 128
6 40 128
10 38 126
8 33 124
5 40 128
3 47 131
15 50 134
6 42 129
1 45 132
14 45 131
11 48 133
11 52 135
4 48 135
16 52 138
10 43 132
13 30 123
10 19 118
10 22 119
13 33 124
15 40 127
10 39 126
9 45 130
5 45 131
0 45 130
8 50 134
5 51 135
8 50 134
10 58 140
24 61 141
156 171 207
217 233 255
217 233 255
217 233 255
217 233 255
217 233 255
217 233 255
217 233 255
217 233 255
217 233 255
217 233 255
217 233 255
217 233 255
217 233 255
217 233 255
217 233 255
217 233 255
217 233 255
217 233 255
217 233 255
217 233 255
217 233 255
217 233 255
217 233 255
217 233 255
217 233 255
217 233 255
217 233 255
217 233 255
217 233 255
217 233 255
217 233 255
217 233 255
217 233 255
217 233 255
217 233 255
217 233 255
217 233 255
217 233 255
217 233 255
217 233 255
217 233 255
217 233 255
217 233 255
217 233 255
217 233 255
217 233 255
217 233 255
217 233 255
217 233 255
217 233 255
217 233 255
217 233 255
217 233 255
217 233 255
217 233 255
217 233 255
217 233 255
217 233 255
217 233 255
217 233 255
217 233 255
217 233 255
217 233 255
217 233 255
217 233 255
217 233 255
217 233 255
217 233 255
217 233 255
217 233 255
217 233 255
217 233 255
217 233 255
217 233 255
217 233 255
217 233 255
217 233 255
217 233 255
217 233 255
217 233 255
217 233 255
217 233 255
217 233 255
217 233 255
217 233 255
217 233 255
217 233 255
217 233 255
217 233 255
217 233 255
217 233 255
217 233 255
217 233 255
217 233 255
217 233 255
217 233 255
217 233 255
217 233 255
217 233 255
217 233 255
217 233 255
217 233 255
217 233 255
217 233 255
217 233 255
217 233 255
217 233 255
217 233 255
217 233 255
217 233 255
217 233 255
217 233 255
217 233 255
217 233 255
217 233 255
217 233 255
217 233 255
217 233 255
217 233 255
217 233 255
217 233 255
217 233 255
217 233 255
217 233 255
217 233 255
217 233 255
217 233 255
217 233 255
217 233 255
217 233 255
217 233 255
217 233 255
217 233 255
217 233 255
217 233 255
217 233 255
217 233 255
217 233 255
217 233 255
217 233 255
217 233 255
217 233 255
217 233 255
217 233 255
217 233 255
217 233 255
217 233 255
217 233 255
217 233 255
217 233 255
217 233 255
217 233 255
217 233 255
217 233 255
217 233 255
217 233 255
217 233 255
217 233 255
217 233 255
217 233 255
217 233 255
217 233 255
217 233 255
217 233 255
217 233 255
217 233 255
217 233 255
217 233 255
217 233 255
217 233 255
217 233 255
217 233 255
217 233 255
217 233 255
217 233 255
217 233 255
217 233 255
217 233 255
217 233 255
217 233 255
217 233 255
217 233 255
217 233 255
217 233 255
217 233 255
217 233 255
217 233 255
217 233 255
217 233 255
217 233 255
217 233 255
217 233 255
217 233 255
217 233 255
217 233 255
217 233 255
217 233 255
217 233 255
217 233 255
217 233 255
217 233 255
217 233 255
217 233 255
217 233 255
217 233 255
217 233 255
217 233 255
217 233 255
217 233 255
217 233 255
217 233 255
217 233 255
217 233 255
217 233 255
217 233 255
217 233 255
217 233 255
217 233 255
217 233 255
217 233 255
217 233 255
217 233 255
217 233 255
217 233 255
217 233 255
217 233 255
217 233 255
217 233 255
217 233 255
217 233 255
217 233 255
217 233 255
217 233 255
217 233 255
217 233 255
217 233 255
217 233 255
217 233 255
217 233 255
217 233 255
217 233 255
217 233 255
217 233 255
217 233 255
217 233 255
217 233 255
217 233 255
217 233 255
217 233 255
217 233 255
217 233 255
161 174 207
6 32 124
6 32 124
5 32 124
2 27 122
10 28 121
10 31 123
7 38 126
2 38 126
8 33 125
4 34 126
12 40 128
11 39 127
8 31 123
3 33 123
0 32 122
3 31 123
8 28 121
9 24 118
4 33 121
0 32 123
8 33 124
12 39 128
3 49 137
38 77 124
71 102 42
95 113 70
91 106 62
121 128 110
140 143 131
162 166 161
169 175 168
159 162 152
156 160 150
154 158 146
150 156 144
158 162 150
169 178 167
195 213 225
164 169 161
140 152 137
117 132 103
135 146 130
154 158 151
166 172 165
144 155 139
125 138 118
110 126 97
111 125 90
103 116 84
115 130 100
138 152 133
139 152 137
137 150 133
139 151 134
137 150 134
137 150 130
133 149 125
132 148 120
128 145 114
127 145 114
124 142 114
121 139 108
118 137 108
111 134 96
105 132 89
100 128 81
101 130 84
101 132 84
101 132 80
101 131 78
101 131 78
101 130 75
99 128 70
99 128 68
96 126 72
96 125 64
92 126 67
94 127 61
95 126 65
99 129 63
102 131 58
95 127 64
94 127 65
100 130 69
96 129 71
107 131 86
91 126 56
90 122 47
88 122 42
90 123 46
89 122 52
89 121 44
88 119 44
89 120 54
97 124 70
97 126 73
98 128 74
100 126 76
99 121 70
65 108 124
10 66 150
23 55 140
10 57 140
10 61 139
8 61 142
18 57 138
19 56 139
15 49 136
5 41 130
17 46 131
18 53 135
16 55 138
2 53 137
9 56 139
15 54 138
6 47 133
3 42 129
5 34 124
11 31 123
10 27 122
10 32 124
15 36 125
10 29 122
7 37 126
12 36 127
13 28 125
11 29 124
12 39 127
0 38 127
5 43 129
3 44 130
9 47 134
9 50 134
11 38 126
9 30 123
14 23 119
11 28 121
7 35 125
7 37 126
11 42 129
4 46 132
6 45 129
5 46 131
8 51 136
9 50 133
10 52 135
8 56 140
6 49 134
164 179 212
217 233 255
217 233 255
217 233 255
217 233 255
217 233 255
217 233 255
217 233 255
217 233 255
217 233 255
217 233 255
217 233 255
217 233 255
217 233 255
217 233 255
217 233 255
217 233 255
217 233 255
217 233 255
217 233 255
217 233 255
217 233 255
217 233 255
217 233 255
217 233 255
217 233 255
217 233 255
217 233 255
217 233 255
217 233 255
217 233 255
217 233 255
217 233 255
217 233 255
217 233 255
217 233 255
217 233 255
217 233 255
217 233 255
217 233 255
217 233 255
217 233 255
217 233 255
217 233 255
217 233 255
217 233 255
217 233 255
217 233 255
217 233 255
217 233 255
217 233 255
217 233 255
217 233 255
217 233 255
217 233 255
217 233 255
217 233 255
217 233 255
217 233 255
217 233 255
217 233 255
217 233 255
217 233 255
217 233 255
217 233 255
217 233 255
217 233 255
217 233 255
217 233 255
217 233 255
217 233 255
217 233 255
217 233 255
217 233 255
217 233 255
217 233 255
217 233 255
217 233 255
217 233 255
217 233 255
217 233 255
217 233 255
217 233 255
217 233 255
217 233 255
217 233 255
217 233 255
217 233 255
217 233 255
217 233 255
217 233 255
217 233 255
217 233 255
217 233 255
217 233 255
217 233 255
217 233 255
217 233 255
217 233 255
217 233 255
217 233 255
217 233 255
217 233 255
217 233 255
217 233 255
217 233 255
217 233 255
217 233 255
217 233 255
217 233 255
217 233 255
217 233 255
217 233 255
217 233 255
217 233 255
217 233 255
217 233 255
217 233 255
217 233 255
217 233 255
217 233 255
217 233 255
217 233 255
217 233 255
217 233 255
217 233 255
217 233 255
217 233 255
217 233 255
217 233 255
217 233 255
217 233 255
217 233 255
217 233 255
217 233 255
217 233 255
217 233 255
217 233 255
217 233 255
217 233 255
217 233 255
217 233 255
217 233 255
217 233 255
217 233 255
217 233 255
217 233 255
217 233 255
217 233 255
217 233 255
217 233 255
217 233 255
217 233 255
217 233 255
217 233 255
217 233 255
217 233 255
217 233 255
217 233 255
217 233 255
217 233 255
217 233 255
217 233 255
217 233 255
217 233 255
217 233 255
217 233 255
217 233 255
217 233 255
217 233 255
217 233 255
217 233 255
217 233 255
217 233 255
217 233 255
217 233 255
217 233 255
217 233 255
217 233 255
217 233 255
217 233 255
217 233 255
217 233 255
217 233 255
217 233 255
217 233 255
217 233 255
217 233 255
217 233 255
217 233 255
217 233 255
217 233 255
217 233 255
217 233 255
217 233 255
217 233 255
217 233 255
217 233 255
217 233 255
217 233 255
217 233 255
217 233 255
217 233 255
217 233 255
217 233 255
217 233 255
217 233 255
217 233 255
217 233 255
217 233 255
217 233 255
217 233 255
217 233 255
217 233 255
217 233 255
217 233 255
217 233 255
217 233 255
217 233 255
217 233 255
217 233 255
217 233 255
217 233 255
217 233 255
217 233 255
217 233 255
217 233 255
217 233 255
217 233 255
217 233 255
217 233 255
217 233 255
217 233 255
217 233 255
217 233 255
217 233 255
217 233 255
217 233 255
217 233 255
217 233 255
217 233 255
217 233 255
217 233 255
217 233 255
217 233 255
217 233 255
217 233 255
217 233 255
217 233 255
217 233 255
150 163 198
3 30 123
2 33 124
11 32 124
6 28 121
5 27 122
9 28 122
6 39 127
6 44 130
7 38 126
10 40 128
6 40 129
8 35 126
8 30 124
4 29 120
10 31 121
10 32 122
6 23 119
4 11 117
4 20 118
7 30 122
1 31 123
7 37 126
13 48 128
28 60 138
78 105 77
102 112 72
133 139 113
99 111 70
115 125 103
152 156 151
164 171 164
165 171 164
159 164 156
155 159 149
155 161 150
150 157 146
152 157 145
168 174 165
177 186 182
166 169 160
139 148 130
136 145 128
153 158 145
151 161 148
152 157 147
134 144 124
111 127 92
108 124 87
110 121 88
115 125 101
108 120 92
134 149 133
139 151 132
138 150 133
139 151 137
141 152 136
137 150 131
134 148 124
137 150 122
133 148 119
128 145 115
127 144 113
124 144 112
118 138 106
113 136 97
105 131 89
105 130 86
106 134 87
101 130 78
102 131 85
100 130 75
101 131 74
99 129 69
99 128 69
100 128 70
98 126 73
101 129 75
97 128 74
98 129 73
97 128 71
95 126 59
92 124 45
92 125 45
97 129 58
99 128 58
97 127 60
91 122 54
87 120 43
89 122 34
88 120 32
87 121 43
88 121 49
87 120 46
86 119 49
95 123 54
97 127 67
95 126 85
86 141 114
90 132 102
80 127 99
36 95 141
24 61 142
11 54 136
13 53 141
9 49 135
6 40 128
9 34 124
6 34 123
6 33 122
20 22 120
7 12 114
1 29 120
8 41 128
2 45 130
8 46 131
7 42 129
6 37 126
6 34 124
7 34 124
14 33 124
8 23 120
5 11 118
9 27 120
15 30 121
11 33 124
12 42 127
6 32 123
12 31 123
12 33 123
2 36 125
8 43 128
7 41 127
4 39 127
11 46 132
7 43 129
4 35 125
8 31 123
12 29 121
4 29 123
9 37 126
9 35 125
11 39 128
9 44 130
8 43 129
6 45 130
8 48 134
4 43 131
4 49 134
8 51 135
9 46 131
150 165 202
217 233 255
217 233 255
217 233 255
217 233 255
217 233 255
217 233 255
217 233 255
217 233 255
217 233 255
217 233 255
217 233 255
217 233 255
217 233 255
217 233 255
217 233 255
217 233 255
217 233 255
217 233 255
217 233 255
217 233 255
217 233 255
217 233 255
217 233 255
217 233 255
217 233 255
217 233 255
217 233 255
217 233 255
217 233 255
217 233 255
217 233 255
217 233 255
217 233 255
217 233 255
217 233 255
217 233 255
217 233 255
217 233 255
217 233 255
217 233 255
217 233 255
217 233 255
217 233 255
217 233 255
217 233 255
217 233 255
217 233 255
217 233 255
217 233 255
217 233 255
217 233 255
217 233 255
217 233 255
217 233 255
217 233 255
217 233 255
217 233 255
217 233 255
217 233 255
217 233 255
217 233 255
217 233 255
217 233 255
217 233 255
217 233 255
217 233 255
217 233 255
217 233 255
217 233 255
217 233 255
217 233 255
217 233 255
217 233 255
217 233 255
217 233 255
217 233 255
217 233 255
217 233 255
217 233 255
217 233 255
217 233 255
217 233 255
217 233 255
217 233 255
217 233 255
217 233 255
217 233 255
217 233 255
217 233 255
217 233 255
217 233 255
217 233 255
217 233 255
217 233 255
217 233 255
217 233 255
217 233 255
217 233 255
217 233 255
217 233 255
217 233 255
217 233 255
217 233 255
217 233 255
217 233 255
217 233 255
217 233 255
217 233 255
217 233 255
217 233 255
217 233 255
217 233 255
217 233 255
217 233 255
217 233 255
217 233 255
217 233 255
217 233 255
217 233 255
217 233 255
217 233 255
217 233 255
217 233 255
217 233 255
217 233 255
217 233 255
217 233 255
217 233 255
217 233 255
217 233 255
217 233 255
217 233 255
217 233 255
217 233 255
217 233 255
217 233 255
217 233 255
217 233 255
217 233 255
217 233 255
217 233 255
217 233 255
217 233 255
217 233 255
217 233 255
217 233 255
217 233 255
217 233 255
217 233 255
217 233 255
217 233 255
217 233 255
217 233 255
217 233 255
217 233 255
217 233 255
217 233 255
217 233 255
217 233 255
217 233 255
217 233 255
217 233 255
217 233 255
217 233 255
217 233 255
217 233 255
217 233 255
217 233 255
217 233 255
217 233 255
217 233 255
217 233 255
217 233 255
217 233 255
217 233 255
217 233 255
217 233 255
217 233 255
217 233 255
217 233 255
217 233 255
217 233 255
217 233 255
217 233 255
217 233 255
217 233 255
217 233 255
217 233 255
217 233 255
217 233 255
217 233 255
217 233 255
217 233 255
217 233 255
217 233 255
217 233 255
217 233 255
217 233 255
217 233 255
217 233 255
217 233 255
217 233 255
217 233 255
217 233 255
217 233 255
217 233 255
217 233 255
217 233 255
217 233 255
217 233 255
217 233 255
217 233 255
217 233 255
217 233 255
217 233 255
217 233 255
217 233 255
217 233 255
217 233 255
217 233 255
217 233 255
217 233 255
217 233 255
217 233 255
217 233 255
217 233 255
217 233 255
217 233 255
217 233 255
217 233 255
217 233 255
217 233 255
217 233 255
217 233 255
217 233 255
217 233 255
217 233 255
217 233 255
217 233 255
217 233 255
217 233 255
217 233 255
217 233 255
217 233 255
217 233 255
217 233 255
217 233 255
158 171 204
8 28 122
5 32 123
9 33 122
9 30 122
14 31 123
10 32 123
10 44 130
7 44 131
5 39 127
5 34 125
11 41 128
0 37 126
8 31 123
5 20 119
5 21 119
10 23 119
9 24 118
0 19 116
3 21 117
15 30 121
4 30 123
6 36 125
9 42 128
6 57 138
26 64 138
88 110 76
126 134 104
131 140 110
94 112 66
122 129 109
157 160 154
175 179 171
160 164 155
156 161 152
155 158 146
158 162 152
150 155 145
159 161 148
174 181 178
178 184 178
145 152 136
148 153 140
173 177 170
180 180 173
169 169 164
141 146 132
141 148 130
115 128 94
110 126 97
117 126 99
126 135 116
127 138 122
146 158 144
145 157 139
147 158 140
143 157 138
138 152 134
136 149 127
138 151 130
141 153 131
136 149 126
130 145 120
129 144 116
126 143 113
120 141 107
112 136 97
111 135 94
108 132 90
105 132 86
103 131 82
99 128 74
99 126 68
100 126 66
100 126 63
98 123 57
102 127 72
102 130 79
101 130 78
104 132 81
99 129 77
98 129 68
94 126 55
93 125 59
96 128 64
94 126 46
98 131 57
95 128 55
86 119 36
91 123 50
90 121 42
89 122 41
87 121 42
85 118 36
86 119 42
91 123 59
90 123 43
92 124 52
85 122 71
82 156 138
91 126 59
55 117 143
13 70 147
20 54 134
11 54 140
11 57 139
10 48 132
0 31 123
7 22 119
12 22 119
11 28 120
4 22 118
0 5 114
0 5 113
6 21 116
9 31 123
12 38 126
6 31 123
6 31 123
6 27 120
2 22 119
0 25 120
0 17 118
7 18 118
15 20 117
8 19 117
7 29 122
8 35 124
4 31 122
15 25 119
4 22 119
7 30 122
6 44 130
10 47 130
0 33 123
14 35 125
7 41 128
11 40 127
7 37 126
12 38 125
5 31 123
8 37 125
9 34 125
3 28 123
8 37 126
6 41 129
7 39 127
6 36 125
9 37 126
5 38 126
6 46 132
7 44 130
10 45 131
159 174 208
217 233 255
217 233 255
217 233 255
217 233 255
217 233 255
217 233 255
217 233 255
217 233 255
217 233 255
217 233 255
217 233 255
217 233 255
217 233 255
217 233 255
217 233 255
217 233 255
217 233 255
217 233 255
217 233 255
217 233 255
217 233 255
217 233 255
217 233 255
217 233 255
217 233 255
217 233 255
217 233 255
217 233 255
217 233 255
217 233 255
217 233 255
217 233 255
217 233 255
217 233 255
217 233 255
217 233 255
217 233 255
217 233 255
217 233 255
217 233 255
217 233 255
217 233 255
217 233 255
217 233 255
217 233 255
217 233 255
217 233 255
217 233 255
217 233 255
217 233 255
217 233 255
217 233 255
217 233 255
217 233 255
217 233 255
217 233 255
217 233 255
217 233 255
217 233 255
217 233 255
217 233 255
217 233 255
217 233 255
217 233 255
217 233 255
217 233 255
217 233 255
217 233 255
217 233 255
217 233 255
217 233 255
217 233 255
217 233 255
217 233 255
217 233 255
217 233 255
217 233 255
217 233 255
217 233 255
217 233 255
217 233 255
217 233 255
217 233 255
217 233 255
217 233 255
217 233 255
217 233 255
217 233 255
217 233 255
217 233 255
217 233 255
217 233 255
217 233 255
217 233 255
217 233 255
217 233 255
217 233 255
217 233 255
217 233 255
217 233 255
217 233 255
217 233 255
217 233 255
217 233 255
217 233 255
217 233 255
217 233 255
217 233 255
217 233 255
217 233 255
217 233 255
217 233 255
217 233 255
217 233 255
217 233 255
217 233 255
217 233 255
217 233 255
217 233 255
217 233 255
217 233 255
217 233 255
217 233 255
217 233 255
217 233 255
217 233 255
217 233 255
217 233 255
217 233 255
217 233 255
217 233 255
217 233 255
217 233 255
217 233 255
217 233 255
217 233 255
217 233 255
217 233 255
217 233 255
217 233 255
217 233 255
217 233 255
217 233 255
217 233 255
217 233 255
217 233 255
217 233 255
217 233 255
217 233 255
217 233 255
217 233 255
217 233 255
217 233 255
217 233 255
217 233 255
217 233 255
217 233 255
217 233 255
217 233 255
217 233 255
217 233 255
217 233 255
217 233 255
217 233 255
217 233 255
217 233 255
217 233 255
217 233 255
217 233 255
217 233 255
217 233 255
217 233 255
217 233 255
217 233 255
217 233 255
217 233 255
217 233 255
217 233 255
217 233 255
217 233 255
217 233 255
217 233 255
217 233 255
217 233 255
217 233 255
217 233 255
217 233 255
217 233 255
217 233 255
217 233 255
217 233 255
217 233 255
217 233 255
217 233 255
217 233 255
217 233 255
217 233 255
217 233 255
217 233 255
217 233 255
217 233 255
217 233 255
217 233 255
217 233 255
217 233 255
217 233 255
217 233 255
217 233 255
217 233 255
217 233 255
217 233 255
217 233 255
217 233 255
217 233 255
217 233 255
217 233 255
217 233 255
217 233 255
217 233 255
217 233 255
217 233 255
217 233 255
217 233 255
217 233 255
217 233 255
217 233 255
217 233 255
217 233 255
217 233 255
217 233 255
217 233 255
217 233 255
217 233 255
217 233 255
217 233 255
217 233 255
217 233 255
217 233 255
217 233 255
217 233 255
217 233 255
217 233 255
217 233 255
217 233 255
217 233 255
159 172 205
10 28 121
9 31 124
6 32 124
6 33 122
8 30 122
11 33 123
7 38 128
6 35 125
4 31 123
10 29 122
12 37 126
9 42 128
5 31 123
6 20 119
0 16 118
1 17 117
5 20 117
3 19 117
7 24 118
11 30 121
14 33 124
8 34 125
7 34 123
6 41 130
2 49 134
42 75 120
106 122 88
131 141 112
131 143 110
97 113 70
121 129 115
155 163 153
167 172 167
158 163 153
157 163 152
161 166 158
160 166 158
152 157 143
153 157 144
164 167 158
136 140 128
129 136 120
159 160 149
187 182 176
174 168 162
151 151 147
131 140 126
112 127 97
111 124 93
116 126 100
133 143 125
120 130 108
141 151 137
155 163 148
147 157 135
146 157 132
141 153 126
137 150 122
130 145 119
135 149 125
140 153 130
133 147 122
133 146 121
135 145 118
128 143 113
118 140 101
113 139 96
114 138 97
109 134 94
107 133 85
101 129 76
97 126 64
100 127 68
98 126 64
93 121 50
89 119 42
93 123 52
97 128 66
97 127 63
100 129 68
101 130 68
99 129 65
95 126 52
97 128 66
97 129 70
98 131 60
101 135 65
93 127 41
89 123 37
88 121 41
87 120 40
87 121 41
87 121 43
86 119 42
88 120 48
90 121 53
91 122 33
92 121 55
85 131 75
73 150 139
76 156 153
64 110 135
19 64 142
19 50 139
12 50 135
7 44 130
2 37 127
6 28 121
8 23 117
13 19 116
12 18 115
6 13 114
0 5 114
4 9 115
9 18 118
14 26 121
8 28 123
3 26 121
6 24 119
2 20 117
0 19 116
0 20 116
0 17 116
0 19 116
10 22 117
7 18 119
6 25 119
6 24 118
12 24 117
9 22 118
4 22 119
6 23 119
13 31 123
16 45 130
11 42 127
11 31 122
8 31 124
8 37 125
13 40 127
13 41 128
8 34 125
7 32 124
13 35 125
10 29 121
7 26 120
6 30 122
11 38 125
2 32 122
11 29 121
6 31 123
9 37 126
9 44 129
9 40 128
8 43 131
146 160 197
217 233 255
217 233 255
217 233 255
217 233 255
217 233 255
217 233 255
217 233 255
217 233 255
217 233 255
217 233 255
217 233 255
217 233 255
217 233 255
217 233 255
217 233 255
217 233 255
217 233 255
217 233 255
217 233 255
217 233 255
217 233 255
217 233 255
217 233 255
217 233 255
217 233 255
217 233 255
217 233 255
217 233 255
217 233 255
217 233 255
217 233 255
217 233 255
217 233 255
217 233 255
217 233 255
217 233 255
217 233 255
217 233 255
217 233 255
217 233 255
217 233 255
217 233 255
217 233 255
217 233 255
217 233 255
217 233 255
217 233 255
217 233 255
217 233 255
217 233 255
217 233 255
217 233 255
217 233 255
217 233 255
217 233 255
217 233 255
217 233 255
217 233 255
217 233 255
217 233 255
217 233 255
217 233 255
217 233 255
217 233 255
217 233 255
217 233 255
217 233 255
217 233 255
217 233 255
217 233 255
217 233 255
217 233 255
217 233 255
217 233 255
217 233 255
217 233 255
217 233 255
217 233 255
217 233 255
217 233 255
217 233 255
217 233 255
217 233 255
217 233 255
217 233 255
217 233 255
217 233 255
217 233 255
217 233 255
217 233 255
217 233 255
217 233 255
217 233 255
217 233 255
217 233 255
217 233 255
217 233 255
217 233 255
217 233 255
217 233 255
217 233 255
217 233 255
217 233 255
217 233 255
217 233 255
217 233 255
217 233 255
217 233 255
217 233 255
217 233 255
217 233 255
217 233 255
217 233 255
217 233 255
217 233 255
217 233 255
217 233 255
217 233 255
217 233 255
217 233 255
217 233 255
217 233 255
217 233 255
217 233 255
217 233 255
217 233 255
217 233 255
217 233 255
217 233 255
217 233 255
217 233 255
217 233 255
217 233 255
217 233 255
217 233 255
217 233 255
217 233 255
217 233 255
217 233 255
217 233 255
217 233 255
217 233 255
217 233 255
217 233 255
217 233 255
217 233 255
217 233 255
217 233 255
217 233 255
217 233 255
217 233 255
217 233 255
217 233 255
217 233 255
217 233 255
217 233 255
217 233 255
217 233 255
217 233 255
217 233 255
217 233 255
217 233 255
217 233 255
217 233 255
217 233 255
217 233 255
217 233 255
217 233 255
217 233 255
217 233 255
217 233 255
217 233 255
217 233 255
217 233 255
217 233 255
217 233 255
217 233 255
217 233 255
217 233 255
217 233 255
217 233 255
217 233 255
217 233 255
217 233 255
217 233 255
217 233 255
217 233 255
217 233 255
217 233 255
217 233 255
217 233 255
217 233 255
217 233 255
217 233 255
217 233 255
217 233 255
217 233 255
217 233 255
217 233 255
217 233 255
217 233 255
217 233 255
217 233 255
217 233 255
217 233 255
217 233 255
217 233 255
217 233 255
217 233 255
217 233 255
217 233 255
217 233 255
217 233 255
217 233 255
217 233 255
217 233 255
217 233 255
217 233 255
217 233 255
217 233 255
217 233 255
217 233 255
217 233 255
217 233 255
217 233 255
217 233 255
217 233 255
217 233 255
217 233 255
217 233 255
217 233 255
217 233 255
217 233 255
217 233 255
217 233 255
217 233 255
217 233 255
217 233 255
217 233 255
217 233 255
217 233 255
217 233 255
217 233 255
162 175 207
8 29 121
8 25 119
11 27 121
14 30 123
9 29 121
8 34 123
11 35 124
7 20 118
6 21 118
10 23 119
7 28 122
5 33 124
5 32 123
3 18 117
3 14 118
7 17 119
9 19 117
0 18 117
9 18 119
11 26 121
0 29 123
0 31 124
12 32 124
12 30 124
11 39 129
15 48 137
50 78 140
120 133 108
138 144 119
142 145 121
104 116 79
136 142 128
149 157 148
164 169 163
171 177 171
169 173 164
163 168 160
161 163 155
151 156 148
151 152 139
146 151 141
134 141 131
150 157 144
183 175 171
179 171 174
162 162 155
159 157 149
118 130 103
105 122 85
107 120 89
110 121 87
135 146 134
120 128 109
135 145 129
149 159 146
142 152 130
146 157 133
142 153 127
135 146 116
134 146 121
140 152 123
139 153 123
135 148 116
134 147 113
136 147 113
133 146 111
116 143 100
114 141 96
116 139 97
113 137 94
108 134 88
106 134 90
99 127 76
102 129 76
102 128 70
94 122 53
87 119 35
89 122 47
103 134 79
101 131 74
99 129 68
94 124 50
101 130 66
98 128 60
99 129 61
98 130 58
94 128 49
96 130 47
92 126 33
93 127 40
91 125 36
92 126 39
88 123 38
90 124 44
90 122 38
89 122 46
91 123 52
90 121 42
88 119 50
91 122 45
83 134 103
60 152 176
16 85 151
26 50 132
3 51 130
15 42 127
9 30 122
4 22 119
0 20 117
6 17 115
8 11 113
10 5 113
13 0 113
8 4 114
9 15 116
12 19 119
15 23 120
12 21 119
6 18 118
5 11 114
0 10 114
0 16 115
0 20 116
0 19 116
0 18 116
2 20 116
9 26 120
3 29 123
2 33 123
8 26 120
7 25 120
8 25 120
0 23 120
9 24 120
4 29 123
6 35 125
6 32 124
0 30 123
0 28 123
13 30 121
10 30 122
9 35 125
1 33 124
6 30 123
8 25 120
4 21 118
7 20 116
15 20 117
6 27 121
5 30 121
4 24 119
7 26 120
8 32 123
7 35 125
5 37 127
7 40 128
165 180 213
217 233 255
217 233 255
217 233 255
217 233 255
217 233 255
217 233 255
217 233 255
217 233 255
217 233 255
217 233 255
217 233 255
217 233 255
217 233 255
217 233 255
217 233 255
217 233 255
217 233 255
217 233 255
217 233 255
217 233 255
217 233 255
217 233 255
217 233 255
217 233 255
217 233 255
217 233 255
217 233 255
217 233 255
217 233 255
217 233 255
217 233 255
217 233 255
217 233 255
217 233 255
217 233 255
217 233 255
217 233 255
217 233 255
217 233 255
217 233 255
217 233 255
217 233 255
217 233 255
217 233 255
217 233 255
217 233 255
217 233 255
217 233 255
217 233 255
217 233 255
217 233 255
217 233 255
217 233 255
217 233 255
217 233 255
217 233 255
217 233 255
217 233 255
217 233 255
217 233 255
217 233 255
217 233 255
217 233 255
217 233 255
217 233 255
217 233 255
217 233 255
217 233 255
217 233 255
217 233 255
217 233 255
217 233 255
217 233 255
217 233 255
217 233 255
217 233 255
217 233 255
217 233 255
217 233 255
217 233 255
217 233 255
217 233 255
217 233 255
217 233 255
217 233 255
217 233 255
217 233 255
217 233 255
217 233 255
217 233 255
217 233 255
217 233 255
217 233 255
217 233 255
217 233 255
217 233 255
217 233 255
217 233 255
217 233 255
217 233 255
217 233 255
217 233 255
217 233 255
217 233 255
217 233 255
217 233 255
217 233 255
217 233 255
217 233 255
217 233 255
217 233 255
217 233 255
217 233 255
217 233 255
217 233 255
217 233 255
217 233 255
217 233 255
217 233 255
217 233 255
217 233 255
217 233 255
217 233 255
217 233 255
217 233 255
217 233 255
217 233 255
217 233 255
217 233 255
217 233 255
217 233 255
217 233 255
217 233 255
217 233 255
217 233 255
217 233 255
217 233 255
217 233 255
217 233 255
217 233 255
217 233 255
217 233 255
217 233 255
217 233 255
217 233 255
217 233 255
217 233 255
217 233 255
217 233 255
217 233 255
217 233 255
217 233 255
217 233 255
217 233 255
217 233 255
217 233 255
217 233 255
217 233 255
217 233 255
217 233 255
217 233 255
217 233 255
217 233 255
217 233 255
217 233 255
217 233 255
217 233 255
217 233 255
217 233 255
217 233 255
217 233 255
217 233 255
217 233 255
217 233 255
217 233 255
217 233 255
217 233 255
217 233 255
217 233 255
217 233 255
217 233 255
217 233 255
217 233 255
217 233 255
217 233 255
217 233 255
217 233 255
217 233 255
217 233 255
217 233 255
217 233 255
217 233 255
217 233 255
217 233 255
217 233 255
217 233 255
217 233 255
217 233 255
217 233 255
217 233 255
217 233 255
217 233 255
217 233 255
217 233 255
217 233 255
217 233 255
217 233 255
217 233 255
217 233 255
217 233 255
217 233 255
217 233 255
217 233 255
217 233 255
217 233 255
217 233 255
217 233 255
217 233 255
217 233 255
217 233 255
217 233 255
217 233 255
217 233 255
217 233 255
217 233 255
217 233 255
217 233 255
217 233 255
217 233 255
217 233 255
217 233 255
217 233 255
217 233 255
217 233 255
217 233 255
217 233 255
217 233 255
217 233 255
217 233 255
217 233 255
217 233 255
169 183 214
9 23 120
8 25 119
7 25 120
9 26 121
6 20 119
9 23 119
3 27 119
10 10 114
6 20 117
5 20 119
10 27 122
4 30 123
5 28 122
1 21 117
3 16 118
0 14 118
1 15 118
0 17 117
5 16 118
10 19 119
3 24 119
9 29 120
0 30 122
8 34 123
12 43 128
8 48 132
15 69 144
43 108 164
109 133 119
140 146 124
142 149 124
124 128 100
127 135 117
157 163 157
163 167 158
166 168 159
162 164 154
166 169 163
161 162 155
161 161 153
161 160 153
155 154 144
162 159 149
185 178 174
172 165 160
192 180 176
189 179 175
191 192 189
159 164 153
140 149 133
122 132 114
119 129 102
132 140 123
114 122 100
133 143 128
143 151 137
144 154 137
142 154 133
141 153 131
137 149 127
144 154 134
141 152 127
140 151 119
137 150 113
136 148 105
135 147 105
129 145 103
117 143 98
112 137 86
114 137 89
106 131 80
102 129 72
98 125 67
97 125 67
98 124 65
102 128 75
98 125 69
98 126 68
107 136 89
109 137 94
99 128 77
102 131 75
88 119 44
97 128 62
99 129 63
98 129 57
95 127 50
91 125 38
88 121 28
93 125 41
94 128 44
97 132 54
93 129 48
88 123 37
93 126 50
94 125 37
93 123 38
89 121 48
89 123 53
87 123 44
94 125 24
88 127 74
82 128 111
28 72 143
24 36 133
7 48 128
30 23 123
10 18 117
0 9 115
6 9 114
7 8 113
0 4 112
0 4 113
15 8 116
11 15 116
2 19 117
5 21 118
5 18 116
4 14 115
0 12 114
0 9 114
0 17 115
1 18 116
0 20 117
0 20 117
0 18 116
0 19 116
10 24 118
11 34 124
9 38 125
5 27 122
11 26 120
9 26 120
1 28 122
5 30 123
7 32 124
0 34 125
5 31 124
15 31 122
13 30 122
10 28 121
15 29 121
11 30 122
0 30 123
5 29 123
7 25 119
8 21 117
0 17 116
8 20 115
2 19 116
3 26 119
4 30 120
6 17 117
12 25 118
9 30 122
6 36 124
8 36 124
9 39 127
169 184 215
217 233 255
217 233 255
217 233 255
217 233 255
217 233 255
217 233 255
217 233 255
217 233 255
217 233 255
217 233 255
217 233 255
217 233 255
217 233 255
217 233 255
217 233 255
217 233 255
217 233 255
217 233 255
217 233 255
217 233 255
217 233 255
217 233 255
217 233 255
217 233 255
217 233 255
217 233 255
217 233 255
217 233 255
217 233 255
217 233 255
217 233 255
217 233 255
217 233 255
217 233 255
217 233 255
217 233 255
217 233 255
217 233 255
217 233 255
217 233 255
217 233 255
217 233 255
217 233 255
217 233 255
217 233 255
217 233 255
217 233 255
217 233 255
217 233 255
217 233 255
217 233 255
217 233 255
217 233 255
217 233 255
217 233 255
217 233 255
217 233 255
217 233 255
217 233 255
217 233 255
217 233 255
217 233 255
217 233 255
217 233 255
217 233 255
217 233 255
217 233 255
217 233 255
217 233 255
217 233 255
217 233 255
217 233 255
217 233 255
217 233 255
217 233 255
217 233 255
217 233 255
217 233 255
217 233 255
217 233 255
217 233 255
217 233 255
217 233 255
217 233 255
217 233 255
217 233 255
217 233 255
217 233 255
217 233 255
217 233 255
217 233 255
217 233 255
217 233 255
217 233 255
217 233 255
217 233 255
217 233 255
217 233 255
217 233 255
217 233 255
217 233 255
217 233 255
217 233 255
217 233 255
217 233 255
217 233 255
217 233 255
217 233 255
217 233 255
217 233 255
217 233 255
217 233 255
217 233 255
217 233 255
217 233 255
217 233 255
217 233 255
217 233 255
217 233 255
217 233 255
217 233 255
217 233 255
217 233 255
217 233 255
217 233 255
217 233 255
217 233 255
217 233 255
217 233 255
217 233 255
217 233 255
217 233 255
217 233 255
217 233 255
217 233 255
217 233 255
217 233 255
217 233 255
217 233 255
217 233 255
217 233 255
217 233 255
217 233 255
217 233 255
217 233 255
217 233 255
217 233 255
217 233 255
217 233 255
217 233 255
217 233 255
217 233 255
217 233 255
217 233 255
217 233 255
217 233 255
217 233 255
217 233 255
217 233 255
217 233 255
217 233 255
217 233 255
217 233 255
217 233 255
217 233 255
217 233 255
217 233 255
217 233 255
217 233 255
217 233 255
217 233 255
217 233 255
217 233 255
217 233 255
217 233 255
217 233 255
217 233 255
217 233 255
217 233 255
217 233 255
217 233 255
217 233 255
217 233 255
217 233 255
217 233 255
217 233 255
217 233 255
217 233 255
217 233 255
217 233 255
217 233 255
217 233 255
217 233 255
217 233 255
217 233 255
217 233 255
217 233 255
217 233 255
217 233 255
217 233 255
217 233 255
217 233 255
217 233 255
217 233 255
217 233 255
217 233 255
217 233 255
217 233 255
217 233 255
217 233 255
217 233 255
217 233 255
217 233 255
217 233 255
217 233 255
217 233 255
217 233 255
217 233 255
217 233 255
217 233 255
217 233 255
217 233 255
217 233 255
217 233 255
217 233 255
217 233 255
217 233 255
217 233 255
217 233 255
217 233 255
217 233 255
217 233 255
217 233 255
217 233 255
217 233 255
217 233 255
217 233 255
217 233 255
217 233 255
184 198 226
22 33 122
6 21 118
13 27 121
3 20 117
2 19 117
0 19 116
0 17 114
0 13 113
0 14 115
2 20 118
17 31 123
10 32 123
8 27 121
1 21 118
7 20 117
8 17 119
0 14 118
0 14 118
0 14 118
0 18 117
2 17 118
11 26 120
7 30 122
2 31 122
10 35 124
4 42 129
20 53 136
19 71 148
21 79 148
110 126 123
145 149 130
139 152 125
140 148 133
125 136 112
159 167 157
167 172 167
173 176 171
166 168 162
167 169 162
172 174 168
164 163 152
159 157 151
158 156 148
159 158 144
191 182 179
173 173 165
170 169 159
161 154 147
176 180 170
178 183 173
162 166 159
125 131 110
136 143 129
113 120 93
127 138 120
143 151 143
151 158 149
147 155 139
137 149 125
141 152 125
140 151 126
140 151 126
138 150 121
135 147 112
134 146 105
135 147 107
133 147 108
121 139 97
113 134 88
111 135 88
113 137 92
101 126 67
101 127 68
93 120 46
92 120 50
95 122 59
94 120 58
105 131 82
112 138 95
112 139 95
110 136 89
111 137 86
101 130 67
87 119 36
91 124 51
96 128 61
98 130 62
94 126 54
93 125 47
93 125 49
93 127 50
90 125 40
92 126 37
86 120 19
93 123 44
96 125 53
100 129 60
98 127 59
94 122 47
97 123 47
92 129 51
97 131 60
94 128 64
86 140 113
52 118 154
26 45 134
19 41 124
23 14 118
12 13 112
0 0 113
0 0 113
0 0 113
0 0 113
11 12 116
8 19 116
10 22 117
11 25 118
9 20 116
0 9 114
0 0 113
0 0 113
9 15 115
4 22 118
8 25 119
9 25 120
0 20 118
0 21 117
0 19 117
3 21 117
7 25 120
4 30 123
3 30 121
8 18 119
11 27 120
2 29 123
5 31 124
4 34 125
12 41 127
7 35 125
14 29 121
12 28 120
12 28 121
13 28 121
19 32 122
15 31 122
12 28 121
4 23 119
3 17 118
4 15 116
1 14 115
2 18 115
0 20 116
3 24 118
4 21 118
4 19 117
10 25 118
9 27 121
11 32 123
8 26 120
49 61 133
182 196 225
217 233 255
217 233 255
217 233 255
217 233 255
217 233 255
217 233 255
217 233 255
217 233 255
217 233 255
217 233 255
217 233 255
217 233 255
217 233 255
217 233 255
217 233 255
217 233 255
217 233 255
217 233 255
217 233 255
217 233 255
217 233 255
217 233 255
217 233 255
217 233 255
217 233 255
217 233 255
217 233 255
217 233 255
217 233 255
217 233 255
217 233 255
217 233 255
217 233 255
217 233 255
217 233 255
217 233 255
217 233 255
217 233 255
217 233 255
217 233 255
217 233 255
217 233 255
217 233 255
217 233 255
217 233 255
217 233 255
217 233 255
217 233 255
217 233 255
217 233 255
217 233 255
217 233 255
217 233 255
217 233 255
217 233 255
217 233 255
217 233 255
217 233 255
217 233 255
217 233 255
217 233 255
217 233 255
217 233 255
217 233 255
217 233 255
217 233 255
217 233 255
217 233 255
217 233 255
217 233 255
217 233 255
217 233 255
217 233 255
217 233 255
217 233 255
217 233 255
217 233 255
217 233 255
217 233 255
217 233 255
217 233 255
217 233 255
217 233 255
217 233 255
217 233 255
217 233 255
217 233 255
217 233 255
217 233 255
217 233 255
217 233 255
217 233 255
217 233 255
217 233 255
217 233 255
217 233 255
217 233 255
217 233 255
217 233 255
217 233 255
217 233 255
217 233 255
217 233 255
217 233 255
217 233 255
217 233 255
217 233 255
217 233 255
217 233 255
217 233 255
217 233 255
217 233 255
217 233 255
217 233 255
217 233 255
217 233 255
217 233 255
217 233 255
217 233 255
217 233 255
217 233 255
217 233 255
217 233 255
217 233 255
217 233 255
217 233 255
217 233 255
217 233 255
217 233 255
217 233 255
217 233 255
217 233 255
217 233 255
217 233 255
217 233 255
217 233 255
217 233 255
217 233 255
217 233 255
217 233 255
217 233 255
217 233 255
217 233 255
217 233 255
217 233 255
217 233 255
217 233 255
217 233 255
217 233 255
217 233 255
217 233 255
217 233 255
217 233 255
217 233 255
217 233 255
217 233 255
217 233 255
217 233 255
217 233 255
217 233 255
217 233 255
217 233 255
217 233 255
217 233 255
217 233 255
217 233 255
217 233 255
217 233 255
217 233 255
217 233 255
217 233 255
217 233 255
217 233 255
217 233 255
217 233 255
217 233 255
217 233 255
217 233 255
217 233 255
217 233 255
217 233 255
217 233 255
217 233 255
217 233 255
217 233 255
217 233 255
217 233 255
217 233 255
217 233 255
217 233 255
217 233 255
217 233 255
217 233 255
217 233 255
217 233 255
217 233 255
217 233 255
217 233 255
217 233 255
217 233 255
217 233 255
217 233 255
217 233 255
217 233 255
217 233 255
217 233 255
217 233 255
217 233 255
217 233 255
217 233 255
217 233 255
217 233 255
217 233 255
217 233 255
217 233 255
217 233 255
217 233 255
217 233 255
217 233 255
217 233 255
217 233 255
217 233 255
217 233 255
217 233 255
217 233 255
217 233 255
217 233 255
217 233 255
217 233 255
217 233 255
217 233 255
217 233 255
217 233 255
217 233 255
217 233 255
217 233 255
217 233 255
193 208 234
53 63 133
9 27 120
10 26 121
6 17 116
0 7 113
0 5 113
0 0 113
0 0 113
0 0 113
0 14 115
8 22 118
13 24 120
11 23 119
0 20 117
0 19 116
7 16 119
2 14 118
0 14 118
0 14 118
3 17 117
3 17 117
12 20 120
17 31 123
9 31 123
13 25 120
16 29 122
9 35 126
23 50 135
11 59 141
35 65 134
119 129 114
147 149 135
145 156 134
143 154 130
128 135 118
176 180 170
171 173 165
174 178 173
168 174 168
168 169 161
168 167 157
156 155 145
150 151 143
155 157 154
154 154 144
187 181 178
178 177 172
167 163 160
147 151 141
161 164 152
164 168 158
164 170 158
150 157 147
147 152 142
125 129 111
139 146 138
147 151 148
157 161 153
154 162 145
143 154 129
143 155 126
135 147 117
138 149 122
136 148 119
137 147 113
136 146 109
133 145 107
132 147 111
117 137 92
114 137 91
110 133 82
109 131 81
109 133 84
108 133 81
100 126 65
97 124 62
98 125 69
106 132 81
110 135 87
109 135 86
108 134 85
109 133 82
103 128 70
93 122 54
91 122 52
97 128 64
100 132 65
98 129 58
93 125 49
95 126 51
92 125 50
86 123 26
86 123 33
88 122 35
90 121 40
101 128 67
101 127 66
102 128 69
93 121 46
97 125 56
100 130 73
103 132 76
101 133 66
85 124 63
77 150 135
61 158 176
19 69 136
27 21 116
23 15 113
7 15 111
0 0 113
0 0 113
0 0 113
0 0 113
3 4 114
2 11 115
1 15 115
6 17 116
2 15 115
0 0 113
0 0 113
0 0 113
1 6 113
5 21 119
5 20 119
16 28 121
7 20 119
0 23 119
0 24 119
0 24 119
0 24 119
0 23 119
0 25 120
3 23 119
10 24 120
14 31 122
12 30 122
13 32 123
4 36 125
6 39 126
8 28 121
5 25 119
8 26 120
12 28 121
11 28 121
15 30 121
15 27 120
13 22 119
1 14 118
8 14 117
9 10 116
6 8 115
6 13 115
6 20 117
8 18 117
1 10 115
2 16 116
5 18 118
21 32 116
24 38 122
3 18 118
38 50 129
192 207 233
217 233 255
217 233 255
217 233 255
217 233 255
217 233 255
217 233 255
217 233 255
217 233 255
217 233 255
217 233 255
217 233 255
217 233 255
217 233 255
217 233 255
217 233 255
217 233 255
217 233 255
217 233 255
217 233 255
217 233 255
217 233 255
217 233 255
217 233 255
217 233 255
217 233 255
217 233 255
217 233 255
217 233 255
217 233 255
217 233 255
217 233 255
217 233 255
217 233 255
217 233 255
217 233 255
217 233 255
217 233 255
217 233 255
217 233 255
217 233 255
217 233 255
217 233 255
217 233 255
217 233 255
217 233 255
217 233 255
217 233 255
217 233 255
217 233 255
217 233 255
217 233 255
217 233 255
217 233 255
217 233 255
217 233 255
217 233 255
217 233 255
217 233 255
217 233 255
217 233 255
217 233 255
217 233 255
217 233 255
217 233 255
217 233 255
217 233 255
217 233 255
217 233 255
217 233 255
217 233 255
217 233 255
217 233 255
217 233 255
217 233 255
217 233 255
217 233 255
217 233 255
217 233 255
217 233 255
217 233 255
217 233 255
217 233 255
217 233 255
217 233 255
217 233 255
217 233 255
217 233 255
217 233 255
217 233 255
217 233 255
217 233 255
217 233 255
217 233 255
217 233 255
217 233 255
217 233 255
217 233 255
217 233 255
217 233 255
217 233 255
217 233 255
217 233 255
217 233 255
217 233 255
217 233 255
217 233 255
217 233 255
217 233 255
217 233 255
217 233 255
217 233 255
217 233 255
217 233 255
217 233 255
217 233 255
217 233 255
217 233 255
217 233 255
217 233 255
217 233 255
217 233 255
217 233 255
217 233 255
217 233 255
217 233 255
217 233 255
217 233 255
217 233 255
217 233 255
217 233 255
217 233 255
217 233 255
217 233 255
217 233 255
217 233 255
217 233 255
217 233 255
217 233 255
217 233 255
217 233 255
217 233 255
217 233 255
217 233 255
217 233 255
217 233 255
217 233 255
217 233 255
217 233 255
217 233 255
217 233 255
217 233 255
217 233 255
217 233 255
217 233 255
217 233 255
217 233 255
217 233 255
217 233 255
217 233 255
217 233 255
217 233 255
217 233 255
217 233 255
217 233 255
217 233 255
217 233 255
217 233 255
217 233 255
217 233 255
217 233 255
217 233 255
217 233 255
217 233 255
217 233 255
217 233 255
217 233 255
217 233 255
217 233 255
217 233 255
217 233 255
217 233 255
217 233 255
217 233 255
217 233 255
217 233 255
217 233 255
217 233 255
217 233 255
217 233 255
217 233 255
217 233 255
217 233 255
217 233 255
217 233 255
217 233 255
217 233 255
217 233 255
217 233 255
217 233 255
217 233 255
217 233 255
217 233 255
217 233 255
217 233 255
217 233 255
217 233 255
217 233 255
217 233 255
217 233 255
217 233 255
217 233 255
217 233 255
217 233 255
217 233 255
217 233 255
217 233 255
217 233 255
217 233 255
217 233 255
217 233 255
217 233 255
217 233 255
217 233 255
217 233 255
217 233 255
217 233 255
217 233 255
217 233 255
217 233 255
217 233 255
217 233 255
217 233 255
217 233 255
217 233 255
217 233 255
206 221 245
66 77 141
11 29 122
11 27 121
5 14 116
2 2 113
0 0 113
0 0 113
0 0 113
0 0 113
0 0 113
4 9 113
9 11 115
11 17 117
0 20 117
0 21 117
5 19 117
0 17 117
0 18 117
0 19 117
0 19 116
9 17 116
8 15 118
15 25 120
15 30 122
12 27 121
14 26 118
7 22 118
7 31 123
15 51 132
10 50 132
28 53 136
92 111 126
151 153 132
156 160 146
152 157 141
170 172 161
184 187 179
184 186 179
182 186 181
175 177 169
171 171 162
164 166 158
154 156 147
151 152 143
130 134 120
127 130 115
175 169 164
183 176 177
177 172 173
158 158 150
141 146 134
154 155 145
170 169 164
150 151 140
156 161 156
149 153 147
156 157 152
153 156 150
149 155 146
144 152 133
140 150 124
136 149 122
137 144 117
142 148 125
141 149 121
137 146 118
138 146 116
137 147 113
128 143 105
118 139 94
114 137 87
107 131 78
102 125 68
98 122 56
98 123 55
94 121 51
93 120 49
95 121 58
105 131 80
106 133 77
107 134 81
105 133 77
101 128 72
97 124 61
96 125 61
94 124 54
99 130 66
100 132 63
98 130 58
97 127 53
96 126 60
93 123 41
91 123 44
91 123 46
91 123 50
101 129 67
96 122 52
96 122 57
99 125 65
99 126 63
103 131 70
99 130 68
93 125 58
93 124 52
74 104 84
56 105 137
22 60 120
23 12 114
23 24 112
20 20 113
16 15 113
0 7 112
0 0 113
0 0 113
0 0 112
0 9 113
4 17 114
6 10 114
0 9 114
0 9 114
0 1 113
0 0 113
0 0 112
0 0 113
7 18 116
4 19 117
11 23 118
9 21 117
0 19 117
0 20 117
0 20 117
0 20 117
0 19 118
5 22 119
6 23 119
5 23 119
1 29 123
0 31 124
0 32 124
1 33 124
8 34 125
6 28 121
8 26 120
12 28 121
15 29 121
17 31 122
15 30 121
6 23 119
13 21 118
7 17 117
0 15 118
8 13 115
0 0 113
3 3 113
0 9 115
9 21 117
6 10 114
8 4 113
4 10 114
8 14 114
20 32 114
7 23 117
7 22 116
49 59 131
199 214 239
217 233 255
217 233 255
217 233 255
217 233 255
217 233 255
217 233 255
217 233 255
217 233 255
217 233 255
217 233 255
217 233 255
217 233 255
217 233 255
217 233 255
217 233 255
217 233 255
217 233 255
217 233 255
217 233 255
217 233 255
217 233 255
217 233 255
217 233 255
217 233 255
217 233 255
217 233 255
217 233 255
217 233 255
217 233 255
217 233 255
217 233 255
217 233 255
217 233 255
217 233 255
217 233 255
217 233 255
217 233 255
217 233 255
217 233 255
217 233 255
217 233 255
217 233 255
217 233 255
217 233 255
217 233 255
217 233 255
217 233 255
217 233 255
217 233 255
217 233 255
217 233 255
217 233 255
217 233 255
217 233 255
217 233 255
217 233 255
217 233 255
217 233 255
217 233 255
217 233 255
217 233 255
217 233 255
217 233 255
217 233 255
217 233 255
217 233 255
217 233 255
217 233 255
217 233 255
217 233 255
217 233 255
217 233 255
217 233 255
217 233 255
217 233 255
217 233 255
217 233 255
217 233 255
217 233 255
217 233 255
217 233 255
217 233 255
217 233 255
217 233 255
217 233 255
217 233 255
217 233 255
217 233 255
217 233 255
217 233 255
217 233 255
217 233 255
217 233 255
217 233 255
217 233 255
217 233 255
217 233 255
217 233 255
217 233 255
217 233 255
217 233 255
217 233 255
217 233 255
217 233 255
217 233 255
217 233 255
217 233 255
217 233 255
217 233 255
217 233 255
217 233 255
217 233 255
217 233 255
217 233 255
217 233 255
217 233 255
217 233 255
217 233 255
217 233 255
217 233 255
217 233 255
217 233 255
217 233 255
217 233 255
217 233 255
217 233 255
217 233 255
217 233 255
217 233 255
217 233 255
217 233 255
217 233 255
217 233 255
217 233 255
217 233 255
217 233 255
217 233 255
217 233 255
217 233 255
217 233 255
217 233 255
217 233 255
217 233 255
217 233 255
217 233 255
217 233 255
217 233 255
217 233 255
217 233 255
217 233 255
217 233 255
217 233 255
217 233 255
217 233 255
217 233 255
217 233 255
217 233 255
217 233 255
217 233 255
217 233 255
217 233 255
217 233 255
217 233 255
217 233 255
217 233 255
217 233 255
217 233 255
217 233 255
217 233 255
217 233 255
217 233 255
217 233 255
217 233 255
217 233 255
217 233 255
217 233 255
217 233 255
217 233 255
217 233 255
217 233 255
217 233 255
217 233 255
217 233 255
217 233 255
217 233 255
217 233 255
217 233 255
217 233 255
217 233 255
217 233 255
217 233 255
217 233 255
217 233 255
217 233 255
217 233 255
217 233 255
217 233 255
217 233 255
217 233 255
217 233 255
217 233 255
217 233 255
217 233 255
217 233 255
217 233 255
217 233 255
217 233 255
217 233 255
217 233 255
217 233 255
217 233 255
217 233 255
217 233 255
217 233 255
217 233 255
217 233 255
217 233 255
217 233 255
217 233 255
217 233 255
217 233 255
217 233 255
217 233 255
217 233 255
217 233 255
217 233 255
217 233 255
217 233 255
217 233 255
217 233 255
217 233 255
217 233 255
217 233 255
214 230 252
100 111 160
4 25 121
7 23 119
2 10 115
0 0 113
0 0 113
0 0 113
0 0 113
0 0 113
0 0 113
1 1 113
4 10 115
2 19 116
0 20 118
0 22 119
0 23 119
0 20 116
0 20 116
0 20 116
0 20 116
6 19 116
10 15 116
5 20 117
11 22 120
8 25 119
11 24 117
8 18 115
2 16 117
6 30 123
23 38 130
15 35 124
8 58 140
91 115 146
135 140 117
143 149 131
150 154 139
185 189 181
188 189 182
187 188 182
188 190 182
188 192 187
172 174 166
173 172 162
155 156 145
143 143 129
138 147 133
121 130 110
134 134 121
147 149 141
159 158 149
152 158 149
146 151 140
151 155 147
167 165 161
155 157 149
154 156 149
160 161 157
162 164 157
159 161 155
155 158 150
151 155 142
149 153 137
149 153 142
146 151 139
148 152 138
147 153 134
150 155 134
148 153 133
143 150 126
133 146 112
119 139 95
112 136 92
112 135 89
104 129 76
99 124 58
96 123 56
97 124 58
90 119 47
89 114 37
95 122 59
99 130 69
102 134 73
104 136 79
95 125 57
98 128 58
99 130 59
96 126 46
99 129 51
98 129 56
99 130 55
98 128 57
94 124 52
96 125 56
99 125 61
99 125 63
96 124 57
89 118 37
93 121 44
96 122 53
97 124 60
103 131 76
100 129 61
101 130 57
85 116 71
66 90 106
23 35 113
25 21 115
19 17 112
23 26 117
19 17 113
15 17 115
13 20 115
15 14 110
0 0 113
0 0 113
0 0 113
0 4 113
0 16 113
7 9 113
0 0 113
2 0 113
7 0 113
0 0 113
0 0 113
0 0 113
5 9 114
9 14 115
9 15 116
10 17 116
6 14 116
0 20 116
0 20 116
0 20 116
0 19 117
2 14 118
7 16 119
11 19 119
8 25 121
0 31 124
0 30 123
0 28 123
8 33 124
13 31 123
6 24 120
10 25 119
13 27 119
14 28 120
13 28 120
6 25 119
9 18 119
6 19 117
0 20 116
0 15 115
0 1 113
0 0 113
0 0 113
1 10 114
4 14 114
0 6 113
12 3 112
6 7 112
10 13 113
14 22 117
25 36 119
6 21 117
89 98 151
214 230 252
217 233 255
217 233 255
217 233 255
217 233 255
217 233 255
217 233 255
217 233 255
217 233 255
217 233 255
217 233 255
217 233 255
217 233 255
217 233 255
217 233 255
217 233 255
217 233 255
217 233 255
217 233 255
217 233 255
217 233 255
217 233 255
217 233 255
217 233 255
217 233 255
217 233 255
217 233 255
217 233 255
217 233 255
217 233 255
217 233 255
217 233 255
217 233 255
217 233 255
217 233 255
217 233 255
217 233 255
217 233 255
217 233 255
217 233 255
217 233 255
217 233 255
217 233 255
217 233 255
217 233 255
217 233 255
217 233 255
217 233 255
217 233 255
217 233 255
217 233 255
217 233 255
217 233 255
217 233 255
217 233 255
217 233 255
217 233 255
217 233 255
217 233 255
217 233 255
217 233 255
217 233 255
217 233 255
217 233 255
217 233 255
217 233 255
217 233 255
217 233 255
217 233 255
217 233 255
217 233 255
217 233 255
217 233 255
217 233 255
217 233 255
217 233 255
217 233 255
217 233 255
217 233 255
217 233 255
217 233 255
217 233 255
217 233 255
217 233 255
217 233 255
217 233 255
217 233 255
217 233 255
217 233 255
217 233 255
217 233 255
217 233 255
217 233 255
217 233 255
217 233 255
217 233 255
217 233 255
217 233 255
217 233 255
217 233 255
217 233 255
217 233 255
217 233 255
217 233 255
217 233 255
217 233 255
217 233 255
217 233 255
217 233 255
217 233 255
217 233 255
217 233 255
217 233 255
217 233 255
217 233 255
217 233 255
217 233 255
217 233 255
217 233 255
217 233 255
217 233 255
217 233 255
217 233 255
217 233 255
217 233 255
217 233 255
217 233 255
217 233 255
217 233 255
217 233 255
217 233 255
217 233 255
217 233 255
217 233 255
217 233 255
217 233 255
217 233 255
217 233 255
217 233 255
217 233 255
217 233 255
217 233 255
217 233 255
217 233 255
217 233 255
217 233 255
217 233 255
217 233 255
217 233 255
217 233 255
217 233 255
217 233 255
217 233 255
217 233 255
217 233 255
217 233 255
217 233 255
217 233 255
217 233 255
217 233 255
217 233 255
217 233 255
217 233 255
217 233 255
217 233 255
217 233 255
217 233 255
217 233 255
217 233 255
217 233 255
217 233 255
217 233 255
217 233 255
217 233 255
217 233 255
217 233 255
217 233 255
217 233 255
217 233 255
217 233 255
217 233 255
217 233 255
217 233 255
217 233 255
217 233 255
217 233 255
217 233 255
217 233 255
217 233 255
217 233 255
217 233 255
217 233 255
217 233 255
217 233 255
217 233 255
217 233 255
217 233 255
217 233 255
217 233 255
217 233 255
217 233 255
217 233 255
217 233 255
217 233 255
217 233 255
217 233 255
217 233 255
217 233 255
217 233 255
217 233 255
217 233 255
217 233 255
217 233 255
217 233 255
217 233 255
217 233 255
217 233 255
217 233 255
217 233 255
217 233 255
217 233 255
217 233 255
217 233 255
217 233 255
217 233 255
217 233 255
217 233 255
217 233 255
217 233 255
217 233 255
217 233 255
217 233 255
215 231 253
109 118 165
10 24 120
6 21 117
3 8 114
0 0 113
0 4 113
0 0 113
0 0 113
0 0 113
0 0 113
0 0 113
0 1 114
1 17 116
3 20 117
1 20 117
8 23 118
2 20 117
0 20 116
0 20 116
0 20 116
0 19 116
2 12 116
2 14 115
0 19 116
5 17 119
3 19 117
2 11 114
7 9 113
10 21 117
13 30 120
7 29 123
19 36 131
13 62 136
56 83 144
66 79 128
104 114 119
130 141 128
141 147 127
148 151 135
183 189 183
193 199 194
190 198 196
179 182 176
177 178 171
172 172 166
163 162 152
151 152 135
132 138 122
128 134 122
113 122 92
112 123 95
120 128 107
144 150 140
153 155 144
168 166 160
160 162 154
138 146 132
162 164 161
165 166 159
159 161 154
157 158 152
157 157 150
160 159 152
161 159 151
150 153 143
148 150 140
154 156 140
147 152 126
142 150 121
133 147 111
130 145 109
126 144 107
122 143 105
117 137 94
108 134 82
103 129 67
100 126 63
98 125 66
85 113 42
84 113 41
86 114 51
103 132 73
103 136 72
100 135 74
96 126 50
95 125 41
100 131 67
92 124 54
91 123 46
99 127 53
95 126 50
93 124 46
94 124 48
99 126 53
99 126 60
94 121 50
90 118 39
93 121 51
100 126 61
103 128 74
99 127 71
96 121 58
98 126 48
70 108 106
32 54 120
23 35 122
9 16 114
18 0 112
20 3 114
14 4 115
13 5 111
8 23 112
9 7 114
18 0 113
0 0 113
0 0 113
0 0 113
0 0 113
0 9 113
0 6 113
0 0 113
8 0 113
12 2 113
3 4 113
8 9 113
7 7 113
0 0 113
0 0 113
0 0 113
0 0 113
3 3 113
5 18 116
0 20 116
0 20 116
0 20 116
0 18 117
0 15 116
0 14 117
7 19 118
17 31 121
15 31 122
11 27 121
7 27 121
18 32 124
13 24 120
5 18 117
5 18 116
6 19 116
8 21 117
0 21 116
1 20 116
6 17 116
5 18 116
2 15 115
0 10 114
0 0 113
0 0 113
0 0 113
0 0 113
0 0 113
1 0 113
5 4 113
6 2 112
17 14 113
14 17 115
12 20 115
4 18 116
134 144 182
216 232 254
217 233 255
217 233 255
217 233 255
217 233 255
217 233 255
217 233 255
217 233 255
217 233 255
217 233 255
217 233 255
217 233 255
217 233 255
217 233 255
217 233 255
217 233 255
217 233 255
217 233 255
217 233 255
217 233 255
217 233 255
217 233 255
217 233 255
217 233 255
217 233 255
217 233 255
217 233 255
217 233 255
217 233 255
217 233 255
217 233 255
217 233 255
217 233 255
217 233 255
217 233 255
217 233 255
217 233 255
217 233 255
217 233 255
217 233 255
217 233 255
217 233 255
217 233 255
217 233 255
217 233 255
217 233 255
217 233 255
217 233 255
217 233 255
217 233 255
217 233 255
217 233 255
217 233 255
217 233 255
217 233 255
217 233 255
217 233 255
217 233 255
217 233 255
217 233 255
217 233 255
217 233 255
217 233 255
217 233 255
217 233 255
217 233 255
217 233 255
217 233 255
217 233 255
217 233 255
217 233 255
217 233 255
217 233 255
217 233 255
217 233 255
217 233 255
217 233 255
217 233 255
217 233 255
217 233 255
217 233 255
217 233 255
217 233 255
217 233 255
217 233 255
217 233 255
217 233 255
217 233 255
217 233 255
217 233 255
217 233 255
217 233 255
217 233 255
217 233 255
217 233 255
217 233 255
217 233 255
217 233 255
217 233 255
217 233 255
217 233 255
217 233 255
217 233 255
217 233 255
217 233 255
217 233 255
217 233 255
217 233 255
217 233 255
217 233 255
217 233 255
217 233 255
217 233 255
217 233 255
217 233 255
217 233 255
217 233 255
217 233 255
217 233 255
217 233 255
217 233 255
217 233 255
217 233 255
217 233 255
217 233 255
217 233 255
217 233 255
217 233 255
217 233 255
217 233 255
217 233 255
217 233 255
217 233 255
217 233 255
217 233 255
217 233 255
217 233 255
217 233 255
217 233 255
217 233 255
217 233 255
217 233 255
217 233 255
217 233 255
217 233 255
217 233 255
217 233 255
217 233 255
217 233 255
217 233 255
217 233 255
217 233 255
217 233 255
217 233 255
217 233 255
217 233 255
217 233 255
217 233 255
217 233 255
217 233 255
217 233 255
217 233 255
217 233 255
217 233 255
217 233 255
217 233 255
217 233 255
217 233 255
217 233 255
217 233 255
217 233 255
217 233 255
217 233 255
217 233 255
217 233 255
217 233 255
217 233 255
217 233 255
217 233 255
217 233 255
217 233 255
217 233 255
217 233 255
217 233 255
217 233 255
217 233 255
217 233 255
217 233 255
217 233 255
217 233 255
217 233 255
217 233 255
217 233 255
217 233 255
217 233 255
217 233 255
217 233 255
217 233 255
217 233 255
217 233 255
217 233 255
217 233 255
217 233 255
217 233 255
217 233 255
217 233 255
217 233 255
217 233 255
217 233 255
217 233 255
217 233 255
217 233 255
217 233 255
217 233 255
217 233 255
217 233 255
217 233 255
217 233 255
217 233 255
217 233 255
217 233 255
217 233 255
217 233 255
217 233 255
217 233 255
217 233 255
217 233 255
217 233 255
217 233 255
217 233 255
217 233 255
165 178 209
6 18 117
5 11 115
0 8 113
0 0 113
0 0 113
0 0 113
0 0 113
0 0 113
0 0 113
0 0 113
0 0 113
0 11 115
5 21 116
2 20 116
0 20 116
0 20 116
0 19 116
0 20 116
0 20 116
0 19 116
0 15 115
7 8 116
8 17 116
0 19 116
0 15 118
0 15 115
3 3 113
3 8 113
4 18 119
10 39 117
3 37 121
10 37 126
8 49 130
31 51 133
24 44 125
35 39 119
93 103 132
129 133 122
148 156 140
168 174 175
174 181 175
175 178 176
174 172 170
175 175 169
174 176 169
173 176 164
166 167 155
149 151 133
146 150 136
141 143 128
137 141 124
122 131 110
125 132 109
164 164 157
175 176 173
169 173 170
127 132 108
170 173 169
172 171 167
164 165 159
158 159 154
163 161 154
165 162 155
156 157 151
153 154 148
148 150 142
151 155 139
140 149 120
134 145 111
131 144 111
133 149 116
133 151 118
124 144 107
115 136 93
106 129 82
98 123 68
92 117 57
94 119 61
86 113 45
88 116 41
99 126 70
107 134 77
99 130 58
98 130 65
94 123 57
94 124 50
95 126 58
89 120 48
93 124 52
94 123 42
98 128 52
93 123 39
97 125 54
96 122 51
100 123 60
96 122 57
98 125 56
101 127 63
102 127 71
98 123 55
91 120 51
91 119 56
76 108 105
37 61 128
9 17 119
0 15 116
0 11 113
4 0 113
11 0 113
2 0 113
0 0 113
0 0 113
0 0 113
0 0 113
0 0 113
0 0 113
0 0 113
0 0 113
0 0 113
0 0 113
0 0 113
0 0 113
1 1 113
5 5 113
0 0 113
0 0 113
0 0 113
0 0 113
0 0 113
0 0 113
0 0 113
3 8 113
0 11 114
0 10 114
0 11 114
0 13 114
0 12 113
0 10 113
0 12 113
3 12 114
5 17 116
5 20 117
0 21 117
7 24 121
12 23 120
8 15 117
10 13 115
6 11 114
2 8 114
0 11 114
6 12 115
7 8 115
9 9 114
10 11 114
0 3 113
0 0 113
0 0 113
0 0 113
0 0 113
0 0 113
0 0 113
0 0 113
0 0 113
0 0 113
1 1 113
7 7 113
2 10 114
3 13 114
172 185 214
217 233 255
217 233 255
217 233 255
217 233 255
217 233 255
217 233 255
217 233 255
217 233 255
217 233 255
217 233 255
217 233 255
217 233 255
217 233 255
217 233 255
217 233 255
217 233 255
217 233 255
217 233 255
217 233 255
217 233 255
217 233 255
217 233 255
217 233 255
217 233 255
217 233 255
217 233 255
217 233 255
217 233 255
217 233 255
217 233 255
217 233 255
217 233 255
217 233 255
217 233 255
217 233 255
217 233 255
217 233 255
217 233 255
217 233 255
217 233 255
217 233 255
217 233 255
217 233 255
217 233 255
217 233 255
217 233 255
217 233 255
217 233 255
217 233 255
217 233 255
217 233 255
217 233 255
217 233 255
217 233 255
217 233 255
217 233 255
217 233 255
217 233 255
217 233 255
217 233 255
217 233 255
217 233 255
217 233 255
217 233 255
217 233 255
217 233 255
217 233 255
217 233 255
217 233 255
217 233 255
217 233 255
217 233 255
217 233 255
217 233 255
217 233 255
217 233 255
217 233 255
217 233 255
217 233 255
217 233 255
217 233 255
217 233 255
217 233 255
217 233 255
217 233 255
217 233 255
217 233 255
217 233 255
217 233 255
217 233 255
217 233 255
217 233 255
217 233 255
217 233 255
217 233 255
217 233 255
217 233 255
217 233 255
217 233 255
217 233 255
217 233 255
217 233 255
217 233 255
217 233 255
217 233 255
217 233 255
217 233 255
217 233 255
217 233 255
217 233 255
217 233 255
217 233 255
217 233 255
217 233 255
217 233 255
218 233 255
218 233 255
218 233 255
218 233 255
218 233 255
218 233 255
218 233 255
218 233 255
218 233 255
218 233 255
218 233 255
218 233 255
218 233 255
218 233 255
218 233 255
218 233 255
218 233 255
218 233 255
218 233 255
218 233 255
218 233 255
218 233 255
218 233 255
218 233 255
218 233 255
218 233 255
218 233 255
218 233 255
217 233 255
217 233 255
217 233 255
217 233 255
217 233 255
217 233 255
217 233 255
217 233 255
217 233 255
217 233 255
217 233 255
217 233 255
217 233 255
217 233 255
217 233 255
217 233 255
217 233 255
217 233 255
217 233 255
217 233 255
217 233 255
217 233 255
217 233 255
217 233 255
217 233 255
217 233 255
217 233 255
217 233 255
217 233 255
217 233 255
217 233 255
217 233 255
217 233 255
217 233 255
217 233 255
217 233 255
217 233 255
217 233 255
217 233 255
217 233 255
217 233 255
217 233 255
217 233 255
217 233 255
217 233 255
217 233 255
217 233 255
217 233 255
217 233 255
217 233 255
217 233 255
217 233 255
217 233 255
217 233 255
217 233 255
217 233 255
217 233 255
217 233 255
217 233 255
217 233 255
217 233 255
217 233 255
217 233 255
217 233 255
217 233 255
217 233 255
217 233 255
217 233 255
217 233 255
217 233 255
217 233 255
217 233 255
217 233 255
217 233 255
217 233 255
217 233 255
217 233 255
217 233 255
217 233 255
217 233 255
217 233 255
217 233 255
217 233 255
217 233 255
217 233 255
217 233 255
174 187 216
7 21 117
0 10 114
0 0 113
0 0 113
0 0 113
0 0 113
0 0 113
0 0 113
0 0 113
0 0 113
0 0 113
0 7 114
0 19 116
0 20 116
0 20 116
0 20 116
0 20 116
0 19 116
0 20 116
0 20 116
0 19 116
0 15 116
6 13 115
3 14 115
0 14 115
0 10 114
0 0 113
11 12 114
5 19 116
1 19 117
7 16 115
2 21 118
9 40 127
15 40 126
15 39 126
14 44 130
23 34 120
20 26 116
118 122 131
152 159 147
181 192 183
182 187 174
179 182 173
191 192 185
195 189 187
172 175 164
177 176 169
170 171 164
148 150 134
147 149 135
161 162 151
164 163 155
161 161 154
165 164 155
174 173 166
182 181 175
181 179 175
170 174 164
169 172 159
183 178 169
172 168 162
167 163 159
164 160 154
167 164 158
158 158 152
158 157 149
149 152 143
142 150 130
138 149 120
134 147 117
134 147 118
132 146 110
130 147 109
118 137 95
110 132 85
103 127 76
100 123 69
94 119 60
97 124 69
85 113 37
85 113 34
102 129 76
102 130 75
89 118 53
94 123 62
89 118 49
88 117 40
87 119 49
84 116 42
93 124 56
98 128 53
102 131 60
98 126 54
97 124 56
100 125 64
103 126 74
108 132 78
103 130 63
99 125 52
105 128 74
96 123 62
90 119 80
56 90 120
25 43 120
17 18 115
0 15 115
0 7 112
0 0 113
0 0 113
0 5 113
0 5 113
0 0 113
0 0 113
0 0 113
0 0 113
0 0 113
0 0 113
0 0 113
0 0 113
0 0 113
0 0 113
0 0 113
0 0 113
0 0 113
0 0 113
0 0 113
0 0 113
0 0 113
5 5 113
0 0 113
0 0 113
0 0 113
0 0 113
0 0 113
0 0 112
0 0 113
0 0 113
0 0 113
0 0 113
0 0 113
0 0 113
0 0 113
0 0 113
0 0 113
0 6 114
2 7 114
0 4 114
3 3 113
7 8 113
6 7 113
0 1 113
0 2 113
9 10 114
13 4 113
9 10 113
0 0 113
0 0 113
0 0 113
0 0 113
0 0 113
0 0 113
0 0 113
0 0 113
0 0 113
0 0 113
0 0 113
0 0 113
0 0 113
0 0 113
22 23 115
184 198 225
217 233 255
217 233 255
217 233 255
217 233 255
217 233 255
217 233 255
217 233 255
217 233 255
217 233 255
217 233 255
217 233 255
217 233 255
217 233 255
217 233 255
217 233 255
217 233 255
217 233 255
217 233 255
217 233 255
217 233 255
217 233 255
217 233 255
217 233 255
217 233 255
217 233 255
217 233 255
217 233 255
217 233 255
217 233 255
217 233 255
217 233 255
217 233 255
217 233 255
217 233 255
217 233 255
217 233 255
217 233 255
217 233 255
217 233 255
217 233 255
217 233 255
217 233 255
217 233 255
217 233 255
217 233 255
217 233 255
217 233 255
217 233 255
217 233 255
217 233 255
217 233 255
217 233 255
217 233 255
217 233 255
217 233 255
217 233 255
217 233 255
217 233 255
217 233 255
217 233 255
217 233 255
217 233 255
217 233 255
217 233 255
217 233 255
217 233 255
217 233 255
217 233 255
217 233 255
217 233 255
217 233 255
217 233 255
217 233 255
217 233 255
217 233 255
217 233 255
217 233 255
217 233 255
217 233 255
217 233 255
217 233 255
217 233 255
217 233 255
217 233 255
217 233 255
218 233 255
218 233 255
218 233 255
218 233 255
218 233 255
218 233 255
218 233 255
218 233 255
218 233 255
218 233 255
218 233 255
218 233 255
218 233 255
218 233 255
218 233 255
218 233 255
218 233 255
218 233 255
218 233 255
218 233 255
218 233 255
218 233 255
218 233 255
218 233 255
218 233 255
218 233 255
218 233 255
218 233 255
218 233 255
218 233 255
218 233 255
218 233 255
218 233 255
218 233 255
218 233 255
218 233 255
218 233 255
218 233 255
218 233 255
218 233 255
218 233 255
218 233 255
218 233 255
218 233 255
218 233 255
218 233 255
218 233 255
218 233 255
218 233 255
218 233 255
218 233 255
218 233 255
218 233 255
218 233 255
218 233 255
218 233 255
218 233 255
218 233 255
218 233 255
218 233 255
218 233 255
218 233 255
218 233 255
218 233 255
218 233 255
218 233 255
218 233 255
218 233 255
218 233 255
218 233 255
218 233 255
218 233 255
218 233 255
218 233 255
218 233 255
218 233 255
218 233 255
218 233 255
218 233 255
218 233 255
218 233 255
218 233 255
218 233 255
218 233 255
218 233 255
218 233 255
218 233 255
218 233 255
218 233 255
218 233 255
218 233 255
218 233 255
218 233 255
218 233 255
218 233 255
218 233 255
218 233 255
218 233 255
217 233 255
218 233 255
217 233 255
217 233 255
217 233 255
217 233 255
217 233 255
217 233 255
217 233 255
217 233 255
217 233 255
217 233 255
217 233 255
217 233 255
217 233 255
217 233 255
217 233 255
217 233 255
217 233 255
217 233 255
217 233 255
217 233 255
217 233 255
217 233 255
217 233 255
217 233 255
217 233 255
217 233 255
217 233 255
217 233 255
217 233 255
217 233 255
217 233 255
217 233 255
217 233 255
217 233 255
217 233 255
217 233 255
217 233 255
217 233 255
217 233 255
217 233 255
217 233 255
217 233 255
202 217 241
48 54 126
0 4 113
0 0 113
0 0 113
0 0 113
0 0 113
0 0 113
0 0 113
0 0 113
0 0 113
0 0 113
0 2 114
0 16 116
0 19 117
0 20 116
0 20 116
0 20 116
0 19 116
0 19 116
0 20 116
0 20 116
0 20 116
0 16 115
0 10 114
0 7 113
0 7 113
0 3 113
0 0 113
6 11 114
0 20 117
0 13 115
7 15 115
10 28 121
9 33 124
11 28 120
7 33 124
15 42 129
10 27 121
25 34 121
119 121 131
149 153 144
181 188 190
179 183 172
201 209 201
191 197 191
185 181 177
179 177 170
170 166 157
162 166 157
150 155 141
158 161 149
154 154 138
171 172 165
173 172 166
181 180 175
186 181 177
187 182 175
185 182 175
185 187 180
178 178 162
193 191 184
187 182 176
176 174 170
177 174 167
178 177 171
165 165 157
155 157 148
150 157 147
143 152 128
134 146 118
139 152 125
135 148 117
130 142 103
130 146 103
117 135 86
105 129 73
96 121 53
94 119 58
86 113 47
80 109 31
89 118 49
85 113 35
94 124 56
88 120 49
85 116 48
86 116 42
90 118 54
89 117 50
83 115 46
80 112 34
90 122 39
90 122 40
95 124 50
100 128 62
101 127 66
103 127 70
105 129 73
111 136 81
104 131 71
103 129 62
100 126 60
90 119 55
56 96 139
14 44 129
28 17 117
17 19 108
12 19 114
0 10 112
0 0 114
0 0 114
7 2 113
6 3 113
0 0 113
0 0 113
0 0 113
0 0 113
0 0 113
0 0 113
0 0 113
0 0 113
0 0 113
0 0 113
0 0 113
0 0 113
0 0 113
0 0 113
0 0 112
0 0 113
0 0 113
8 9 113
3 3 113
0 0 113
0 0 113
0 0 113
0 0 113
0 0 113
0 0 113
0 0 113
0 0 113
0 0 113
0 0 113
0 0 113
0 0 113
0 0 113
0 0 113
0 0 113
0 0 113
0 0 113
0 0 113
0 0 113
0 0 113
0 0 113
0 0 113
0 0 113
0 0 113
1 1 113
0 0 113
0 0 113
0 0 113
0 0 113
0 0 113
0 0 113
0 0 113
0 0 113
0 0 113
0 0 112
0 0 113
0 0 113
0 0 113
0 0 113
0 0 113
65 70 132
205 220 244
217 233 255
217 233 255
217 233 255
217 233 255
217 233 255
217 233 255
217 233 255
217 233 255
217 233 255
217 233 255
217 233 255
217 233 255
217 233 255
217 233 255
217 233 255
217 233 255
217 233 255
217 233 255
217 233 255
217 233 255
217 233 255
217 233 255
217 233 255
217 233 255
217 233 255
217 233 255
217 233 255
217 233 255
217 233 255
217 233 255
217 233 255
217 233 255
217 233 255
217 233 255
217 233 255
217 233 255
217 233 255
217 233 255
217 233 255
217 233 255
218 233 255
218 233 255
217 233 255
218 233 255
218 233 255
218 233 255
218 233 255
218 233 255
218 233 255
218 233 255
218 233 255
218 233 255
218 233 255
218 233 255
218 233 255
218 233 255
218 233 255
218 233 255
218 233 255
218 233 255
218 233 255
218 233 255
218 233 255
218 233 255
218 233 255
218 233 255
218 233 255
218 233 255
218 233 255
218 233 255
218 233 255
218 233 255
218 233 255
218 233 255
218 233 255
218 233 255
218 233 255
218 233 255
218 233 255
218 233 255
218 233 255
218 233 255
218 233 255
218 233 255
218 233 255
218 233 255
218 233 255
218 233 255
218 233 255
218 233 255
218 233 255
218 233 255
218 233 255
218 233 255
218 233 255
218 233 255
218 233 255
218 233 255
218 233 255
218 233 255
218 233 255
218 233 255
218 233 255
218 233 255
218 233 255
218 233 255
218 233 255
218 233 255
218 233 255
218 233 255
218 233 255
218 233 255
218 233 255
218 234 255
218 234 255
218 234 255
218 234 255
218 234 255
218 234 255
218 234 255
218 234 255
218 234 255
218 234 255
218 234 255
218 234 255
218 234 255
218 234 255
218 234 255
218 234 255
218 234 255
218 234 255
218 234 255
218 234 255
218 234 255
218 234 255
218 234 255
218 234 255
218 234 255
218 234 255
218 234 255
218 234 255
218 234 255
218 234 255
218 234 255
218 234 255
218 234 255
218 234 255
218 233 255
218 233 255
218 233 255
218 233 255
218 233 255
218 233 255
218 233 255
218 233 255
218 233 255
218 233 255
218 233 255
218 233 255
218 233 255
218 233 255
218 233 255
218 233 255
218 233 255
218 233 255
218 233 255
218 233 255
218 233 255
218 233 255
218 233 255
218 233 255
218 233 255
218 233 255
218 233 255
218 233 255
218 233 255
218 233 255
218 233 255
218 233 255
218 233 255
218 233 255
218 233 255
218 233 255
218 233 255
218 233 255
218 233 255
218 233 255
218 233 255
218 233 255
218 233 255
218 233 255
218 233 255
218 233 255
218 233 255
218 233 255
218 233 255
218 233 255
218 233 255
218 233 255
218 233 255
218 233 255
218 233 255
218 233 255
218 233 255
218 233 255
218 233 255
218 233 255
218 233 255
218 233 255
218 233 255
218 233 255
218 233 255
218 233 255
218 233 255
218 233 255
218 233 255
218 233 255
218 233 255
218 233 255
218 233 255
218 233 255
218 233 255
218 233 255
218 233 255
218 233 255
214 230 252
97 105 153
0 0 113
0 0 113
0 0 113
0 0 113
0 0 113
0 0 113
0 0 113
0 0 113
0 0 113
0 0 113
0 0 113
0 8 115
0 20 116
0 20 116
0 20 116
0 20 116
0 20 116
0 20 116
0 20 116
0 18 116
0 17 116
0 17 116
0 8 113
0 0 113
0 0 113
0 0 113
0 0 113
0 0 113
0 11 114
0 14 114
0 1 112
8 21 116
9 22 117
4 16 117
13 10 114
1 22 120
10 31 123
15 21 118
14 26 120
93 93 125
149 152 140
180 180 174
146 158 177
159 176 185
175 182 181
181 185 177
168 168 163
158 160 150
139 146 129
141 147 127
155 159 146
151 153 140
162 164 156
172 173 165
183 185 178
201 204 203
186 191 180
178 179 170
185 182 176
181 182 175
188 187 176
189 191 183
187 187 178
187 187 176
179 181 167
162 165 148
153 158 143
148 155 139
141 149 125
132 143 115
133 145 116
136 148 116
135 149 111
125 142 98
112 131 81
106 130 75
89 116 47
87 114 46
82 108 51
86 113 52
83 114 42
93 121 51
95 129 57
87 120 31
87 119 45
93 121 49
87 116 51
92 118 45
90 116 46
90 120 55
91 124 40
94 125 50
99 127 63
105 131 67
109 133 78
109 133 80
104 130 68
105 131 73
101 128 63
94 122 50
93 120 45
82 120 85
43 85 144
11 31 113
23 15 118
19 17 119
14 20 110
0 0 113
0 0 116
12 0 115
17 0 113
14 0 112
0 0 113
0 0 113
0 0 113
0 0 113
0 0 113
0 0 113
0 0 113
0 0 113
0 0 113
0 0 113
0 0 113
0 0 113
0 0 113
0 0 113
2 3 113
0 0 113
0 0 113
0 0 113
0 0 113
0 0 113
0 0 113
0 0 113
0 0 113
0 0 113
0 0 113
0 0 113
0 0 113
0 0 113
0 0 113
0 0 113
0 0 113
0 0 113
0 0 113
0 0 113
0 0 113
0 0 113
0 0 113
0 0 113
0 0 113
0 0 113
0 0 112
0 0 113
0 0 112
0 0 113
0 0 113
0 0 113
0 0 113
0 0 113
0 0 113
0 0 113
0 0 113
0 0 113
0 0 113
0 0 113
0 0 113
0 0 113
0 0 113
0 0 113
0 0 113
0 0 113
97 104 152
215 231 253
218 233 255
218 233 255
218 233 255
218 233 255
218 233 255
218 233 255
218 233 255
218 233 255
218 233 255
218 233 255
218 233 255
218 233 255
218 233 255
218 233 255
218 233 255
218 233 255
218 233 255
218 233 255
218 233 255
218 233 255
218 233 255
218 233 255
218 233 255
218 233 255
218 233 255
218 233 255
218 233 255
218 233 255
218 233 255
218 233 255
218 233 255
218 233 255
218 233 255
218 233 255
218 233 255
218 233 255
218 233 255
218 233 255
218 233 255
218 233 255
218 233 255
218 233 255
218 233 255
218 233 255
218 233 255
218 233 255
218 233 255
218 233 255
218 233 255
218 233 255
218 233 255
218 233 255
218 233 255
218 233 255
218 233 255
218 233 255
218 233 255
218 233 255
218 233 255
218 233 255
218 233 255
218 233 255
218 233 255
218 233 255
218 233 255
218 233 255
218 233 255
218 233 255
218 233 255
218 233 255
218 233 255
218 233 255
218 233 255
218 233 255
218 233 255
218 233 255
218 233 255
218 233 255
218 234 255
218 234 255
218 234 255
218 234 255
218 234 255
218 234 255
218 234 255
218 234 255
218 234 255
218 234 255
218 234 255
218 234 255
218 234 255
218 234 255
218 234 255
218 234 255
218 234 255
218 234 255
218 234 255
218 234 255
218 234 255
218 234 255
218 234 255
218 234 255
218 234 255
218 234 255
218 234 255
218 234 255
218 234 255
218 234 255
218 234 255
218 234 255
218 234 255
218 234 255
218 234 255
218 234 255
218 234 255
218 234 255
218 234 255
218 234 255
218 234 255
218 234 255
218 234 255
218 234 255
218 234 255
218 234 255
218 234 255
218 234 255
218 234 255
218 234 255
218 234 255
218 234 255
218 234 255
218 234 255
218 234 255
218 234 255
218 234 255
218 234 255
218 234 255
218 234 255
218 234 255
218 234 255
218 234 255
218 234 255
218 234 255
218 234 255
218 234 255
218 234 255
218 234 255
218 234 255
218 234 255
218 234 255
218 234 255
218 234 255
218 234 255
218 234 255
218 234 255
218 234 255
218 234 255
218 234 255
218 234 255
218 234 255
218 234 255
218 234 255
218 234 255
218 234 255
218 234 255
218 234 255
218 234 255
218 234 255
218 234 255
218 234 255
218 234 255
218 234 255
218 234 255
218 234 255
218 234 255
218 234 255
218 234 255
218 234 255
218 234 255
218 234 255
218 234 255
218 234 255
218 234 255
218 234 255
218 234 255
218 234 255
218 234 255
218 234 255
218 234 255
218 234 255
218 234 255
218 234 255
218 233 255
218 234 255
218 233 255
218 233 255
218 233 255
218 233 255
218 233 255
218 233 255
218 233 255
218 233 255
218 233 255
218 233 255
218 233 255
218 233 255
218 233 255
218 233 255
218 233 255
218 233 255
218 233 255
218 233 255
218 233 255
218 233 255
218 233 255
218 233 255
218 233 255
218 233 255
218 233 255
218 233 255
218 233 255
218 233 255
218 233 255
218 233 255
142 153 188
0 0 113
0 0 113
0 0 113
0 0 113
0 0 112
0 0 113
0 0 113
0 0 113
0 0 113
0 0 113
0 0 113
0 0 113
0 9 115
0 17 116
0 14 116
0 14 116
0 18 116
0 20 116
0 20 116
0 13 116
0 0 115
0 0 115
0 0 114
0 0 113
0 0 113
0 0 113
0 0 113
0 0 113
0 5 113
0 13 115
2 3 112
5 10 114
0 12 114
0 8 114
18 9 114
22 9 113
4 11 118
14 13 115
16 21 117
18 39 126
86 91 133
145 147 139
174 179 179
86 97 155
29 37 123
112 113 151
183 183 175
164 164 158
153 155 145
135 148 130
134 144 115
144 154 137
142 148 132
157 161 150
166 165 155
175 174 168
187 190 184
178 177 169
170 170 164
172 171 164
169 169 161
153 153 143
171 172 161
181 181 165
168 169 154
154 162 147
149 155 138
148 153 135
141 148 128
134 142 119
130 141 114
128 140 106
132 142 112
124 144 102
119 138 84
114 134 85
96 123 56
95 116 60
90 116 40
90 118 46
90 117 51
102 131 61
109 137 80
102 131 61
95 130 62
93 127 51
86 135 99
88 127 85
87 147 112
83 138 119
89 153 134
94 132 98
85 114 100
84 109 113
93 119 76
101 128 57
97 124 67
90 124 42
93 125 44
99 126 65
91 119 37
95 120 50
87 119 94
37 69 133
17 22 119
10 13 115
8 20 112
14 8 114
0 0 113
0 0 113
0 0 113
0 0 113
2 0 113
0 0 113
0 0 113
0 0 113
0 0 113
0 0 113
0 0 113
0 0 113
0 0 113
0 0 113
0 0 113
0 0 113
0 0 113
0 0 113
0 0 113
6 6 113
0 0 113
0 0 113
0 0 113
0 0 113
0 0 113
0 0 113
0 0 113
0 0 113
0 0 113
0 0 113
0 0 113
0 0 113
0 0 113
0 0 113
0 0 113
0 0 113
0 0 113
0 0 113
0 0 113
0 0 113
0 0 113
0 0 113
0 0 113
0 0 113
0 0 113
0 0 113
0 0 113
0 0 113
0 0 113
0 0 113
0 0 113
0 0 113
0 0 113
0 0 113
0 0 113
0 0 113
0 0 113
0 0 113
0 0 113
0 0 113
0 0 113
0 0 113
0 0 113
0 0 113
0 0 113
0 0 113
134 144 181
218 233 255
218 233 255
218 233 255
218 233 255
218 233 255
218 233 255
218 233 255
218 233 255
218 233 255
218 233 255
218 233 255
218 233 255
218 233 255
218 233 255
218 233 255
218 233 255
218 233 255
218 233 255
218 233 255
218 233 255
218 233 255
218 233 255
218 233 255
218 233 255
218 233 255
218 233 255
218 233 255
218 233 255
218 233 255
218 233 255
218 233 255
218 233 255
218 234 255
218 233 255
218 234 255
218 234 255
218 234 255
218 234 255
218 234 255
218 234 255
218 234 255
218 234 255
218 234 255
218 234 255
218 234 255
218 234 255
218 234 255
218 234 255
218 234 255
218 234 255
218 234 255
218 234 255
218 234 255
218 234 255
218 234 255
218 234 255
218 234 255
218 234 255
218 234 255
218 234 255
218 234 255
218 234 255
218 234 255
218 234 255
218 234 255
218 234 255
218 234 255
218 234 255
218 234 255
218 234 255
218 234 255
218 234 255
218 234 255
218 234 255
218 234 255
218 234 255
218 234 255
218 234 255
218 234 255
218 234 255
218 234 255
218 234 255
218 234 255
218 234 255
218 234 255
218 234 255
218 234 255
218 234 255
218 234 255
218 234 255
218 234 255
218 234 255
218 234 255
218 234 255
218 234 255
218 234 255
218 234 255
218 234 255
218 234 255
218 234 255
218 234 255
218 234 255
218 234 255
218 234 255
218 234 255
218 234 255
218 234 255
218 234 255
218 234 255
218 234 255
218 234 255
218 234 255
218 234 255
218 234 255
218 234 255
218 234 255
218 234 255
218 234 255
218 234 255
218 234 255
218 234 255
218 234 255
218 234 255
218 234 255
218 234 255
218 234 255
218 234 255
218 234 255
218 234 255
218 234 255
218 234 255
218 234 255
218 234 255
218 234 255
218 234 255
218 234 255
218 234 255
218 234 255
218 234 255
218 234 255
218 234 255
218 234 255
218 234 255
218 234 255
218 234 255
218 234 255
218 234 255
218 234 255
218 234 255
218 234 255
218 234 255
218 234 255
218 234 255
218 234 255
218 234 255
218 234 255
218 234 255
218 234 255
218 234 255
218 234 255
218 234 255
218 234 255
218 234 255
218 234 255
218 234 255
218 234 255
218 234 255
218 234 255
218 234 255
218 234 255
218 234 255
218 234 255
218 234 255
218 234 255
218 234 255
218 234 255
218 234 255
218 234 255
218 234 255
218 234 255
218 234 255
218 234 255
218 234 255
218 234 255
218 234 255
218 234 255
218 234 255
218 234 255
218 234 255
218 234 255
218 234 255
218 234 255
218 234 255
218 234 255
218 234 255
218 234 255
218 234 255
218 234 255
218 234 255
218 234 255
218 234 255
218 234 255
218 234 255
218 234 255
218 234 255
218 234 255
218 234 255
218 234 255
218 234 255
218 234 255
218 234 255
218 234 255
218 234 255
218 234 255
218 234 255
218 234 255
218 234 255
218 234 255
218 234 255
218 234 255
218 234 255
218 234 255
218 234 255
195 209 234
30 33 118
0 0 113
0 0 113
0 0 113
0 0 113
0 0 113
0 0 113
0 0 113
0 0 113
0 0 113
0 0 113
9 0 113
0 0 113
0 2 115
0 3 115
0 0 115
0 7 115
0 20 116
0 20 116
0 17 116
0 0 113
0 0 113
0 0 113
0 0 113
0 0 113
0 0 113
0 0 113
0 0 113
0 0 113
0 5 113
0 7 114
4 5 113
5 10 114
0 2 113
7 9 114
13 12 115
15 16 116
8 9 116
14 26 119
22 32 124
20 34 117
66 67 129
144 147 139
166 169 166
63 74 140
32 39 126
76 82 141
173 177 168
160 165 156
157 164 148
133 144 117
122 141 99
127 141 108
122 132 104
128 134 110
158 161 150
168 167 162
169 167 159
171 170 160
179 180 174
165 170 161
161 162 151
165 166 157
168 169 155
168 170 154
170 172 159
163 167 153
150 155 138
143 152 132
133 146 120
126 140 109
126 141 108
126 140 106
128 143 95
118 137 89
119 136 93
115 133 86
123 143 95
111 131 85
101 126 77
96 138 106
84 135 122
98 133 98
105 137 72
95 144 102
98 124 71
93 126 55
94 138 109
84 147 126
62 181 201
40 125 177
13 91 153
23 50 134
18 23 127
15 24 115
21 31 128
66 92 112
77 114 80
57 103 124
66 114 130
99 127 81
105 133 78
99 128 55
100 121 78
54 76 118
20 24 118
14 10 115
5 18 113
4 14 112
0 0 113
0 0 113
0 0 113
0 0 113
0 0 113
0 0 113
0 0 113
0 0 113
0 0 113
0 0 113
0 0 113
0 0 113
0 0 113
0 0 113
0 0 113
0 0 113
0 0 113
0 0 113
0 0 112
0 0 113
0 0 113
0 0 113
0 0 113
0 0 113
0 0 113
0 0 113
0 0 113
0 0 113
0 0 113
0 0 113
0 0 112
0 0 113
0 0 113
0 0 113
0 0 113
0 0 113
0 0 113
0 0 113
0 0 113
0 0 113
0 0 113
0 0 112
0 0 113
0 0 113
0 0 113
0 0 113
0 0 113
0 0 113
0 0 113
0 0 113
0 0 113
0 0 113
0 0 113
0 0 113
0 0 113
0 0 113
0 0 113
0 0 113
0 0 113
0 0 113
0 0 113
0 0 113
0 0 113
0 0 113
0 0 113
0 0 113
22 24 115
195 209 234
218 234 255
218 234 255
218 234 255
218 234 255
218 234 255
218 234 255
218 234 255
218 234 255
218 234 255
218 234 255
218 234 255
218 234 255
218 234 255
218 234 255
218 234 255
218 234 255
218 234 255
218 234 255
218 234 255
218 234 255
218 234 255
218 234 255
218 234 255
218 234 255
218 234 255
218 234 255
218 234 255
218 234 255
218 234 255
218 234 255
218 234 255
218 234 255
218 234 255
218 234 255
218 234 255
218 234 255
218 234 255
218 234 255
218 234 255
218 234 255
218 234 255
218 234 255
218 234 255
218 234 255
218 234 255
218 234 255
218 234 255
218 234 255
218 234 255
218 234 255
218 234 255
218 234 255
218 234 255
218 234 255
218 234 255
218 234 255
218 234 255
218 234 255
218 234 255
218 234 255
218 234 255
218 234 255
218 234 255
218 234 255
218 234 255
218 234 255
218 234 255
218 234 255
218 234 255
218 234 255
218 234 255
218 234 255
218 234 255
218 234 255
218 234 255
218 234 255
218 234 255
218 234 255
218 234 255
218 234 255
218 234 255
218 234 255
218 234 255
218 234 255
218 234 255
218 234 255
218 234 255
218 234 255
218 234 255
218 234 255
218 234 255
218 234 255
218 234 255
218 234 255
218 234 255
218 234 255
218 234 255
218 234 255
218 234 255
218 234 255
218 234 255
218 234 255
218 234 255
218 234 255
218 234 255
218 234 255
218 234 255
218 234 255
218 234 255
218 234 255
218 234 255
218 234 255
218 234 255
218 234 255
218 234 255
218 234 255
218 234 255
218 234 255
218 234 255
218 234 255
218 234 255
218 234 255
218 234 255
218 234 255
218 234 255
218 234 255
218 234 255
218 234 255
218 234 255
218 234 255
218 234 255
218 234 255
218 234 255
218 234 255
218 234 255
218 234 255
218 234 255
218 234 255
218 234 255
218 234 255
218 234 255
218 234 255
218 234 255
218 234 255
218 234 255
218 234 255
218 234 255
218 234 255
218 234 255
218 234 255
218 234 255
218 234 255
218 234 255
218 234 255
218 234 255
218 234 255
218 234 255
218 234 255
218 234 255
218 234 255
218 234 255
218 234 255
218 234 255
218 234 255
218 234 255
218 234 255
218 234 255
218 234 255
218 234 255
218 234 255
218 234 255
218 234 255
218 234 255
218 234 255
218 234 255
218 234 255
218 234 255
218 234 255
218 234 255
218 234 255
218 234 255
218 234 255
218 234 255
218 234 255
218 234 255
218 234 255
218 234 255
218 234 255
218 234 255
218 234 255
218 234 255
218 234 255
218 234 255
218 234 255
218 234 255
218 234 255
218 234 255
218 234 255
218 234 255
218 234 255
218 234 255
218 234 255
218 234 255
218 234 255
218 234 255
218 234 255
218 234 255
218 234 255
218 234 255
218 234 255
218 234 255
218 234 255
218 234 255
218 234 255
218 234 255
218 234 255
218 234 255
218 234 255
218 234 255
218 234 255
218 234 255
214 230 252
78 84 140
0 0 113
0 0 113
0 0 113
0 0 113
0 0 113
0 0 113
0 0 113
0 0 113
0 0 113
0 0 112
5 0 113
17 0 113
2 0 113
0 0 115
2 3 115
6 6 116
1 15 116
0 20 116
0 19 116
0 10 114
0 0 113
0 0 113
0 0 113
0 0 113
0 0 113
0 0 113
0 0 113
0 0 113
0 0 113
0 0 113
0 0 113
0 0 113
0 0 113
2 2 113
6 7 113
3 3 112
10 11 114
5 6 113
6 14 115
19 24 122
21 36 121
52 50 133
147 151 150
166 164 160
86 91 146
32 58 132
60 80 144
160 164 165
161 167 161
153 158 146
130 145 110
121 142 108
120 138 101
109 127 89
107 120 87
136 141 126
145 146 137
154 153 145
169 171 162
165 168 154
168 172 160
164 166 158
173 175 166
169 171 154
158 162 147
163 165 152
164 169 156
154 160 146
136 147 127
126 141 112
123 138 102
129 143 109
130 146 111
130 141 101
127 139 112
118 139 92
114 138 72
111 135 68
97 134 129
60 118 151
42 107 157
31 96 155
44 99 160
59 137 167
64 167 185
64 156 170
84 131 99
74 129 116
77 147 148
72 172 185
25 116 171
35 32 131
17 31 121
8 24 123
13 30 119
7 21 108
28 40 119
34 47 125
15 38 119
22 50 129
53 117 144
99 128 98
107 134 83
93 121 59
81 104 88
29 38 116
9 15 113
10 13 114
6 17 110
2 5 113
0 0 113
0 0 113
0 0 113
0 0 113
0 0 113
0 0 113
0 0 113
0 0 113
0 0 113
0 0 113
0 0 113
0 0 113
0 0 113
0 0 113
0 0 113
0 0 113
0 0 113
0 0 113
0 0 113
0 0 113
0 0 113
0 0 113
0 0 113
0 0 113
0 0 113
0 0 113
0 0 113
0 0 113
0 0 113
0 0 113
0 0 113
0 0 113
0 0 113
0 0 113
0 0 112
0 0 113
0 0 113
0 0 113
0 0 113
0 0 113
0 0 113
0 0 113
0 0 113
0 0 113
0 0 113
0 0 113
0 0 113
0 0 113
0 0 113
0 0 113
0 0 113
0 0 113
0 0 113
0 0 113
0 0 113
0 0 113
0 0 113
0 0 113
0 0 113
0 0 113
0 0 113
0 0 113
0 0 113
0 0 113
0 0 113
2 2 113
69 74 134
215 231 253
218 234 255
218 234 255
218 234 255
218 234 255
218 234 255
218 234 255
218 234 255
218 234 255
218 234 255
218 234 255
218 234 255
218 234 255
218 234 255
218 234 255
218 234 255
218 234 255
218 234 255
218 234 255
218 234 255
218 234 255
218 234 255
218 234 255
218 234 255
218 234 255
218 234 255
218 234 255
218 234 255
218 234 255
218 234 255
218 234 255
218 234 255
218 234 255
218 234 255
218 234 255
218 234 255
218 234 255
218 234 255
218 234 255
218 234 255
218 234 255
218 234 255
218 234 255
218 234 255
218 234 255
218 234 255
218 234 255
218 234 255
218 234 255
218 234 255
218 234 255
218 234 255
218 234 255
218 234 255
218 234 255
218 234 255
218 234 255
218 234 255
218 234 255
218 234 255
218 234 255
218 234 255
218 234 255
218 234 255
218 234 255
218 234 255
218 234 255
218 234 255
218 234 255
218 234 255
218 234 255
218 234 255
218 234 255
218 234 255
218 234 255
218 234 255
218 234 255
218 234 255
218 234 255
218 234 255
218 234 255
218 234 255
218 234 255
218 234 255
218 234 255
218 234 255
218 234 255
218 234 255
218 234 255
218 234 255
218 234 255
218 234 255
218 234 255
218 234 255
218 234 255
218 234 255
218 234 255
218 234 255
218 234 255
218 234 255
218 234 255
218 234 255
218 234 255
218 234 255
218 234 255
218 234 255
218 234 255
218 234 255
218 234 255
218 234 255
218 234 255
218 234 255
218 234 255
218 234 255
218 234 255
218 234 255
218 234 255
218 234 255
218 234 255
218 234 255
218 234 255
218 234 255
218 234 255
218 234 255
218 234 255
218 234 255
218 234 255
218 234 255
218 234 255
218 234 255
218 234 255
218 234 255
218 234 255
218 234 255
218 234 255
218 234 255
218 234 255
218 234 255
218 234 255
218 234 255
218 234 255
218 234 255
218 234 255
218 234 255
218 234 255
218 234 255
218 234 255
218 234 255
218 234 255
218 234 255
218 234 255
218 234 255
218 234 255
218 234 255
218 234 255
218 234 255
218 234 255
218 234 255
218 234 255
218 234 255
218 234 255
218 234 255
218 234 255
218 234 255
218 234 255
218 234 255
218 234 255
218 234 255
218 234 255
218 234 255
218 234 255
218 234 255
218 234 255
218 234 255
218 234 255
218 234 255
218 234 255
218 234 255
218 234 255
218 234 255
218 234 255
218 234 255
218 234 255
218 234 255
218 234 255
218 234 255
218 234 255
218 234 255
218 234 255
218 234 255
218 234 255
218 234 255
218 234 255
218 234 255
218 234 255
218 234 255
218 234 255
218 234 255
218 234 255
218 234 255
218 234 255
218 234 255
218 234 255
218 234 255
218 234 255
218 234 255
218 234 255
218 234 255
218 234 255
218 234 255
218 234 255
218 234 255
218 234 255
218 234 255
218 234 255
218 234 255
218 234 255
218 234 255
218 234 255
218 234 255
218 234 255
152 163 196
0 0 113
0 0 113
0 0 113
0 0 113
0 0 113
0 0 113
0 0 113
0 0 113
0 0 113
0 0 113
0 0 113
6 0 113
8 0 113
0 0 113
0 0 114
9 10 116
11 15 116
1 20 116
0 19 116
0 14 115
0 3 113
0 0 113
0 0 113
0 0 113
0 0 113
0 0 113
0 0 113
0 0 113
0 0 113
0 0 113
0 0 113
0 0 113
0 0 113
0 0 113
7 9 113
7 13 113
0 7 112
6 8 112
18 22 114
19 21 117
10 20 114
10 31 117
30 36 129
95 105 150
150 159 157
162 161 163
91 110 155
43 107 170
155 165 175
183 185 180
162 167 151
143 157 129
113 138 92
111 134 86
110 129 90
116 128 99
132 139 120
135 142 128
149 149 137
175 175 166
168 169 156
175 175 168
159 159 150
166 164 153
165 169 155
150 154 137
138 142 125
143 147 129
152 160 147
152 160 142
142 153 132
134 146 121
138 150 124
138 150 127
126 145 109
121 138 99
117 144 111
100 136 117
80 130 134
40 94 147
14 54 138
27 33 128
16 20 123
7 26 110
24 43 125
26 81 141
38 126 171
41 116 164
32 104 161
32 113 164
44 129 170
0 93 156
22 40 121
15 27 117
18 7 112
20 10 113
7 6 110
5 9 112
8 18 119
0 23 119
37 17 123
17 57 134
53 119 155
116 135 95
112 133 89
104 126 75
69 88 108
0 25 114
19 5 116
6 12 113
0 6 113
0 0 113
0 0 113
0 0 113
0 0 113
0 0 113
0 0 113
0 0 113
0 0 113
0 0 113
0 0 113
0 0 113
0 0 113
0 0 113
0 0 113
0 0 113
0 0 113
0 0 113
0 0 112
0 0 113
0 0 113
0 0 113
0 0 113
0 0 113
0 0 113
0 0 113
0 0 113
0 0 113
0 0 113
0 0 113
0 0 113
0 0 113
0 0 113
0 0 113
0 0 113
0 0 113
0 0 113
0 0 113
0 0 113
0 0 113
0 0 113
0 0 113
0 0 113
0 0 113
0 0 113
0 0 113
0 0 113
0 0 113
0 0 113
0 0 113
0 0 113
0 0 113
0 0 113
0 0 113
0 0 113
0 0 113
0 0 113
0 0 113
0 0 113
0 0 113
0 0 113
0 0 113
0 0 113
0 0 113
0 0 113
0 0 113
0 0 113
7 8 113
145 155 190
218 234 255
218 234 255
218 234 255
218 234 255
218 234 255
218 234 255
218 234 255
218 234 255
218 234 255
218 234 255
218 234 255
218 234 255
218 234 255
218 234 255
218 234 255
218 234 255
218 234 255
218 234 255
218 234 255
218 234 255
218 234 255
218 234 255
218 234 255
218 234 255
218 234 255
218 234 255
218 234 255
218 234 255
218 234 255
218 234 255
218 234 255
218 234 255
218 234 255
218 234 255
218 234 255
218 234 255
218 234 255
218 234 255
218 234 255
218 234 255
218 234 255
218 234 255
218 234 255
218 234 255
218 234 255
218 234 255
218 234 255
218 234 255
218 234 255
218 234 255
218 234 255
218 234 255
218 234 255
218 234 255
218 234 255
218 234 255
218 234 255
218 234 255
218 234 255
218 234 255
218 234 255
218 234 255
218 234 255
218 234 255
218 234 255
218 234 255
218 234 255
218 234 255
218 234 255
218 234 255
218 234 255
218 234 255
218 234 255
218 234 255
218 234 255
218 234 255
218 234 255
218 234 255
218 234 255
218 234 255
218 234 255
218 234 255
218 234 255
218 234 255
218 234 255
218 234 255
218 234 255
218 234 255
218 234 255
218 234 255
218 234 255
218 234 255
218 234 255
218 234 255
218 234 255
218 234 255
218 234 255
218 234 255
218 234 255
218 234 255
218 234 255
218 234 255
218 234 255
218 234 255
218 234 255
218 234 255
218 234 255
218 234 255
218 234 255
218 234 255
218 234 255
218 234 255
218 234 255
218 234 255
218 234 255
218 234 255
218 234 255
218 234 255
218 234 255
218 234 255
218 234 255
218 234 255
218 234 255
218 234 255
218 234 255
218 234 255
218 234 255
218 234 255
218 234 255
218 234 255
218 234 255
218 234 255
218 234 255
218 234 255
218 234 255
218 234 255
218 234 255
218 234 255
218 234 255
218 234 255
218 234 255
218 234 255
218 234 255
218 234 255
218 234 255
218 234 255
218 234 255
218 234 255
218 234 255
218 234 255
218 234 255
218 234 255
218 234 255
218 234 255
218 234 255
218 234 255
218 234 255
218 234 255
218 234 255
218 234 255
218 234 255
218 234 255
218 234 255
218 234 255
218 234 255
218 234 255
218 234 255
218 234 255
218 234 255
218 234 255
218 234 255
218 234 255
218 234 255
218 234 255
218 234 255
218 234 255
218 234 255
218 234 255
218 234 255
218 234 255
218 234 255
218 234 255
218 234 255
218 234 255
218 234 255
218 234 255
218 234 255
218 234 255
218 234 255
218 234 255
218 234 255
218 234 255
218 234 255
218 234 255
218 234 255
218 234 255
218 234 255
218 234 255
218 234 255
218 234 255
218 234 255
218 234 255
218 234 255
218 234 255
218 234 255
218 234 255
218 234 255
218 234 255
218 234 255
218 234 255
218 234 255
218 234 255
218 234 255
218 234 255
218 234 255
218 234 255
218 234 255
218 234 255
218 234 255
192 206 232
21 23 115
0 0 113
0 0 113
0 0 113
0 0 113
0 0 113
0 0 113
0 0 113
0 0 113
0 0 113
0 0 113
0 0 113
0 0 113
0 0 113
0 0 113
0 0 114
10 11 116
7 18 116
1 19 116
0 14 115
0 9 114
0 0 113
0 0 113
0 0 113
0 0 113
0 0 113
0 0 113
0 0 113
0 0 113
0 0 113
0 0 113
0 0 113
0 0 113
0 0 113
0 0 113
3 5 112
1 7 112
3 6 112
16 17 114
30 33 118
16 20 111
22 29 115
8 19 116
13 36 132
20 57 144
100 111 148
158 157 154
115 134 157
54 97 152
103 118 160
178 180 174
167 166 159
139 152 123
111 137 78
107 131 79
111 125 85
117 124 96
130 138 116
134 141 121
141 145 128
167 164 153
166 164 155
168 166 157
168 165 159
167 164 151
166 170 156
149 155 140
131 140 126
143 153 140
161 166 150
159 165 151
153 160 144
143 152 133
143 152 130
140 150 127
132 145 110
113 139 118
77 121 140
34 83 148
22 51 138
28 26 122
12 21 114
17 23 119
22 11 116
5 11 115
11 7 116
9 21 110
13 19 117
10 32 117
13 16 109
21 28 116
25 37 114
10 26 119
21 17 113
5 14 117
12 2 113
12 6 116
11 18 114
19 15 113
16 7 111
21 11 105
28 11 115
15 38 118
49 101 147
113 140 105
115 135 73
113 135 76
90 118 96
23 40 121
19 9 111
18 8 117
6 11 110
4 0 113
5 0 113
0 0 113
0 0 113
0 0 113
0 0 113
0 0 113
0 0 113
0 0 113
0 0 113
0 0 113
0 0 113
0 0 113
0 0 113
0 0 113
0 0 113
0 0 113
0 0 113
0 0 113
0 0 113
0 0 113
0 0 112
0 0 113
0 0 113
0 0 113
0 0 113
0 0 113
0 0 113
0 0 113
0 0 113
0 0 113
0 0 113
0 0 113
0 0 113
0 0 113
0 0 113
0 0 113
0 0 113
0 0 113
0 0 113
0 0 113
0 0 113
0 0 113
0 0 113
0 0 113
0 0 113
0 0 113
0 0 113
0 0 113
0 0 113
0 0 113
0 0 113
0 0 113
0 0 113
0 0 113
0 0 113
0 0 113
0 0 113
0 0 113
0 0 113
0 0 113
0 0 113
0 0 113
0 0 113
0 0 113
0 0 113
0 0 113
7 9 112
182 195 222
218 234 255
218 234 255
218 234 255
218 234 255
218 234 255
218 234 255
218 234 255
218 234 255
218 234 255
218 234 255
218 234 255
218 234 255
218 234 255
218 234 255
218 234 255
218 234 255
218 234 255
218 234 255
218 234 255
218 234 255
218 234 255
218 234 255
218 234 255
218 234 255
218 234 255
218 234 255
218 234 255
218 234 255
218 234 255
218 234 255
218 234 255
218 234 255
218 234 255
218 234 255
218 234 255
218 234 255
218 234 255
218 234 255
218 234 255
218 234 255
218 234 255
218 234 255
218 234 255
218 234 255
218 234 255
218 234 255
218 234 255
218 234 255
218 234 255
218 234 255
218 234 255
218 234 255
218 234 255
218 234 255
218 234 255
218 234 255
218 234 255
218 234 255
218 234 255
218 234 255
218 234 255
218 234 255
218 234 255
218 234 255
218 234 255
218 234 255
218 234 255
218 234 255
218 234 255
218 234 255
218 234 255
218 234 255
218 234 255
218 234 255
218 234 255
218 234 255
218 234 255
218 234 255
218 234 255
218 234 255
218 234 255
218 234 255
218 234 255
218 234 255
218 234 255
218 234 255
218 234 255
218 234 255
218 234 255
218 234 255
218 234 255
218 234 255
218 234 255
218 234 255
218 234 255
218 234 255
218 234 255
218 234 255
218 234 255
218 234 255
218 234 255
218 234 255
218 234 255
218 234 255
218 234 255
218 234 255
218 234 255
218 234 255
218 234 255
218 234 255
218 234 255
218 234 255
218 234 255
218 234 255
218 234 255
218 234 255
218 234 255
218 234 255
218 234 255
218 234 255
218 234 255
218 234 255
218 234 255
218 234 255
218 234 255
218 234 255
218 234 255
218 234 255
218 234 255
218 234 255
218 234 255
218 234 255
218 234 255
218 234 255
218 234 255
218 234 255
218 234 255
218 234 255
218 234 255
218 234 255
218 234 255
218 234 255
218 234 255
218 234 255
218 234 255
218 234 255
218 234 255
218 234 255
218 234 255
218 234 255
218 234 255
218 234 255
218 234 255
218 234 255
218 234 255
218 234 255
218 234 255
218 234 255
218 234 255
218 234 255
218 234 255
218 234 255
218 234 255
218 234 255
218 234 255
218 234 255
218 234 255
218 234 255
218 234 255
218 234 255
218 234 255
218 234 255
218 234 255
218 234 255
218 234 255
218 234 255
218 234 255
218 234 255
218 234 255
218 234 255
218 234 255
218 234 255
218 234 255
218 234 255
218 234 255
218 234 255
218 234 255
218 234 255
218 234 255
218 234 255
218 234 255
218 234 255
218 234 255
218 234 255
218 234 255
218 234 255
218 234 255
218 234 255
218 234 255
218 234 255
218 234 255
218 234 255
218 234 255
218 234 255
218 234 255
218 234 255
218 234 255
218 234 255
218 234 255
218 234 255
218 234 255
218 234 255
218 234 255
218 234 255
218 234 255
218 234 255
218 234 255
213 229 251
72 77 136
0 0 113
0 0 113
0 0 113
0 0 113
0 0 113
0 0 113
0 0 113
0 0 113
0 0 113
0 0 113
0 0 113
0 0 113
0 0 113
0 0 113
0 0 113
0 0 114
5 6 115
12 14 114
8 9 113
0 0 113
0 0 113
0 0 113
0 0 113
0 0 113
0 0 113
0 0 113
0 0 113
0 0 113
0 0 113
0 0 113
0 0 113
0 0 113
0 0 113
0 0 113
2 2 113
6 7 113
7 8 113
5 6 113
9 10 112
12 15 114
0 17 111
13 18 120
16 32 125
31 56 129
49 69 132
101 108 153
177 175 169
164 163 160
50 74 150
30 62 138
101 107 152
150 161 157
134 148 124
113 138 84
106 128 50
110 125 87
114 120 91
124 131 108
140 145 127
150 153 138
158 161 149
163 166 157
161 161 150
170 169 154
178 178 171
177 181 169
161 165 151
140 144 130
159 164 149
164 167 151
159 165 152
157 162 146
153 159 144
149 156 141
143 153 130
129 147 129
67 110 156
17 54 135
25 28 117
16 29 120
13 28 120
4 20 118
0 12 117
6 10 114
6 10 112
0 0 113
0 0 113
0 0 113
0 0 113
0 0 113
0 0 113
0 0 113
0 0 113
0 0 113
0 0 113
0 0 113
0 0 113
0 0 113
0 0 113
0 0 113
4 9 112
7 17 114
19 15 118
50 80 129
105 134 127
119 140 88
111 131 83
101 132 68
68 81 113
25 14 118
12 10 108
23 17 116
22 14 115
17 5 118
18 21 112
7 13 115
14 20 114
0 0 113
0 0 113
0 0 113
0 0 113
0 0 113
0 0 113
0 0 113
0 0 113
0 0 113
0 0 113
0 0 113
0 0 113
0 0 113
0 0 113
0 0 113
0 0 113
0 0 113
0 0 113
0 0 113
0 0 113
0 0 113
0 0 113
0 0 113
0 0 113
0 0 113
0 0 113
0 0 113
0 0 113
0 0 113
0 0 113
0 0 113
0 0 113
0 0 113
0 0 113
0 0 113
0 0 113
0 0 113
0 0 113
0 0 113
0 0 113
0 0 113
0 0 113
0 0 113
0 0 113
0 0 113
0 0 113
0 0 113
0 0 113
0 0 113
0 0 113
0 0 113
0 0 113
0 0 113
0 0 113
0 0 113
0 0 113
0 0 113
0 0 113
0 0 113
0 0 113
0 0 113
0 0 113
4 5 113
75 81 138
212 228 250
218 234 255
218 234 255
218 234 255
218 234 255
218 234 255
218 234 255
218 234 255
218 234 255
218 234 255
218 234 255
218 234 255
218 234 255
218 234 255
218 234 255
218 234 255
218 234 255
218 234 255
218 234 255
218 234 255
218 234 255
218 234 255
218 234 255
218 234 255
218 234 255
218 234 255
218 234 255
218 234 255
218 234 255
218 234 255
218 234 255
218 234 255
218 234 255
218 234 255
218 234 255
218 234 255
218 234 255
218 234 255
218 234 255
218 234 255
218 234 255
218 234 255
218 234 255
218 234 255
218 234 255
218 234 255
218 234 255
218 234 255
218 234 255
218 234 255
218 234 255
218 234 255
218 234 255
218 234 255
218 234 255
218 234 255
218 234 255
218 234 255
218 234 255
218 234 255
218 234 255
218 234 255
218 234 255
218 234 255
218 234 255
218 234 255
218 234 255
218 234 255
218 234 255
218 234 255
218 234 255
218 234 255
218 234 255
218 234 255
218 234 255
218 234 255
218 234 255
218 234 255
218 234 255
218 234 255
218 234 255
218 234 255
218 234 255
218 234 255
218 234 255
218 234 255
218 234 255
218 234 255
218 234 255
218 234 255
218 234 255
218 234 255
218 234 255
218 234 255
218 234 255
218 234 255
218 234 255
218 234 255
218 234 255
218 234 255
218 234 255
218 234 255
218 234 255
218 234 255
218 234 255
218 234 255
218 234 255
218 234 255
218 234 255
218 234 255
218 234 255
218 234 255
218 234 255
218 234 255
218 234 255
218 234 255
218 234 255
218 234 255
218 234 255
218 234 255
218 234 255
218 234 255
218 234 255
218 234 255
218 234 255
218 234 255
218 234 255
218 234 255
218 234 255
218 234 255
218 234 255
218 234 255
218 234 255
218 234 255
218 234 255
218 234 255
218 234 255
218 234 255
218 234 255
218 234 255
218 234 255
218 234 255
218 234 255
218 234 255
218 234 255
218 234 255
218 234 255
218 234 255
218 234 255
218 234 255
218 234 255
218 234 255
218 234 255
218 234 255
218 234 255
218 234 255
218 234 255
218 234 255
218 234 255
218 234 255
218 234 255
218 234 255
218 234 255
218 234 255
218 234 255
218 234 255
218 234 255
218 234 255
218 234 255
218 234 255
218 234 255
218 234 255
218 234 255
218 234 255
218 234 255
218 234 255
218 234 255
218 234 255
218 234 255
218 234 255
218 234 255
218 234 255
218 234 255
218 234 255
218 234 255
218 234 255
218 234 255
218 234 255
218 234 255
218 234 255
218 234 255
218 234 255
218 234 255
218 234 255
218 234 255
218 234 255
218 234 255
218 234 255
218 234 255
218 234 255
218 234 255
218 234 255
218 234 255
218 234 255
218 234 255
218 234 255
218 234 255
218 234 255
218 234 255
218 234 255
218 234 255
218 234 255
218 234 255
218 234 255
218 234 255
218 234 255
218 234 255
160 172 203
0 0 113
0 0 112
0 0 113
0 0 113
0 0 113
0 0 113
0 0 113
0 0 113
0 0 113
0 0 113
0 0 113
0 0 113
0 0 113
0 0 113
0 0 113
0 0 113
0 0 114
8 9 115
7 8 113
0 0 113
0 0 113
0 0 113
0 0 113
0 0 113
0 0 113
0 0 113
0 0 113
0 0 113
0 0 113
0 0 113
0 0 113
0 0 113
0 0 113
0 0 113
0 0 113
1 1 113
3 3 112
2 2 113
9 10 114
12 14 114
4 4 113
0 15 116
0 26 122
6 36 128
35 44 133
110 126 152
170 182 188
194 196 192
156 154 155
93 106 148
26 56 137
35 58 148
103 139 165
158 161 139
121 144 104
105 132 75
103 127 68
118 124 101
125 132 109
140 145 129
149 153 139
159 162 148
168 170 159
163 163 150
177 176 160
178 178 169
167 171 157
165 169 151
158 164 142
168 175 155
161 167 149
162 169 155
169 173 159
167 169 155
160 163 151
149 155 138
116 135 139
12 64 133
22 39 126
22 30 127
16 29 120
13 27 120
16 24 120
11 20 118
7 10 113
0 0 112
0 0 113
0 0 113
0 0 113
0 0 113
0 0 113
0 0 113
0 0 113
0 0 113
0 0 113
0 0 113
0 0 113
0 0 113
0 0 113
0 0 113
0 0 113
1 6 113
13 12 112
8 17 115
20 28 120
81 102 117
114 137 81
115 135 83
108 133 77
97 119 95
31 30 109
15 19 116
16 33 123
15 40 125
10 28 117
12 20 117
13 15 108
17 9 114
0 0 113
0 0 113
0 0 113
0 0 113
0 0 113
0 0 113
0 0 112
0 0 113
0 0 113
0 0 113
0 0 113
0 0 113
0 0 113
0 0 113
0 0 113
0 0 113
0 0 113
0 0 113
0 0 113
0 0 113
0 0 113
0 0 113
0 0 113
0 0 113
0 0 113
0 0 113
0 0 113
0 0 113
0 0 113
0 0 113
0 0 113
0 0 113
0 0 113
0 0 113
0 0 113
0 0 113
0 0 113
0 0 113
0 0 113
0 0 113
0 0 113
0 0 113
0 0 113
0 0 113
0 0 113
0 0 113
0 0 113
0 0 113
0 0 113
0 0 113
0 0 113
0 0 113
0 0 113
0 0 113
0 0 113
0 0 113
0 0 113
0 0 113
0 0 113
0 0 113
0 0 113
0 0 113
0 0 113
6 7 113
141 151 187
218 234 255
218 234 255
218 234 255
218 234 255
218 234 255
218 234 255
218 234 255
218 234 255
218 234 255
218 234 255
218 234 255
218 234 255
218 234 255
218 234 255
218 234 255
218 234 255
218 234 255
218 234 255
218 234 255
218 234 255
218 234 255
218 234 255
218 234 255
218 234 255
218 234 255
218 234 255
218 234 255
218 234 255
218 234 255
218 234 255
218 234 255
218 234 255
218 234 255
218 234 255
218 234 255
218 234 255
218 234 255
218 234 255
218 234 255
218 234 255
218 234 255
218 234 255
218 234 255
218 234 255
218 234 255
218 234 255
218 234 255
218 234 255
218 234 255
218 234 255
218 234 255
218 234 255
218 234 255
218 234 255
218 234 255
218 234 255
218 234 255
218 234 255
218 234 255
218 234 255
218 234 255
218 234 255
218 234 255
218 234 255
218 234 255
218 234 255
218 234 255
218 234 255
218 234 255
218 234 255
218 234 255
218 234 255
218 234 255
218 234 255
218 234 255
218 234 255
218 234 255
218 234 255
218 234 255
218 234 255
218 234 255
218 234 255
218 234 255
218 234 255
218 234 255
218 234 255
218 234 255
218 234 255
218 234 255
218 234 255
218 234 255
218 234 255
218 234 255
218 234 255
218 234 255
218 234 255
218 234 255
218 234 255
218 234 255
218 234 255
218 234 255
218 234 255
218 234 255
218 234 255
218 234 255
218 234 255
218 234 255
218 234 255
218 234 255
218 234 255
218 234 255
218 234 255
218 234 255
218 234 255
218 234 255
218 234 255
218 234 255
218 234 255
218 234 255
218 234 255
218 234 255
218 234 255
218 234 255
218 234 255
218 234 255
218 234 255
218 234 255
218 234 255
218 234 255
218 234 255
218 234 255
218 234 255
218 234 255
218 234 255
218 234 255
218 234 255
218 234 255
218 234 255
218 234 255
218 234 255
218 234 255
218 234 255
218 234 255
218 234 255
218 234 255
218 234 255
218 234 255
218 234 255
218 234 255
218 234 255
218 234 255
218 234 255
218 234 255
218 234 255
218 234 255
218 234 255
218 234 255
218 234 255
218 234 255
218 234 255
218 234 255
218 234 255
218 234 255
218 234 255
218 234 255
218 234 255
218 234 255
218 234 255
218 234 255
218 234 255
218 234 255
218 234 255
218 234 255
218 234 255
218 234 255
218 234 255
218 234 255
218 234 255
218 234 255
218 234 255
218 234 255
218 234 255
218 234 255
218 234 255
218 234 255
218 234 255
218 234 255
218 234 255
218 234 255
218 234 255
218 234 255
218 234 255
218 234 255
218 234 255
218 234 255
218 234 255
218 234 255
218 234 255
218 234 255
218 234 255
218 234 255
218 234 255
218 234 255
218 234 255
218 234 255
218 234 255
218 234 255
218 234 255
218 234 255
218 234 255
218 234 255
218 234 255
218 234 255
218 234 255
218 234 255
203 218 242
43 46 122
0 0 113
0 0 113
0 0 113
0 0 113
0 0 113
0 0 113
0 0 113
0 0 113
0 0 113
0 0 113
0 0 113
0 0 113
0 0 113
0 0 113
0 6 113
0 0 113
0 0 113
5 5 113
0 0 113
0 0 113
0 0 113
0 0 113
0 0 113
0 0 113
0 0 113
0 0 113
0 0 113
0 0 113
0 0 113
0 0 113
0 0 113
0 0 113
0 0 113
0 0 113
0 0 113
0 0 113
0 0 113
0 0 113
8 9 113
10 11 113
0 5 113
6 17 116
9 21 119
0 23 120
16 36 127
61 94 152
157 165 179
178 189 185
162 159 152
126 135 141
39 73 143
27 50 130
57 114 166
126 165 173
139 154 129
104 135 61
99 127 50
108 122 84
117 126 98
129 136 119
136 143 126
151 155 139
165 168 155
175 177 165
193 196 184
187 188 176
167 168 154
166 171 159
161 165 142
167 170 151
163 168 154
154 159 141
167 173 158
169 173 159
158 164 145
151 158 135
112 139 142
22 59 134
25 39 133
24 42 126
8 19 117
6 20 117
14 22 119
13 24 117
11 15 114
0 0 113
0 0 113
0 0 113
0 0 113
0 0 113
0 0 112
0 0 113
0 0 113
0 0 113
0 0 113
0 0 113
0 0 113
0 0 113
0 0 113
0 0 113
0 0 113
4 3 113
23 9 113
15 22 114
15 11 114
30 43 126
92 128 119
115 138 81
102 125 85
106 124 77
73 74 119
7 21 116
44 54 125
46 69 128
40 59 126
46 59 125
18 25 110
15 0 114
0 0 113
0 0 113
0 0 113
0 0 113
0 0 113
0 0 113
0 0 113
0 0 113
0 0 113
0 0 112
0 0 113
0 0 113
0 0 113
0 0 113
0 0 113
0 0 113
0 0 113
0 0 113
0 0 113
0 0 113
0 0 113
0 0 113
0 0 113
0 0 113
0 0 113
0 0 113
0 0 113
0 0 113
0 0 113
0 0 113
0 0 113
0 0 113
0 0 113
0 0 113
0 0 113
0 0 113
0 0 113
0 0 113
0 0 113
0 0 113
0 0 113
0 0 113
0 0 113
0 0 113
0 0 113
0 0 113
0 0 113
0 0 113
0 0 113
0 0 113
0 0 113
0 0 113
0 0 113
0 0 113
0 0 113
0 0 113
0 0 113
0 0 113
0 0 113
0 0 113
0 0 113
0 0 113
0 0 113
1 1 113
33 35 117
197 212 237
218 234 255
218 234 255
218 234 255
218 234 255
218 234 255
218 234 255
218 234 255
218 234 255
218 234 255
218 234 255
218 234 255
218 234 255
218 234 255
218 234 255
218 234 255
218 234 255
218 234 255
218 234 255
218 234 255
218 234 255
218 234 255
218 234 255
218 234 255
218 234 255
218 234 255
218 234 255
218 234 255
218 234 255
218 234 255
218 234 255
218 234 255
218 234 255
218 234 255
218 234 255
218 234 255
218 234 255
218 234 255
218 234 255
218 234 255
218 234 255
218 234 255
218 234 255
218 234 255
218 234 255
218 234 255
218 234 255
218 234 255
218 234 255
218 234 255
218 234 255
218 234 255
218 234 255
218 234 255
218 234 255
218 234 255
218 234 255
218 234 255
218 234 255
218 234 255
218 234 255
218 234 255
218 234 255
218 234 255
218 234 255
218 234 255
218 234 255
218 234 255
218 234 255
218 234 255
218 234 255
218 234 255
218 234 255
218 234 255
218 234 255
218 234 255
218 234 255
218 234 255
218 234 255
218 234 255
218 234 255
218 234 255
218 234 255
218 234 255
218 234 255
218 234 255
218 234 255
218 234 255
218 234 255
218 234 255
218 234 255
218 234 255
218 234 255
218 234 255
218 234 255
218 234 255
218 234 255
218 234 255
218 234 255
218 234 255
218 234 255
218 234 255
218 234 255
218 234 255
218 234 255
218 234 255
218 234 255
218 234 255
218 234 255
218 234 255
218 234 255
218 234 255
218 234 255
218 234 255
218 234 255
218 234 255
218 234 255
218 234 255
218 234 255
218 234 255
218 234 255
218 234 255
218 234 255
218 234 255
218 234 255
218 234 255
218 234 255
218 234 255
218 234 255
218 234 255
218 234 255
218 234 255
218 234 255
218 234 255
218 234 255
218 234 255
218 234 255
218 234 255
218 234 255
218 234 255
218 234 255
218 234 255
218 234 255
218 234 255
218 234 255
218 234 255
218 234 255
218 234 255
218 234 255
218 234 255
218 234 255
218 234 255
218 234 255
218 234 255
218 234 255
218 234 255
218 234 255
218 234 255
218 234 255
218 234 255
218 234 255
218 234 255
218 234 255
218 234 255
218 234 255
218 234 255
218 234 255
218 234 255
218 234 255
218 234 255
218 234 255
218 234 255
218 234 255
218 234 255
218 234 255
218 234 255
218 234 255
218 234 255
218 234 255
218 234 255
218 234 255
218 234 255
218 234 255
218 234 255
218 234 255
218 234 255
218 234 255
218 234 255
218 234 255
218 234 255
218 234 255
218 234 255
218 234 255
218 234 255
218 234 255
218 234 255
218 234 255
218 234 255
218 234 255
218 234 255
218 234 255
218 234 255
218 234 255
218 234 255
218 234 255
218 234 255
218 234 255
218 234 255
218 234 255
218 234 255
218 234 255
218 234 255
218 234 255
218 234 255
218 234 255
107 114 159
0 0 113
0 0 113
0 0 113
0 0 113
0 0 113
0 0 113
0 0 113
0 0 113
0 0 113
0 0 113
0 0 113
0 0 113
0 0 113
0 0 113
0 0 113
0 0 113
0 0 113
0 0 113
0 0 113
0 0 113
0 0 113
0 0 113
0 0 113
0 0 113
0 0 113
0 0 113
0 0 113
0 0 113
0 0 113
0 0 113
0 0 113
0 0 113
0 0 113
0 0 113
0 0 113
0 0 113
0 0 112
0 0 113
0 0 113
1 1 113
6 7 113
0 0 113
6 7 114
11 14 116
15 20 117
11 30 116
19 38 123
42 65 137
92 137 171
135 155 170
151 147 135
109 114 149
26 51 137
24 51 136
61 145 183
129 180 174
111 137 97
102 129 61
102 123 70
111 121 82
112 121 93
133 140 120
148 154 138
163 166 151
180 185 176
195 199 188
186 190 178
171 175 169
169 173 163
166 168 156
176 179 169
158 164 152
142 148 127
158 166 148
169 177 161
161 169 149
152 162 134
130 151 139
50 61 135
27 45 131
11 17 117
0 12 113
6 16 115
6 18 116
0 16 116
0 10 113
0 0 112
0 0 113
0 0 113
0 0 113
0 0 113
0 0 113
0 0 113
0 0 113
0 0 113
0 0 113
0 0 113
0 0 113
0 0 113
0 0 113
0 0 113
0 0 113
2 0 113
13 6 113
3 22 110
17 23 117
13 30 131
55 91 143
94 126 94
100 124 57
113 128 78
79 82 112
16 30 118
22 32 115
30 42 110
28 39 115
52 63 126
31 40 115
10 18 117
3 7 113
0 0 113
0 0 113
0 0 113
0 0 113
0 0 113
0 0 113
0 0 113
0 0 113
0 0 113
0 0 113
0 0 113
0 0 113
0 0 113
0 0 113
0 0 113
0 0 113
0 0 113
0 0 113
0 0 113
0 0 113
0 0 113
0 0 113
0 0 113
0 0 113
0 0 113
0 0 113
0 0 113
0 0 113
0 0 113
0 0 113
0 0 113
0 0 113
0 0 113
0 0 113
0 0 113
0 0 113
0 0 113
0 0 113
0 0 113
0 0 113
0 0 113
0 0 113
0 0 113
0 0 113
0 0 113
0 0 113
0 0 113
0 0 113
0 0 113
0 0 113
0 0 113
0 0 113
0 0 113
0 0 113
0 0 113
0 0 113
0 0 113
0 0 113
0 0 113
0 0 113
0 0 113
0 0 113
0 0 113
5 6 113
123 133 172
218 234 255
218 234 255
218 234 255
218 234 255
218 234 255
218 234 255
218 234 255
218 234 255
218 234 255
218 234 255
218 234 255
218 234 255
218 234 255
218 234 255
218 234 255
218 234 255
218 234 255
218 234 255
218 234 255
218 234 255
218 234 255
218 234 255
218 234 255
218 234 255
218 234 255
218 234 255
218 234 255
218 234 255
218 234 255
218 234 255
218 234 255
218 234 255
218 234 255
218 234 255
218 234 255
218 234 255
218 234 255
218 234 255
218 234 255
218 234 255
218 234 255
218 234 255
218 234 255
218 234 255
218 234 255
218 234 255
218 234 255
218 234 255
218 234 255
218 234 255
218 234 255
218 234 255
218 234 255
218 234 255
218 234 255
218 234 255
218 234 255
218 234 255
218 234 255
218 234 255
218 234 255
218 234 255
218 234 255
218 234 255
218 234 255
218 234 255
218 234 255
218 234 255
218 234 255
218 234 255
218 234 255
218 234 255
218 234 255
218 234 255
218 234 255
218 234 255
218 234 255
218 234 255
218 234 255
218 234 255
218 234 255
218 234 255
218 234 255
218 234 255
218 234 255
218 234 255
218 234 255
218 234 255
218 234 255
218 234 255
218 234 255
218 234 255
218 234 255
218 234 255
218 234 255
218 234 255
218 234 255
218 234 255
218 234 255
218 234 255
218 234 255
218 234 255
218 234 255
218 234 255
218 234 255
218 234 255
218 234 255
218 234 255
218 234 255
218 234 255
218 234 255
218 234 255
218 234 255
218 234 255
218 234 255
218 234 255
218 234 255
218 234 255
218 234 255
218 234 255
218 234 255
218 234 255
218 234 255
218 234 255
218 234 255
218 234 255
218 234 255
218 234 255
218 234 255
218 234 255
218 234 255
218 234 255
218 234 255
218 234 255
218 234 255
218 234 255
218 234 255
218 234 255
218 234 255
218 234 255
218 234 255
218 234 255
218 234 255
218 234 255
218 234 255
218 234 255
218 234 255
218 234 255
218 234 255
218 234 255
218 234 255
218 234 255
218 234 255
218 234 255
218 234 255
218 234 255
218 234 255
218 234 255
218 234 255
218 234 255
218 234 255
218 234 255
218 234 255
218 234 255
218 234 255
218 234 255
218 234 255
218 234 255
218 234 255
218 234 255
218 234 255
218 234 255
218 234 255
218 234 255
218 234 255
218 234 255
218 234 255
218 234 255
218 234 255
218 234 255
218 234 255
218 234 255
218 234 255
218 234 255
218 234 255
218 234 255
218 234 255
218 234 255
218 234 255
218 234 255
218 234 255
218 234 255
218 234 255
218 234 255
218 234 255
218 234 255
218 234 255
218 234 255
218 234 255
218 234 255
218 234 255
218 234 255
218 234 255
218 234 255
218 234 255
218 234 255
218 234 255
218 234 255
218 234 255
218 234 255
218 234 255
218 234 255
218 234 255
170 182 212
0 0 113
0 0 113
0 0 113
0 0 113
0 0 113
0 0 113
0 0 113
0 0 113
0 0 113
0 0 113
0 0 113
0 0 113
0 0 113
0 0 113
0 0 113
0 0 113
0 0 113
0 0 113
0 0 113
0 0 113
0 0 113
0 0 113
0 0 113
0 0 113
0 0 113
0 0 113
0 0 113
0 0 113
0 0 113
0 0 113
0 0 113
0 0 113
0 0 113
0 0 113
0 0 113
0 0 113
0 0 113
0 0 113
0 0 113
0 0 113
0 0 113
6 4 113
0 4 113
5 6 114
12 18 117
20 20 118
27 22 114
18 28 120
16 35 133
26 81 154
80 126 179
154 164 153
116 130 141
36 58 145
34 40 129
54 122 163
135 160 145
132 146 114
113 143 70
95 129 66
102 120 77
108 120 88
124 134 112
146 151 135
152 155 139
160 162 147
171 175 160
184 190 181
194 202 203
186 194 188
172 175 168
160 166 155
135 144 124
142 154 135
153 164 149
165 173 159
160 164 148
151 161 135
132 142 140
57 63 126
15 39 115
23 15 116
0 9 112
5 5 113
7 7 115
0 0 115
0 13 113
0 8 113
0 0 113
0 0 113
0 0 113
0 0 113
0 0 113
0 0 113
0 0 113
0 0 113
0 0 113
0 0 113
0 0 113
0 0 113
0 0 113
0 0 113
0 0 113
0 0 113
6 15 113
7 17 114
13 11 116
15 24 111
21 35 129
42 90 142
92 110 84
115 132 86
63 75 127
27 11 112
15 46 129
14 42 128
13 38 125
11 31 114
22 30 111
10 17 111
0 6 113
0 0 113
0 0 113
0 0 113
0 0 113
0 0 113
0 0 113
0 0 113
0 0 113
0 0 113
0 0 113
0 0 112
0 0 113
0 0 113
0 0 113
0 0 113
0 0 113
0 0 113
0 0 113
0 0 113
0 0 113
0 0 113
0 0 113
0 0 113
0 0 113
0 0 113
0 0 113
0 0 113
0 0 113
0 0 113
0 0 113
0 0 113
0 0 112
0 0 113
0 0 113
0 0 113
0 0 113
0 0 113
0 0 113
0 0 113
0 0 113
0 0 113
0 0 113
0 0 113
0 0 113
0 0 113
0 0 113
0 0 113
0 0 113
0 0 113
0 0 113
0 0 113
0 0 113
0 0 113
0 0 113
0 0 113
0 0 113
0 0 113
0 0 113
0 0 113
0 0 113
0 0 113
0 0 113
0 0 113
0 0 113
15 17 114
156 167 199
218 234 255
218 234 255
218 234 255
218 234 255
218 234 255
218 234 255
218 234 255
218 234 255
218 234 255
218 234 255
218 234 255
218 234 255
218 234 255
218 234 255
218 234 255
218 234 255
218 234 255
218 234 255
218 234 255
218 234 255
218 234 255
218 234 255
218 234 255
218 234 255
218 234 255
218 234 255
218 234 255
218 234 255
218 234 255
218 234 255
218 234 255
218 234 255
218 234 255
218 234 255
218 234 255
218 234 255
218 234 255
218 234 255
218 234 255
218 234 255
218 234 255
218 234 255
218 234 255
218 234 255
218 234 255
218 234 255
218 234 255
218 234 255
218 234 255
218 234 255
218 234 255
218 234 255
218 234 255
218 234 255
218 234 255
218 234 255
218 234 255
218 234 255
218 234 255
218 234 255
218 234 255
218 234 255
218 234 255
218 234 255
218 234 255
218 234 255
218 234 255
218 234 255
218 234 255
218 234 255
218 234 255
218 234 255
218 234 255
218 234 255
218 234 255
218 234 255
218 234 255
218 234 255
218 234 255
218 234 255
218 234 255
218 234 255
218 234 255
218 234 255
218 234 255
218 234 255
218 234 255
218 234 255
218 234 255
218 234 255
218 234 255
218 234 255
218 234 255
218 234 255
218 234 255
218 234 255
218 234 255
218 234 255
218 234 255
218 234 255
218 234 255
218 234 255
218 234 255
218 234 255
218 234 255
218 234 255
218 234 255
218 234 255
218 234 255
218 234 255
218 234 255
218 234 255
218 234 255
218 234 255
218 234 255
218 234 255
218 234 255
218 234 255
218 234 255
218 234 255
218 234 255
218 234 255
218 234 255
218 234 255
218 234 255
218 234 255
218 234 255
218 234 255
218 234 255
218 234 255
218 234 255
218 234 255
218 234 255
218 234 255
218 234 255
218 234 255
218 234 255
218 234 255
218 234 255
218 234 255
218 234 255
218 234 255
218 234 255
218 234 255
218 234 255
218 234 255
218 234 255
218 234 255
218 234 255
218 234 255
218 234 255
218 234 255
218 234 255
218 234 255
218 234 255
218 234 255
218 234 255
218 234 255
218 234 255
218 234 255
218 234 255
218 234 255
218 234 255
218 234 255
218 234 255
218 234 255
218 234 255
218 234 255
218 234 255
218 234 255
218 234 255
218 234 255
218 234 255
218 234 255
218 234 255
218 234 255
218 234 255
218 234 255
218 234 255
218 234 255
218 234 255
218 234 255
218 234 255
218 234 255
218 234 255
218 234 255
218 234 255
218 234 255
218 234 255
218 234 255
218 234 255
218 234 255
218 234 255
218 234 255
218 234 255
218 234 255
218 234 255
218 234 255
218 234 255
218 234 255
218 234 255
218 234 255
218 234 255
218 234 255
218 234 255
218 234 255
218 234 255
218 234 255
218 234 255
218 234 255
218 234 255
215 230 252
81 87 142
0 0 113
0 0 113
0 0 113
0 0 113
0 0 113
0 0 113
0 0 113
0 0 113
0 0 113
0 0 113
0 0 113
0 0 113
0 0 113
0 0 113
0 0 113
0 0 113
0 0 113
0 0 113
0 0 113
0 0 113
0 0 113
0 0 113
0 0 113
0 0 113
0 0 113
0 0 113
0 0 113
0 0 113
0 0 113
0 0 113
0 0 113
0 0 113
0 0 113
0 0 113
0 0 113
0 0 113
0 0 113
0 0 113
0 0 113
0 0 113
5 0 113
15 7 112
10 11 114
9 17 116
5 17 118
8 26 120
17 13 107
30 16 117
8 46 126
22 57 137
57 112 169
170 175 169
136 138 140
66 86 141
16 29 121
19 84 146
88 168 182
109 166 171
121 143 99
99 129 57
101 128 69
103 115 83
125 137 111
136 147 124
150 152 136
158 157 145
163 163 149
171 173 161
173 177 166
161 163 146
161 163 148
155 161 145
142 145 125
123 138 110
141 155 138
146 157 139
150 157 140
137 149 141
49 63 129
11 32 125
0 22 110
19 4 114
0 1 113
0 0 113
0 0 113
0 0 113
0 0 113
0 0 113
0 0 113
0 0 113
0 0 113
0 0 113
0 0 113
0 0 113
0 0 113
0 0 113
0 0 113
0 0 113
0 0 113
0 0 113
0 0 113
0 0 113
0 0 113
0 0 113
14 16 112
20 15 113
16 16 116
8 17 118
10 33 121
14 50 129
54 95 141
61 95 131
33 40 120
17 25 108
17 41 131
35 56 131
52 64 120
31 52 115
31 41 118
14 32 115
11 31 112
16 12 114
6 7 113
5 6 113
10 11 114
2 2 112
0 0 113
0 0 113
0 0 113
0 0 113
0 0 113
0 0 113
0 0 113
0 0 112
0 0 113
0 0 113
0 0 113
0 0 113
0 0 113
0 0 113
0 0 113
0 0 113
0 0 113
0 0 113
0 0 113
0 0 113
0 0 113
0 0 113
0 0 113
0 0 113
0 0 113
0 0 113
0 0 113
0 0 113
0 0 113
0 0 113
0 0 113
0 0 113
0 0 113
0 0 113
0 0 113
0 0 113
0 0 113
0 0 113
0 0 113
0 0 113
0 0 113
0 0 113
0 0 113
0 0 113
0 0 113
0 0 113
0 0 113
0 0 113
0 0 113
0 0 113
0 0 113
0 0 113
0 0 113
0 0 113
0 0 113
0 0 113
0 0 113
0 0 113
0 0 113
4 5 113
83 89 137
213 228 250
218 234 255
218 234 255
218 234 255
218 234 255
218 234 255
218 234 255
218 234 255
218 234 255
218 234 255
218 234 255
218 234 255
218 234 255
218 234 255
218 234 255
218 234 255
218 234 255
218 234 255
218 234 255
218 234 255
218 234 255
218 234 255
218 234 255
218 234 255
218 234 255
218 234 255
218 234 255
218 234 255
218 234 255
218 234 255
218 234 255
218 234 255
218 234 255
218 234 255
218 234 255
218 234 255
218 234 255
218 234 255
218 234 255
218 234 255
218 234 255
218 234 255
218 234 255
218 234 255
218 234 255
218 234 255
218 234 255
218 234 255
218 234 255
218 234 255
218 234 255
218 234 255
218 234 255
218 234 255
218 234 255
218 234 255
218 234 255
218 234 255
218 234 255
218 234 255
218 234 255
218 234 255
218 234 255
218 234 255
218 234 255
218 234 255
218 234 255
218 234 255
218 234 255
218 234 255
218 234 255
218 234 255
218 234 255
218 234 255
218 234 255
218 234 255
218 234 255
218 234 255
218 234 255
218 234 255
218 234 255
218 234 255
218 234 255
218 234 255
218 234 255
218 234 255
218 234 255
218 234 255
218 234 255
218 234 255
218 234 255
218 234 255
218 234 255
218 234 255
218 234 255
218 234 255
218 234 255
218 234 255
218 234 255
218 234 255
218 234 255
218 234 255
218 234 255
218 234 255
218 234 255
218 234 255
218 234 255
218 234 255
218 234 255
218 234 255
218 234 255
218 234 255
218 234 255
218 234 255
218 234 255
218 234 255
218 234 255
218 234 255
218 234 255
218 234 255
218 234 255
218 234 255
218 234 255
218 234 255
218 234 255
218 234 255
218 234 255
218 234 255
218 234 255
218 234 255
218 234 255
218 234 255
218 234 255
218 234 255
218 234 255
218 234 255
218 234 255
218 234 255
218 234 255
218 234 255
218 234 255
218 234 255
218 234 255
218 234 255
218 234 255
218 234 255
218 234 255
218 234 255
218 234 255
218 234 255
218 234 255
218 234 255
218 234 255
218 234 255
218 234 255
218 234 255
218 234 255
218 234 255
218 234 255
218 234 255
218 234 255
218 234 255
218 234 255
218 234 255
218 234 255
218 234 255
218 234 255
218 234 255
218 234 255
218 234 255
218 234 255
218 234 255
218 234 255
218 234 255
218 234 255
218 234 255
218 234 255
218 234 255
218 234 255
218 234 255
218 234 255
218 234 255
218 234 255
218 234 255
218 234 255
218 234 255
218 234 255
218 234 255
218 234 255
218 234 255
218 234 255
218 234 255
218 234 255
218 234 255
218 234 255
218 234 255
218 234 255
218 234 255
218 234 255
218 234 255
218 234 255
218 234 255
218 234 255
218 234 255
218 234 255
218 234 255
218 234 255
218 234 255
218 234 255
218 234 255
218 234 255
157 168 200
0 0 113
0 0 113
0 0 113
0 0 113
0 0 113
0 0 113
0 0 113
0 0 113
0 0 113
0 0 113
0 0 113
0 0 113
0 0 113
0 0 113
0 0 113
0 0 113
0 0 113
0 0 113
0 0 113
0 0 113
0 0 112
0 0 113
0 0 113
0 0 113
0 0 113
0 0 113
0 0 113
0 0 113
0 0 113
0 0 113
0 0 113
0 0 113
0 0 113
0 0 113
0 0 113
0 0 113
0 0 113
0 0 113
0 0 113
0 0 113
0 0 113
1 0 113
2 1 113
0 0 113
0 0 113
0 0 113
10 11 114
11 14 115
3 23 120
8 40 128
12 51 135
97 140 172
178 184 184
157 159 147
76 93 139
18 34 129
37 27 118
23 71 138
54 132 173
119 158 149
113 140 77
96 127 57
102 119 60
117 122 90
129 140 122
141 151 130
149 148 133
158 157 147
168 167 155
174 176 167
167 166 153
167 169 156
167 170 156
168 172 160
127 140 109
131 147 119
126 140 106
138 151 127
110 125 123
38 50 125
9 18 119
13 16 110
22 19 117
0 0 113
0 0 113
0 0 113
0 0 113
0 0 113
0 0 113
0 0 113
0 0 113
0 0 113
0 0 113
0 0 113
0 0 113
0 0 113
0 0 113
0 0 113
0 0 113
0 0 113
0 0 113
0 0 113
0 0 113
0 0 113
0 0 113
11 15 111
11 17 110
22 21 112
16 17 115
19 32 120
29 50 127
15 60 134
4 40 121
14 11 112
28 0 113
21 25 127
45 62 124
100 126 115
40 56 115
29 48 129
25 38 122
17 33 115
22 27 116
7 12 112
7 9 113
12 11 112
13 7 113
0 0 113
0 0 113
0 0 113
0 0 113
0 0 113
0 0 113
0 0 113
0 0 113
0 0 113
0 0 113
0 0 113
0 0 113
0 0 113
0 0 113
0 0 113
0 0 113
0 0 113
0 0 113
0 0 113
0 0 113
0 0 113
0 0 113
0 0 113
0 0 113
0 0 113
0 0 113
0 0 113
0 0 113
0 0 113
0 0 113
0 0 113
0 0 113
0 0 113
0 0 113
0 0 113
0 0 113
0 0 112
0 0 113
0 0 113
0 0 113
0 0 113
0 0 113
0 0 113
0 0 113
0 0 113
0 0 113
0 0 113
0 0 113
0 0 113
0 0 113
0 0 113
0 0 113
0 0 113
0 0 113
0 0 113
0 0 113
0 0 113
0 0 113
0 0 113
0 0 113
21 25 113
169 182 210
218 234 255
218 234 255
218 234 255
218 234 255
218 234 255
218 234 255
218 234 255
218 234 255
218 234 255
218 234 255
218 234 255
218 234 255
218 234 255
218 234 255
218 234 255
218 234 255
218 234 255
218 234 255
218 234 255
218 234 255
218 234 255
218 234 255
218 234 255
218 234 255
218 234 255
218 234 255
218 234 255
218 234 255
218 234 255
218 234 255
218 234 255
218 234 255
218 234 255
218 234 255
218 234 255
218 234 255
218 234 255
218 234 255
218 234 255
218 234 255
218 234 255
218 234 255
218 234 255
218 234 255
218 234 255
218 234 255
218 234 255
218 234 255
218 234 255
218 234 255
218 234 255
218 234 255
218 234 255
218 234 255
218 234 255
218 234 255
218 234 255
218 234 255
218 234 255
218 234 255
218 234 255
218 234 255
218 234 255
218 234 255
218 234 255
218 234 255
218 234 255
218 234 255
218 234 255
218 234 255
218 234 255
218 234 255
218 234 255
218 234 255
218 234 255
218 234 255
218 234 255
218 234 255
218 234 255
218 234 255
218 234 255
218 234 255
218 234 255
218 234 255
218 234 255
218 234 255
218 234 255
218 234 255
218 234 255
218 234 255
218 234 255
218 234 255
218 234 255
218 234 255
218 234 255
218 234 255
218 234 255
218 234 255
218 234 255
218 234 255
218 234 255
218 234 255
218 234 255
218 234 255
218 234 255
218 234 255
218 234 255
218 234 255
218 234 255
218 234 255
218 234 255
218 234 255
218 234 255
218 234 255
218 234 255
218 234 255
218 234 255
218 234 255
218 234 255
218 234 255
218 234 255
218 234 255
218 234 255
218 234 255
218 234 255
218 234 255
218 234 255
218 234 255
218 234 255
218 234 255
218 234 255
218 234 255
218 234 255
218 234 255
218 234 255
218 234 255
218 234 255
218 234 255
218 234 255
218 234 255
218 234 255
218 234 255
218 234 255
218 234 255
218 234 255
218 234 255
218 234 255
218 234 255
218 234 255
218 234 255
218 234 255
218 234 255
218 234 255
218 234 255
218 234 255
218 234 255
218 234 255
218 234 255
218 234 255
218 234 255
218 234 255
218 234 255
218 234 255
218 234 255
218 234 255
218 234 255
218 234 255
218 234 255
218 234 255
218 234 255
218 234 255
218 234 255
218 234 255
218 234 255
218 234 255
218 234 255
218 234 255
218 234 255
218 234 255
218 234 255
218 234 255
218 234 255
218 234 255
218 234 255
218 234 255
218 234 255
218 234 255
218 234 255
218 234 255
218 234 255
218 234 255
218 234 255
218 234 255
218 234 255
218 234 255
218 234 255
218 234 255
218 234 255
218 234 255
218 234 255
218 234 255
218 234 255
218 234 255
218 234 255
218 234 255
218 234 255
218 234 255
218 234 255
218 234 255
209 224 247
21 23 115
0 0 113
0 0 113
0 0 113
0 0 113
0 0 113
0 0 113
0 0 113
0 0 113
0 0 113
0 0 113
0 0 113
0 0 113
0 0 113
0 0 113
0 0 113
0 0 113
0 0 113
0 0 114
0 0 113
0 0 113
0 0 112
0 0 113
0 0 113
0 0 113
0 0 113
0 0 113
0 0 113
0 0 114
0 0 114
0 0 113
0 0 113
0 0 113
0 0 113
0 0 113
0 0 113
0 0 113
0 0 113
0 0 113
0 0 113
0 0 113
0 0 113
0 0 113
0 0 113
0 0 113
0 0 113
1 2 113
10 11 113
11 15 116
8 25 118
0 35 125
27 55 136
19 81 146
99 130 167
168 168 168
124 127 157
78 88 130
18 30 121
19 23 113
27 90 150
85 182 198
115 162 145
100 130 57
92 123 45
113 120 80
126 132 112
139 149 129
149 147 132
161 156 144
166 161 150
170 168 159
174 172 162
170 170 158
172 173 160
162 168 154
129 140 110
121 140 109
136 153 124
126 148 117
96 115 121
26 36 120
18 14 118
18 15 112
4 4 113
0 0 113
0 0 113
0 0 113
0 0 113
0 0 113
0 0 113
0 0 113
0 0 113
0 0 113
0 0 113
0 0 113
0 0 113
0 0 113
0 0 113
0 0 113
0 0 113
0 0 113
0 0 113
0 0 113
0 0 113
0 0 113
0 0 113
17 17 118
12 12 117
10 16 116
7 21 111
5 22 110
9 19 114
21 14 113
22 17 112
6 23 111
29 13 118
19 38 116
17 36 119
82 109 136
79 105 121
23 42 135
27 50 129
26 23 120
18 33 116
13 19 113
20 26 115
17 13 113
22 10 116
0 0 113
0 0 113
0 0 113
0 0 113
0 0 113
0 0 113
0 0 113
0 0 113
0 0 113
0 0 113
0 0 113
0 0 113
0 0 113
0 0 113
0 0 113
0 0 113
0 0 113
0 0 113
0 0 113
0 0 113
0 0 113
0 0 113
0 0 113
0 0 113
0 0 113
0 0 113
0 0 113
0 0 113
0 0 113
0 0 113
0 0 113
0 0 113
0 0 113
0 0 113
0 0 113
0 0 113
0 0 113
0 0 113
0 0 113
0 0 113
0 0 113
0 0 113
0 0 113
0 0 113
0 0 113
0 0 113
0 0 113
0 0 113
0 0 113
0 0 113
0 0 113
0 0 112
0 0 113
0 0 113
0 0 113
0 0 113
0 0 113
0 0 113
0 0 113
0 0 113
1 2 113
75 80 137
214 230 250
218 234 255
218 234 255
218 234 255
218 234 255
218 234 255
218 234 255
218 234 255
218 234 255
218 234 255
218 234 255
218 234 255
218 234 255
218 234 255
218 234 255
218 234 255
218 234 255
218 234 255
218 234 255
218 234 255
218 234 255
218 234 255
218 234 255
218 234 255
218 234 255
218 234 255
218 234 255
218 234 255
218 234 255
218 234 255
218 234 255
218 234 255
218 234 255
218 234 255
218 234 255
218 234 255
218 234 255
218 234 255
218 234 255
218 234 255
218 234 255
218 234 255
218 234 255
218 234 255
218 234 255
218 234 255
218 234 255
218 234 255
218 234 255
218 234 255
218 234 255
218 234 255
218 234 255
218 234 255
218 234 255
218 234 255
218 234 255
218 234 255
218 234 255
218 234 255
218 234 255
218 234 255
218 234 255
218 234 255
218 234 255
218 234 255
218 234 255
218 234 255
218 234 255
218 234 255
218 234 255
218 234 255
218 234 255
218 234 255
218 234 255
218 234 255
218 234 255
218 234 255
218 234 255
218 234 255
218 234 255
218 234 255
218 234 255
218 234 255
218 234 255
218 234 255
218 234 255
218 234 255
218 234 255
218 234 255
218 234 255
218 234 255
218 234 255
218 234 255
218 234 255
218 234 255
218 234 255
218 234 255
218 234 255
218 234 255
218 234 255
218 234 255
218 234 255
218 234 255
218 234 255
218 234 255
218 234 255
218 234 255
218 234 255
218 234 255
218 234 255
218 234 255
218 234 255
218 234 255
218 234 255
218 234 255
218 234 255
218 234 255
218 234 255
218 234 255
218 234 255
218 234 255
218 234 255
218 234 255
218 234 255
218 234 255
218 234 255
218 234 255
218 234 255
218 234 255
218 234 255
218 234 255
218 234 255
218 234 255
218 234 255
218 234 255
218 234 255
218 234 255
218 234 255
218 234 255
218 234 255
218 234 255
218 234 255
218 234 255
218 234 255
218 234 255
218 234 255
218 234 255
218 234 255
218 234 255
218 234 255
218 234 255
218 234 255
218 234 255
218 234 255
218 234 255
218 234 255
218 234 255
218 234 255
218 234 255
218 234 255
218 234 255
218 234 255
218 234 255
218 234 255
218 234 255
218 234 255
218 234 255
218 234 255
218 234 255
218 234 255
218 234 255
218 234 255
218 234 255
218 234 255
218 234 255
218 234 255
218 234 255
218 234 255
218 234 255
218 234 255
218 234 255
218 234 255
218 234 255
218 234 255
218 234 255
218 234 255
218 234 255
218 234 255
218 234 255
218 234 255
218 234 255
218 234 255
218 234 255
218 234 255
218 234 255
218 234 255
218 234 255
218 234 255
218 234 255
218 234 255
218 234 255
218 234 255
218 234 255
218 234 255
218 234 255
218 234 255
218 234 255
218 234 255
134 144 181
0 0 113
0 0 113
0 0 113
0 0 113
0 0 113
0 0 113
0 0 113
0 0 113
0 0 113
0 0 113
0 0 113
0 0 113
0 0 113
0 0 113
0 0 113
0 0 114
0 0 115
0 0 115
0 0 114
0 0 113
0 0 113
0 0 113
0 0 113
0 0 113
0 0 113
0 0 113
0 0 113
0 0 112
0 0 114
0 0 113
0 0 113
0 0 113
0 0 113
0 0 113
0 0 113
0 0 113
0 0 113
0 0 113
0 0 113
0 0 112
0 0 113
0 0 113
0 0 113
0 0 113
0 0 113
0 0 113
5 6 113
7 8 113
8 11 113
9 20 118
1 27 122
19 47 131
27 47 130
43 80 151
98 126 164
151 156 160
121 133 132
36 46 121
24 21 120
17 27 114
29 82 137
46 128 165
90 137 107
98 129 58
101 123 76
113 121 95
136 140 123
146 148 132
159 158 149
169 164 156
167 164 155
170 167 158
172 173 164
160 162 147
153 159 144
125 136 109
115 135 98
123 139 105
110 132 85
96 115 120
19 27 118
11 9 114
13 15 113
1 14 114
0 0 112
0 0 113
0 0 113
0 0 113
0 0 113
0 0 113
0 0 113
0 0 113
0 0 113
0 0 113
0 0 113
0 0 112
0 0 113
0 0 113
0 0 113
0 0 113
0 0 113
0 0 113
0 0 113
0 0 113
0 0 113
0 0 113
11 1 109
15 12 113
17 21 116
19 22 117
22 24 116
23 22 118
12 26 116
15 20 117
9 28 120
18 13 113
7 18 119
17 26 129
31 58 129
47 71 125
22 44 123
11 36 117
32 39 120
29 46 121
23 34 115
18 27 113
20 15 113
16 10 112
4 0 113
0 0 113
0 0 113
0 0 113
0 0 113
0 0 113
0 0 113
0 0 113
0 0 113
0 0 113
0 0 113
0 0 113
0 0 113
0 0 113
0 0 113
0 0 113
0 0 113
0 0 113
0 0 113
0 0 113
0 0 113
0 0 113
0 0 113
0 0 113
0 0 113
0 0 113
0 0 113
0 0 113
0 0 113
0 0 113
0 0 113
0 0 113
0 0 113
0 0 113
0 0 113
0 0 113
0 0 113
0 0 113
0 0 113
0 0 113
0 0 113
0 0 113
0 0 112
0 0 113
0 0 113
0 0 113
0 0 113
0 0 113
0 0 113
0 0 113
0 0 113
0 0 112
0 0 113
0 0 113
0 0 113
0 0 113
0 0 113
0 0 113
0 0 113
0 0 113
0 0 113
0 3 113
162 173 201
218 234 255
218 234 255
218 234 255
218 234 255
218 234 255
218 234 255
218 234 255
218 234 255
218 234 255
218 234 255
218 234 255
218 234 255
218 234 255
218 234 255
218 234 255
218 234 255
218 234 255
218 234 255
218 234 255
218 234 255
218 234 255
218 234 255
218 234 255
218 234 255
218 234 255
218 234 255
218 234 255
218 234 255
218 234 255
218 234 255
218 234 255
218 234 255
218 234 255
218 234 255
218 234 255
218 234 255
218 234 255
218 234 255
218 234 255
218 234 255
218 234 255
218 234 255
218 234 255
218 234 255
218 234 255
218 234 255
218 234 255
218 234 255
218 234 255
218 234 255
218 234 255
218 234 255
218 234 255
218 234 255
218 234 255
218 234 255
218 234 255
218 234 255
218 234 255
218 234 255
218 234 255
218 234 255
218 234 255
218 234 255
218 234 255
218 234 255
218 234 255
218 234 255
218 234 255
218 234 255
218 234 255
218 234 255
218 234 255
218 234 255
218 234 255
218 234 255
218 234 255
218 234 255
218 234 255
218 234 255
218 234 255
218 234 255
218 234 255
218 234 255
218 234 255
218 234 255
218 234 255
218 234 255
218 234 255
218 234 255
218 234 255
218 234 255
218 234 255
218 234 255
218 234 255
218 234 255
218 234 255
218 234 255
218 234 255
218 234 255
218 234 255
218 234 255
218 234 255
218 234 255
218 234 255
218 234 255
218 234 255
218 234 255
218 234 255
218 234 255
218 234 255
218 234 255
218 234 255
218 234 255
218 234 255
218 234 255
218 234 255
218 234 255
218 234 255
218 234 255
218 234 255
218 234 255
218 234 255
218 234 255
218 234 255
218 234 255
218 234 255
218 234 255
218 234 255
218 234 255
218 234 255
218 234 255
218 234 255
218 234 255
218 234 255
218 234 255
218 234 255
218 234 255
218 234 255
218 234 255
218 234 255
218 234 255
218 234 255
218 234 255
218 234 255
218 234 255
218 234 255
218 234 255
218 234 255
218 234 255
218 234 255
218 234 255
218 234 255
218 234 255
218 234 255
218 234 255
218 234 255
218 234 255
218 234 255
218 234 255
218 234 255
218 234 255
218 234 255
218 234 255
218 234 255
218 234 255
218 234 255
218 234 255
218 234 255
218 234 255
218 234 255
218 234 255
218 234 255
218 234 255
218 234 255
218 234 255
218 234 255
218 234 255
218 234 255
218 234 255
218 234 255
218 234 255
218 234 255
218 234 255
218 234 255
218 234 255
218 234 255
218 234 255
218 234 255
218 234 255
218 234 255
218 234 255
218 234 255
218 234 255
218 234 255
218 234 255
218 234 255
218 234 255
218 234 255
218 234 255
218 234 255
218 234 255
218 234 255
218 234 255
218 234 255
218 234 255
218 234 255
209 224 247
53 57 126
0 0 113
0 0 113
0 0 113
0 0 113
0 0 113
0 0 113
0 0 113
0 0 113
0 0 113
0 0 113
0 0 113
0 0 113
0 0 113
0 0 113
0 0 113
0 0 115
0 0 115
0 0 115
0 0 113
0 0 113
0 0 113
0 0 113
0 0 113
0 0 113
0 0 113
0 0 113
0 0 113
0 0 113
0 0 115
0 0 113
0 0 113
0 0 113
0 0 113
0 0 113
0 0 113
0 0 113
0 0 113
0 0 113
0 0 113
0 0 113
0 0 113
0 0 113
0 0 113
0 0 113
0 0 113
0 0 113
2 12 113
1 8 112
9 11 113
9 13 115
0 15 117
14 34 123
14 20 121
15 36 120
23 79 156
91 119 159
139 138 138
53 50 116
20 36 110
24 24 117
37 15 127
26 54 128
79 121 153
106 138 83
96 127 57
110 126 78
125 129 117
130 136 117
147 149 136
161 158 150
170 164 155
178 175 167
164 165 156
148 154 141
143 151 136
135 147 124
101 127 70
122 141 99
118 137 94
73 85 117
8 21 116
5 14 112
5 6 112
10 12 115
0 0 113
0 0 113
0 0 113
0 0 113
0 0 113
0 0 113
0 0 113
0 0 113
0 0 113
0 0 113
0 0 113
13 14 116
13 14 116
12 13 116
12 14 116
13 14 116
10 11 115
0 0 113
0 0 113
0 0 113
0 0 113
0 0 113
15 25 112
43 58 115
63 82 107
85 109 102
101 126 96
91 117 96
86 116 98
88 118 114
72 92 110
51 74 120
17 31 115
21 38 117
16 30 127
23 37 128
12 31 129
14 28 127
17 24 126
27 40 121
37 49 123
14 25 110
18 22 111
13 12 112
10 11 113
0 0 113
0 0 113
0 0 113
0 0 112
0 0 113
0 0 113
0 0 113
0 0 113
0 0 113
0 0 113
0 0 113
0 0 113
0 0 113
0 0 113
0 0 113
0 0 113
0 0 113
0 0 113
0 0 113
0 0 113
0 0 113
0 0 113
0 0 113
0 0 113
0 0 113
0 0 113
0 0 113
0 0 113
0 0 113
0 0 113
0 0 113
0 0 113
0 0 113
0 0 113
0 0 113
0 0 113
0 0 113
0 0 113
0 0 113
0 0 113
0 0 113
0 0 113
0 0 113
0 0 113
0 0 113
0 0 113
0 0 113
0 0 113
0 0 112
0 0 113
0 0 113
0 0 113
0 0 113
0 0 113
0 0 113
0 0 113
0 0 113
0 0 113
0 0 113
0 0 113
0 0 113
70 74 131
215 230 252
218 234 255
218 234 255
218 234 255
218 234 255
218 234 255
218 234 255
218 234 255
218 234 255
218 234 255
218 234 255
218 234 255
218 234 255
218 234 255
218 234 255
218 234 255
218 234 255
218 234 255
218 234 255
218 234 255
218 234 255
218 234 255
218 234 255
218 234 255
218 234 255
218 234 255
218 234 255
218 234 255
218 234 255
218 234 255
218 234 255
218 234 255
218 234 255
218 234 255
218 234 255
218 234 255
218 234 255
218 234 255
218 234 255
218 234 255
218 234 255
218 234 255
218 234 255
218 234 255
218 234 255
218 234 255
218 234 255
218 234 255
218 234 255
218 234 255
218 234 255
218 234 255
218 234 255
218 234 255
218 234 255
218 234 255
218 234 255
218 234 255
218 234 255
218 234 255
218 234 255
218 234 255
218 234 255
218 234 255
218 234 255
218 234 255
218 234 255
218 234 255
218 234 255
218 234 255
218 234 255
218 234 255
218 234 255
218 234 255
218 234 255
218 234 255
218 234 255
218 234 255
218 234 255
218 234 255
218 234 255
218 234 255
218 234 255
218 234 255
218 234 255
218 234 255
218 234 255
218 234 255
218 234 255
218 234 255
218 234 255
218 234 255
218 234 255
218 234 255
218 234 255
218 234 255
218 234 255
218 234 255
218 234 255
218 234 255
218 234 255
218 234 255
218 234 255
218 234 255
219 234 255
219 234 255
219 234 255
219 234 255
219 234 255
219 234 255
219 234 255
219 234 255
219 234 255
219 234 255
219 234 255
219 234 255
219 234 255
219 234 255
219 234 255
219 234 255
219 234 255
219 234 255
219 234 255
219 234 255
219 234 255
219 234 255
219 234 255
219 234 255
219 234 255
219 234 255
219 234 255
219 234 255
219 234 255
219 234 255
219 234 255
219 234 255
219 234 255
219 234 255
219 234 255
219 234 255
218 234 255
218 234 255
219 234 255
218 234 255
218 234 255
218 234 255
218 234 255
218 234 255
218 234 255
218 234 255
218 234 255
218 234 255
218 234 255
218 234 255
218 234 255
218 234 255
218 234 255
218 234 255
218 234 255
218 234 255
218 234 255
218 234 255
218 234 255
218 234 255
218 234 255
218 234 255
218 234 255
218 234 255
218 234 255
218 234 255
218 234 255
218 234 255
218 234 255
218 234 255
218 234 255
218 234 255
218 234 255
218 234 255
218 234 255
218 234 255
218 234 255
218 234 255
218 234 255
218 234 255
218 234 255
218 234 255
218 234 255
218 234 255
218 234 255
218 234 255
218 234 255
218 234 255
218 234 255
218 234 255
218 234 255
218 234 255
218 234 255
218 234 255
218 234 255
218 234 255
218 234 255
218 234 255
218 234 255
218 234 255
218 234 255
218 234 255
218 234 255
127 136 175
0 0 113
0 0 113
0 0 113
0 0 113
0 0 112
0 0 113
0 0 113
0 0 113
0 0 113
0 0 113
0 0 113
0 0 113
0 0 113
0 0 113
0 0 113
0 0 113
0 0 115
0 0 115
0 0 115
0 0 113
0 0 113
0 0 113
0 0 113
0 0 113
0 0 113
0 0 113
0 0 113
0 0 113
0 0 113
0 0 114
0 0 113
0 0 113
0 0 113
0 0 113
0 0 113
0 0 113
0 0 113
0 0 113
0 0 113
0 0 113
0 0 113
0 0 113
0 0 113
0 0 113
0 0 113
0 0 113
0 0 113
3 8 113
9 12 113
9 10 112
6 0 113
0 12 115
11 37 122
24 23 118
17 30 122
10 56 135
45 66 140
43 55 131
28 31 115
18 21 119
16 28 119
16 27 116
5 42 121
23 72 146
74 117 131
107 132 77
111 125 87
113 132 90
131 143 117
136 143 122
152 153 139
167 164 155
175 171 162
163 161 153
145 151 135
136 146 124
132 145 117
106 133 77
131 148 108
130 145 110
62 69 112
0 23 114
15 11 115
10 6 113
6 14 118
0 0 113
0 0 113
0 0 113
0 0 113
0 0 113
0 8 112
9 24 110
8 18 115
7 9 114
17 0 117
13 17 110
16 20 114
7 14 113
9 19 115
16 25 119
12 16 118
13 20 115
0 18 113
7 7 118
16 7 114
9 3 113
11 27 111
59 76 108
97 128 68
100 134 94
68 107 127
70 118 151
79 138 128
103 124 64
111 137 83
118 146 76
106 140 100
78 114 124
61 92 132
50 79 125
29 41 117
16 35 119
25 26 115
21 46 129
11 28 120
18 30 115
14 25 110
43 54 121
24 31 114
12 15 111
7 11 112
6 8 114
5 6 114
6 6 113
4 0 113
0 0 113
0 0 113
0 0 113
0 0 113
0 0 113
0 0 113
0 0 113
0 0 113
0 0 113
0 0 113
0 0 113
0 0 113
0 0 113
0 0 113
0 0 113
0 0 113
0 0 113
0 0 113
0 0 113
0 0 113
0 0 113
0 0 113
0 0 113
0 0 113
0 0 113
0 0 113
0 0 113
0 0 113
0 0 113
0 0 113
0 0 113
0 0 113
0 0 113
0 0 113
0 0 113
0 0 113
0 0 113
0 0 113
0 0 113
0 0 113
0 0 113
0 0 113
0 0 113
0 0 113
0 0 113
0 0 113
0 0 113
0 0 113
0 0 113
0 0 113
0 0 113
0 0 113
0 0 113
0 0 113
0 0 113
0 0 113
6 7 113
181 193 213
218 234 255
218 234 255
218 234 255
218 234 255
218 234 255
218 234 255
218 234 255
218 234 255
218 234 255
218 234 255
218 234 255
218 234 255
218 234 255
218 234 255
218 234 255
218 234 255
218 234 255
218 234 255
218 234 255
218 234 255
218 234 255
218 234 255
218 234 255
218 234 255
218 234 255
218 234 255
218 234 255
218 234 255
218 234 255
218 234 255
218 234 255
218 234 255
218 234 255
218 234 255
218 234 255
218 234 255
218 234 255
218 234 255
218 234 255
218 234 255
218 234 255
218 234 255
218 234 255
218 234 255
218 234 255
218 234 255
218 234 255
218 234 255
218 234 255
218 234 255
218 234 255
218 234 255
218 234 255
218 234 255
218 234 255
218 234 255
218 234 255
218 234 255
218 234 255
218 234 255
218 234 255
218 234 255
218 234 255
218 234 255
218 234 255
219 234 255
219 234 255
218 234 255
219 234 255
219 234 255
219 234 255
219 234 255
219 234 255
219 234 255
219 234 255
219 234 255
219 234 255
219 234 255
219 234 255
219 234 255
219 234 255
219 234 255
219 234 255
219 234 255
219 234 255
219 234 255
219 234 255
219 234 255
219 234 255
219 234 255
219 234 255
219 234 255
219 234 255
219 234 255
219 234 255
219 234 255
219 234 255
219 234 255
219 234 255
219 234 255
219 234 255
219 234 255
219 234 255
219 234 255
219 234 255
219 234 255
219 234 255
219 234 255
219 234 255
219 234 255
219 234 255
219 234 255
219 234 255
219 234 255
219 234 255
219 234 255
219 234 255
219 234 255
219 234 255
219 234 255
219 234 255
219 234 255
219 234 255
219 234 255
219 234 255
219 234 255
219 234 255
219 234 255
219 234 255
219 234 255
219 234 255
219 234 255
219 234 255
219 234 255
219 234 255
219 234 255
219 234 255
219 234 255
219 234 255
219 234 255
219 234 255
219 234 255
219 234 255
219 234 255
219 234 255
219 234 255
219 234 255
219 234 255
219 234 255
219 234 255
219 234 255
219 234 255
219 234 255
219 234 255
219 234 255
219 234 255
219 234 255
219 234 255
219 234 255
219 234 255
219 234 255
219 234 255
219 234 255
219 234 255
219 234 255
219 234 255
219 234 255
219 234 255
219 234 255
219 234 255
219 234 255
219 234 255
219 234 255
219 234 255
219 234 255
219 234 255
219 234 255
219 234 255
219 234 255
219 234 255
219 234 255
219 234 255
219 234 255
219 234 255
219 234 255
219 234 255
219 234 255
219 234 255
219 234 255
219 234 255
219 234 255
219 234 255
219 234 255
219 234 255
219 234 255
219 234 255
219 234 255
219 234 255
219 234 255
219 234 255
219 234 255
219 234 255
219 234 255
219 234 255
219 234 255
208 223 246
43 46 122
0 0 113
0 0 113
0 0 113
0 0 113
0 0 113
0 0 113
0 0 113
0 0 113
0 0 113
0 0 113
0 0 113
0 0 113
0 0 113
0 0 113
0 0 113
0 0 114
0 0 115
0 0 115
0 0 114
0 0 113
0 0 113
0 0 113
0 0 113
0 0 113
0 0 113
0 0 113
0 0 113
0 0 113
0 0 114
0 0 114
0 0 113
0 0 113
0 0 113
0 0 113
0 0 113
0 0 113
0 0 113
0 0 113
0 0 113
0 0 113
0 0 113
0 0 113
0 0 113
0 0 112
0 0 113
0 0 113
0 0 113
2 3 113
5 6 113
4 0 113
2 0 113
0 4 113
10 24 119
3 19 119
8 36 124
6 36 125
5 30 123
9 34 126
12 33 124
2 18 118
0 21 119
8 28 121
6 42 124
31 51 143
53 94 129
100 133 62
102 125 77
108 128 81
123 138 101
126 140 109
133 144 118
154 159 141
169 167 155
166 162 154
131 142 121
134 144 117
130 144 109
103 133 68
125 146 95
124 142 97
86 105 113
8 33 115
13 10 115
19 22 112
0 6 113
0 0 113
0 0 113
0 0 113
0 0 113
0 0 113
1 4 117
5 16 117
13 23 115
14 21 118
23 29 114
8 19 119
9 18 125
14 34 125
21 40 128
26 49 130
28 44 129
28 49 123
17 30 119
12 17 117
19 13 108
17 20 111
30 47 115
72 91 103
68 85 115
47 64 136
58 85 131
24 63 140
27 74 135
56 71 104
65 82 98
80 104 80
101 131 65
110 143 65
108 142 76
99 131 105
83 106 132
34 49 120
17 34 113
8 32 118
12 30 119
9 17 116
5 12 116
23 36 118
15 25 119
28 29 114
17 24 110
32 41 117
29 37 117
14 13 112
17 0 114
0 0 113
0 0 113
0 0 113
0 0 113
0 0 113
0 0 113
0 0 113
0 0 113
0 0 113
0 0 113
0 0 113
0 0 113
0 0 113
0 0 113
0 0 113
0 0 113
0 0 113
0 0 113
0 0 113
0 0 113
0 0 113
0 0 113
0 0 113
0 0 113
0 0 113
0 0 113
0 0 113
0 0 113
0 0 113
0 0 113
0 0 113
0 0 113
0 0 113
0 0 113
0 0 113
0 0 113
0 0 113
0 0 113
0 0 113
0 0 113
0 0 113
0 0 113
0 0 113
0 0 113
0 0 113
0 0 113
0 0 113
0 0 113
0 0 113
0 0 113
0 0 113
0 0 113
0 0 113
0 0 113
0 0 113
0 0 113
3 4 113
99 110 153
218 232 250
219 234 255
219 234 255
219 234 255
219 234 255
219 234 255
219 234 255
219 234 255
219 234 255
219 234 255
219 234 255
219 234 255
219 234 255
219 234 255
219 234 255
219 234 255
219 234 255
219 234 255
219 234 255
219 234 255
219 234 255
219 234 255
219 234 255
219 234 255
219 234 255
219 234 255
219 234 255
219 234 255
219 234 255
219 234 255
219 234 255
219 234 255
219 234 255
219 234 255
219 234 255
219 234 255
219 234 255
219 234 255
219 234 255
219 234 255
219 234 255
219 234 255
219 234 255
219 234 255
219 234 255
219 234 255
219 234 255
219 234 255
219 234 255
219 234 255
219 234 255
219 234 255
219 234 255
219 234 255
219 234 255
219 234 255
219 234 255
219 234 255
219 234 255
219 234 255
219 234 255
219 234 255
219 234 255
219 234 255
219 234 255
219 234 255
219 234 255
219 234 255
219 234 255
219 234 255
219 234 255
219 234 255
219 234 255
219 234 255
219 234 255
219 234 255
219 234 255
219 234 255
219 234 255
219 234 255
219 234 255
219 234 255
219 234 255
219 234 255
219 234 255
219 234 255
219 234 255
219 234 255
219 234 255
219 234 255
219 234 255
219 234 255
219 234 255
219 234 255
219 234 255
219 234 255
219 234 255
219 234 255
219 234 255
219 234 255
219 234 255
219 234 255
219 234 255
219 234 255
219 234 255
219 234 255
219 234 255
219 234 255
219 234 255
219 234 255
219 234 255
219 234 255
219 234 255
219 234 255
219 234 255
219 234 255
219 234 255
219 234 255
219 234 255
219 234 255
219 234 255
219 234 255
219 234 255
219 234 255
219 234 255
219 234 255
219 234 255
219 234 255
219 234 255
219 234 255
219 234 255
219 234 255
219 234 255
219 234 255
219 234 255
219 234 255
219 234 255
219 234 255
219 234 255
219 234 255
219 234 255
219 234 255
219 234 255
219 234 255
219 234 255
219 234 255
219 234 255
219 234 255
219 234 255
219 234 255
219 234 255
219 234 255
219 234 255
219 234 255
219 234 255
219 234 255
219 234 255
219 234 255
219 234 255
219 234 255
219 234 255
219 234 255
219 234 255
219 234 255
219 234 255
219 234 255
219 234 255
219 234 255
219 234 255
219 234 255
219 234 255
219 234 255
219 234 255
219 234 255
219 234 255
219 234 255
219 234 255
219 234 255
219 234 255
219 234 255
219 234 255
219 234 255
219 234 255
219 234 255
219 234 255
219 234 255
219 234 255
219 234 255
219 234 255
219 234 255
219 234 255
219 234 255
219 234 255
219 234 255
219 234 255
219 234 255
219 234 255
219 234 255
219 234 255
219 234 255
219 234 255
219 234 255
219 234 255
219 234 255
219 234 255
148 159 192
0 0 113
0 0 113
0 0 113
0 0 113
0 0 113
0 0 113
0 0 113
0 0 113
0 0 113
0 0 113
0 0 113
0 0 113
0 0 113
0 0 113
0 0 113
0 0 113
0 0 115
0 0 115
0 0 115
0 0 113
0 0 113
0 0 113
0 0 113
0 0 113
0 0 113
0 0 113
0 0 113
0 0 113
0 0 113
0 0 113
0 0 113
0 0 113
0 0 113
0 0 113
0 0 113
0 0 113
0 0 113
0 0 113
0 0 113
0 0 113
0 0 113
0 0 113
0 0 113
0 0 113
0 0 113
0 0 113
0 0 113
0 0 113
0 0 113
0 0 113
0 0 112
0 0 113
1 5 113
6 17 117
0 16 117
12 30 121
9 29 121
5 25 120
0 26 122
5 21 120
0 12 118
2 27 121
5 37 126
11 59 129
30 55 134
38 85 156
84 127 92
93 130 50
111 133 82
115 136 90
116 137 89
124 142 96
137 150 116
147 155 133
155 154 139
144 153 138
134 138 115
117 131 91
99 133 62
106 137 62
112 141 74
100 130 103
15 35 120
16 13 113
17 21 114
0 17 109
0 0 113
0 0 113
0 0 113
0 0 113
0 0 113
0 8 111
14 16 114
12 26 111
15 14 120
9 29 121
32 41 127
66 87 116
64 89 115
75 105 110
86 121 90
82 115 105
79 111 107
54 75 112
11 19 117
14 18 112
5 11 113
13 26 105
22 30 112
27 26 119
27 35 112
67 87 100
35 52 121
14 41 122
14 22 115
13 16 118
15 22 116
47 61 109
61 77 112
69 88 113
104 127 85
104 134 68
99 127 90
56 74 107
52 58 118
27 32 110
12 8 114
22 17 114
21 28 114
21 22 117
40 39 108
21 28 111
47 60 115
54 65 120
24 32 108
8 8 110
0 0 113
0 0 113
0 0 113
0 0 113
0 0 113
0 0 112
0 0 113
0 0 113
0 0 113
0 0 113
0 0 113
0 0 113
0 0 113
0 0 113
0 0 113
0 0 113
0 0 113
0 0 113
0 0 113
0 0 113
0 0 113
0 0 113
0 0 113
0 0 113
0 0 113
0 0 113
0 0 113
0 0 113
0 0 113
0 0 113
0 0 113
0 0 113
0 0 113
0 0 113
0 0 113
0 0 113
0 0 113
0 0 113
0 0 113
0 0 113
0 0 113
0 0 113
0 0 113
0 0 113
0 0 113
0 0 113
0 0 113
0 0 113
0 0 113
0 0 113
0 0 113
0 0 113
0 0 113
0 0 113
0 0 113
0 0 113
3 0 113
9 22 117
187 201 221
219 234 255
219 234 255
219 234 255
219 234 255
219 234 255
219 234 255
219 234 255
219 234 255
219 234 255
219 234 255
219 234 255
219 234 255
219 234 255
219 234 255
219 234 255
219 234 255
219 234 255
219 234 255
219 234 255
219 234 255
219 234 255
219 234 255
219 234 255
219 234 255
219 234 255
219 234 255
219 234 255
219 234 255
219 234 255
219 234 255
219 234 255
219 234 255
219 234 255
219 234 255
219 234 255
219 234 255
219 234 255
219 234 255
219 234 255
219 234 255
219 234 255
219 234 255
219 234 255
219 234 255
219 234 255
219 234 255
219 234 255
219 234 255
219 234 255
219 234 255
219 234 255
219 234 255
219 234 255
219 234 255
219 234 255
219 234 255
219 234 255
219 234 255
219 234 255
219 234 255
219 234 255
219 234 255
219 234 255
219 234 255
219 234 255
219 234 255
219 234 255
219 234 255
219 234 255
219 234 255
219 234 255
219 234 255
219 234 255
219 234 255
219 234 255
219 234 255
219 234 255
219 234 255
219 234 255
219 234 255
219 234 255
219 234 255
219 234 255
219 234 255
219 234 255
219 234 255
219 234 255
219 234 255
219 234 255
219 234 255
219 234 255
219 234 255
219 234 255
219 234 255
219 234 255
219 234 255
219 234 255
219 234 255
219 234 255
219 234 255
219 234 255
219 234 255
219 234 255
219 234 255
219 234 255
219 234 255
219 234 255
219 234 255
219 234 255
219 234 255
219 234 255
219 234 255
219 234 255
219 234 255
219 234 255
219 234 255
219 234 255
219 234 255
219 234 255
219 234 255
219 234 255
219 234 255
219 234 255
219 234 255
219 234 255
219 234 255
219 234 255
219 234 255
219 234 255
219 234 255
219 234 255
219 234 255
219 234 255
219 234 255
219 234 255
219 234 255
219 234 255
219 234 255
219 234 255
219 234 255
219 234 255
219 234 255
219 234 255
219 234 255
219 234 255
219 234 255
219 234 255
219 234 255
219 234 255
219 234 255
219 234 255
219 234 255
219 234 255
219 234 255
219 234 255
219 234 255
219 234 255
219 234 255
219 234 255
219 234 255
219 234 255
219 234 255
219 234 255
219 234 255
219 234 255
219 234 255
219 234 255
219 234 255
219 234 255
219 234 255
219 234 255
219 234 255
219 234 255
219 234 255
219 234 255
219 234 255
219 234 255
219 234 255
219 234 255
219 234 255
219 234 255
219 234 255
219 234 255
219 234 255
219 234 255
219 234 255
219 234 255
219 234 255
219 234 255
219 234 255
219 234 255
219 234 255
219 234 255
219 234 255
219 234 255
219 234 255
219 234 255
219 234 255
219 234 255
219 234 255
219 234 255
219 234 255
219 234 255
206 221 244
48 52 124
0 0 112
0 0 113
0 0 113
0 0 113
0 0 113
0 0 113
0 0 112
0 0 113
0 0 113
0 0 113
0 0 113
0 0 113
0 0 113
0 0 113
0 0 113
0 0 113
0 0 113
0 0 113
0 0 113
0 0 113
0 0 113
0 0 113
0 0 113
0 0 113
0 0 113
0 0 113
0 0 113
0 0 113
0 0 113
0 0 113
0 0 113
0 0 113
0 0 113
0 0 113
0 0 113
0 0 113
0 0 113
0 0 113
0 0 113
0 0 113
0 0 113
0 0 113
0 0 113
0 0 113
0 0 113
0 0 113
0 0 113
0 0 113
0 0 113
0 0 113
0 0 113
0 0 113
0 0 113
0 5 112
0 14 115
11 21 116
11 24 117
6 19 116
5 9 117
3 14 118
5 19 119
13 37 125
15 45 130
11 54 136
17 70 145
24 90 163
76 117 99
101 131 78
107 132 84
113 137 85
108 135 72
114 140 77
121 143 93
127 143 104
140 149 122
143 151 129
139 142 125
129 139 113
105 127 79
107 131 71
105 138 63
103 136 63
47 65 110
25 23 121
7 12 119
4 17 110
0 0 113
0 0 113
0 0 113
0 0 113
0 0 113
2 7 117
13 11 115
14 21 117
25 21 117
19 59 135
76 103 99
101 129 73
101 134 50
99 133 65
96 133 46
95 132 51
91 126 59
72 95 94
12 19 112
20 22 118
21 12 120
6 4 111
8 6 114
20 32 106
6 16 110
10 18 115
17 25 108
9 14 115
4 8 114
11 15 114
8 15 110
7 17 107
17 20 116
25 30 123
69 97 100
107 137 59
114 143 71
112 137 80
113 134 93
87 108 102
28 41 118
21 29 109
13 24 116
40 46 117
80 90 111
30 32 115
7 10 114
6 14 116
13 15 112
19 13 114
9 6 112
0 0 113
0 0 113
0 0 113
0 0 113
0 0 113
0 0 113
0 0 113
0 0 113
0 0 113
0 0 113
0 0 113
0 0 113
0 0 113
0 0 113
0 0 113
0 0 113
0 0 113
0 0 112
0 0 113
0 0 113
0 0 113
0 0 113
0 0 113
0 0 113
0 0 113
0 0 113
0 0 113
0 0 113
0 0 113
0 0 113
0 0 113
0 0 113
0 0 113
0 0 113
0 0 113
0 0 113
0 0 113
0 0 113
0 0 113
0 0 113
0 0 113
0 0 113
0 0 113
0 0 113
0 0 113
0 0 113
0 0 113
0 0 113
0 0 113
0 0 113
0 0 113
0 0 113
0 0 113
0 0 113
0 0 113
7 1 113
7 16 115
138 151 175
218 233 254
219 234 255
219 234 255
219 234 255
219 234 255
219 234 255
219 234 255
219 234 255
219 234 255
219 234 255
219 234 255
219 234 255
219 234 255
219 234 255
219 234 255
219 234 255
219 234 255
219 234 255
219 234 255
219 234 255
219 234 255
219 234 255
219 234 255
219 234 255
219 234 255
219 234 255
219 234 255
219 234 255
219 234 255
219 234 255
219 234 255
219 234 255
219 234 255
219 234 255
219 234 255
219 234 255
219 234 255
219 234 255
219 234 255
219 234 255
219 234 255
219 234 255
219 234 255
219 234 255
219 234 255
219 234 255
219 234 255
219 234 255
219 234 255
219 234 255
219 234 255
219 234 255
219 234 255
219 234 255
219 234 255
219 234 255
219 234 255
219 234 255
219 234 255
219 234 255
219 234 255
219 234 255
219 234 255
219 234 255
219 234 255
219 234 255
219 234 255
219 234 255
219 234 255
219 234 255
219 234 255
219 234 255
219 234 255
219 234 255
219 234 255
219 234 255
219 234 255
219 234 255
219 234 255
219 234 255
219 234 255
219 234 255
219 234 255
219 234 255
219 234 255
219 234 255
219 234 255
219 234 255
219 234 255
219 234 255
219 234 255
219 234 255
219 234 255
219 234 255
219 234 255
219 234 255
219 234 255
219 234 255
219 234 255
219 234 255
219 234 255
219 234 255
219 234 255
219 234 255
219 234 255
219 234 255
219 234 255
219 234 255
219 234 255
219 234 255
219 234 255
219 234 255
219 234 255
219 234 255
219 234 255
219 234 255
219 234 255
219 234 255
219 234 255
219 234 255
219 234 255
219 234 255
219 234 255
219 234 255
219 234 255
219 234 255
219 234 255
219 234 255
219 234 255
219 234 255
219 234 255
219 234 255
219 234 255
219 234 255
219 234 255
219 234 255
219 234 255
219 234 255
219 234 255
219 234 255
219 234 255
219 234 255
219 234 255
219 234 255
219 234 255
219 234 255
219 234 255
219 234 255
219 234 255
219 234 255
219 234 255
219 234 255
219 234 255
219 234 255
219 234 255
219 234 255
219 234 255
219 234 255
219 234 255
219 234 255
219 234 255
219 234 255
219 234 255
219 234 255
219 234 255
219 234 255
219 234 255
219 234 255
219 234 255
219 234 255
219 234 255
219 234 255
219 234 255
219 234 255
219 234 255
219 234 255
219 234 255
219 234 255
219 234 255
219 234 255
219 234 255
219 234 255
219 234 255
219 234 255
219 234 255
219 234 255
219 234 255
219 234 255
219 234 255
219 234 255
219 234 255
219 234 255
219 234 255
219 234 255
219 234 255
219 234 255
219 234 255
219 234 255
219 234 255
219 234 255
219 234 255
219 234 255
219 234 255
171 183 212
0 0 113
0 0 113
0 0 113
0 0 113
0 0 113
0 0 113
0 0 113
0 0 113
0 0 113
0 0 113
0 0 113
0 0 113
0 0 113
0 0 113
0 0 113
0 0 113
0 0 113
0 0 113
0 0 113
0 0 113
0 0 113
0 0 113
0 0 113
0 0 113
0 0 113
0 0 113
0 0 113
0 0 113
0 0 113
0 0 113
0 0 113
0 0 112
0 0 113
0 0 113
0 0 113
0 0 113
0 0 113
0 0 113
0 0 113
0 0 113
0 0 113
0 0 113
0 0 113
0 0 113
0 0 113
0 0 113
0 0 113
0 0 113
0 0 113
0 0 113
0 0 113
0 0 113
0 0 113
0 0 112
0 0 112
0 0 113
8 11 114
6 19 116
5 15 116
15 16 117
10 21 118
12 26 122
13 42 128
13 47 133
8 48 132
13 78 149
49 110 145
91 118 73
101 126 63
105 132 77
111 138 85
111 139 79
105 133 64
111 138 79
110 136 78
116 136 87
122 138 98
135 145 118
141 151 130
136 147 124
119 134 95
107 133 67
113 140 71
85 109 91
35 53 105
11 12 120
14 15 113
0 0 113
0 0 113
0 0 113
0 0 113
0 0 113
6 22 112
19 10 113
14 22 118
28 31 120
38 85 148
95 130 85
95 126 45
96 128 20
93 127 37
90 126 32
91 126 29
71 99 74
31 46 109
12 22 108
0 12 105
12 14 114
8 14 118
6 16 111
6 19 115
13 15 119
0 8 114
8 8 110
15 16 115
14 11 118
10 3 119
7 8 117
7 8 116
13 16 114
15 19 113
26 41 119
39 65 112
52 81 123
100 128 91
119 141 93
112 136 80
91 118 82
80 102 78
42 56 101
27 36 116
34 41 117
19 19 117
8 16 105
9 25 110
17 19 122
15 14 116
10 13 113
0 0 113
0 0 113
0 0 113
0 0 113
0 0 113
0 0 113
0 0 113
0 0 113
0 0 113
0 0 113
0 0 113
0 0 113
0 0 113
0 0 113
0 0 113
0 0 113
0 0 113
0 0 113
0 0 113
0 0 113
0 0 113
0 0 113
0 0 113
0 0 113
0 0 113
0 0 113
0 0 113
0 0 113
0 0 113
0 0 113
0 0 113
0 0 113
0 0 113
0 0 113
0 0 113
0 0 113
0 0 113
0 0 113
0 0 113
0 0 112
0 0 113
0 0 113
0 0 113
0 0 113
0 0 113
0 0 113
0 0 113
0 0 113
0 0 113
0 0 113
0 0 113
0 0 113
0 0 113
0 0 113
0 0 113
1 0 112
10 10 113
52 74 139
215 227 235
219 234 255
219 234 255
219 234 255
219 234 255
219 234 255
219 234 255
219 234 255
219 234 255
219 234 255
219 234 255
219 234 255
219 234 255
219 234 255
219 234 255
219 234 255
219 234 255
219 234 255
219 234 255
219 234 255
219 234 255
219 234 255
219 234 255
219 234 255
219 234 255
219 234 255
219 234 255
219 234 255
219 234 255
219 234 255
219 234 255
219 234 255
219 234 255
219 234 255
219 234 255
219 234 255
219 234 255
219 234 255
219 234 255
219 234 255
219 234 255
219 234 255
219 234 255
219 234 255
219 234 255
219 234 255
219 234 255
219 234 255
219 234 255
219 234 255
219 234 255
219 234 255
219 234 255
219 234 255
219 234 255
219 234 255
219 234 255
219 234 255
219 234 255
219 234 255
219 234 255
219 234 255
219 234 255
219 234 255
219 234 255
219 234 255
219 234 255
219 234 255
219 234 255
219 234 255
219 234 255
219 234 255
219 234 255
219 234 255
219 234 255
219 234 255
219 234 255
219 234 255
219 234 255
219 234 255
219 234 255
219 234 255
219 234 255
219 234 255
219 234 255
219 234 255
219 234 255
219 234 255
219 234 255
219 234 255
219 234 255
219 234 255
219 234 255
219 234 255
219 234 255
219 234 255
219 234 255
219 234 255
219 234 255
219 234 255
219 234 255
219 234 255
219 234 255
219 234 255
219 234 255
219 234 255
219 234 255
219 234 255
219 234 255
219 234 255
219 234 255
219 234 255
219 234 255
219 234 255
219 234 255
219 234 255
219 234 255
219 234 255
219 234 255
219 234 255
219 234 255
219 234 255
219 234 255
219 234 255
219 234 255
219 234 255
219 234 255
219 234 255
219 234 255
219 234 255
219 234 255
219 234 255
219 234 255
219 234 255
219 234 255
219 234 255
219 234 255
219 234 255
219 234 255
219 234 255
219 234 255
219 234 255
219 234 255
219 234 255
219 234 255
219 234 255
219 234 255
219 234 255
219 234 255
219 234 255
219 234 255
219 234 255
219 234 255
219 234 255
219 234 255
219 234 255
219 234 255
219 234 255
219 234 255
219 234 255
219 234 255
219 234 255
219 234 255
219 234 255
219 234 255
219 234 255
219 234 255
219 234 255
219 234 255
219 234 255
219 234 255
219 234 255
219 234 255
219 234 255
219 234 255
219 234 255
219 234 255
219 234 255
219 234 255
219 234 255
219 234 255
219 234 255
219 234 255
219 234 255
219 234 255
219 234 255
219 234 255
219 234 255
219 234 255
219 234 255
219 234 255
219 234 255
219 234 255
219 234 255
219 234 255
219 234 255
219 234 255
219 234 255
219 234 255
219 234 255
219 234 255
219 234 255
217 232 253
65 70 132
19 24 113
11 18 109
12 8 114
0 0 113
0 0 113
0 0 113
0 0 113
0 0 113
0 0 113
0 0 113
0 0 113
0 0 113
0 0 113
0 0 113
0 0 113
0 0 113
0 0 113
0 0 113
0 0 113
0 0 113
0 0 113
0 0 113
0 0 113
0 0 113
0 0 113
0 0 113
0 0 113
0 0 113
0 0 113
0 0 112
0 0 113
0 0 113
0 0 113
0 0 113
0 0 113
0 0 113
0 0 113
0 0 113
0 0 113
0 0 113
0 0 113
0 0 113
0 0 113
0 0 113
0 0 113
0 0 113
0 0 113
0 0 113
0 0 113
0 0 113
0 0 112
0 0 113
0 0 113
0 1 112
7 14 113
6 7 115
1 12 115
2 21 116
1 19 116
11 22 118
8 19 118
9 26 120
8 38 127
5 41 129
24 45 132
14 61 146
66 113 128
100 127 69
104 133 72
107 135 76
110 136 79
107 133 74
105 131 68
102 129 64
106 133 69
107 133 70
111 133 75
115 134 86
121 135 94
138 150 122
130 145 110
117 135 95
108 132 72
104 134 70
65 89 100
21 21 120
9 7 108
0 0 113
0 0 113
0 0 113
0 0 113
0 0 113
8 24 114
25 12 120
4 16 118
28 44 124
48 106 144
94 132 74
91 126 32
93 127 41
92 127 35
91 125 51
94 126 59
50 72 102
15 21 113
14 18 119
8 12 111
14 16 116
7 14 107
7 7 115
20 16 118
15 15 106
16 16 110
7 9 116
13 19 114
5 13 112
3 4 109
9 12 112
4 16 115
0 12 113
0 16 110
11 15 115
19 21 115
67 86 105
89 115 77
75 101 83
88 113 88
96 120 78
94 112 95
67 84 96
28 39 111
33 37 108
67 77 106
44 51 111
30 40 114
45 57 111
33 41 112
17 22 113
0 0 113
0 0 113
0 0 113
0 0 113
0 0 113
0 0 113
0 0 113
0 0 113
0 0 113
0 0 113
0 0 113
0 0 113
0 0 113
0 0 113
0 0 113
0 0 113
0 0 113
0 0 113
0 0 113
0 0 113
0 0 113
0 0 113
0 0 113
0 0 113
0 0 113
0 0 113
0 0 113
0 0 113
0 0 113
0 0 113
0 0 113
0 0 113
0 0 113
0 0 113
0 0 113
0 0 113
0 0 113
0 0 113
0 0 113
0 0 113
0 0 113
0 0 113
0 0 113
0 0 113
0 0 112
0 0 113
0 0 113
0 0 113
0 0 113
0 0 113
0 0 113
0 0 113
0 0 113
0 0 113
0 0 113
0 0 113
9 7 113
13 29 120
173 187 200
219 234 255
219 234 255
219 234 255
219 234 255
219 234 255
219 234 255
219 234 255
219 234 255
219 234 255
219 234 255
219 234 255
219 234 255
219 234 255
219 234 255
219 234 255
219 234 255
219 234 255
219 234 255
219 234 255
219 234 255
219 234 255
219 234 255
219 234 255
219 234 255
219 234 255
219 234 255
219 234 255
219 234 255
219 234 255
219 234 255
219 234 255
219 234 255
219 234 255
219 234 255
219 234 255
219 234 255
219 234 255
219 234 255
219 234 255
219 234 255
219 234 255
219 234 255
219 234 255
219 234 255
219 234 255
219 234 255
219 234 255
219 234 255
219 234 255
219 234 255
219 234 255
219 234 255
219 234 255
219 234 255
219 234 255
219 234 255
219 234 255
219 234 255
219 234 255
219 234 255
219 234 255
219 234 255
219 234 255
219 234 255
219 234 255
219 234 255
219 234 255
219 234 255
219 234 255
219 234 255
219 234 255
219 234 255
219 234 255
219 234 255
219 234 255
219 234 255
219 234 255
219 234 255
219 234 255
219 234 255
219 234 255
219 234 255
219 234 255
219 234 255
219 234 255
219 234 255
219 234 255
219 234 255
219 234 255
219 234 255
219 234 255
219 234 255
219 234 255
219 234 255
219 234 255
219 234 255
219 234 255
219 234 255
219 234 255
219 234 255
219 234 255
219 234 255
219 234 255
219 234 255
219 234 255
219 234 255
219 234 255
219 234 255
219 234 255
219 234 255
219 234 255
219 234 255
219 234 255
219 234 255
219 234 255
219 234 255
219 234 255
219 234 255
219 234 255
219 234 255
219 234 255
219 234 255
219 234 255
219 234 255
219 234 255
219 234 255
219 234 255
219 234 255
219 234 255
219 234 255
219 234 255
219 234 255
219 234 255
219 234 255
219 234 255
219 234 255
219 234 255
219 234 255
219 234 255
219 234 255
219 234 255
219 234 255
219 234 255
219 234 255
219 234 255
219 234 255
219 234 255
219 234 255
219 234 255
219 234 255
219 234 255
219 234 255
219 234 255
219 234 255
219 234 255
219 234 255
219 234 255
219 234 255
219 234 255
219 234 255
219 234 255
219 234 255
219 234 255
219 234 255
219 234 255
219 234 255
219 234 255
219 234 255
219 234 255
219 234 255
219 234 255
219 234 255
219 234 255
219 234 255
219 234 255
219 234 255
219 234 255
219 234 255
219 234 255
219 234 255
219 234 255
219 234 255
219 234 255
219 234 255
219 234 255
219 234 255
219 234 255
219 234 255
219 234 255
219 234 255
219 234 255
219 234 255
219 234 255
219 234 255
219 234 255
219 234 255
219 234 255
219 234 255
219 234 255
219 234 255
219 234 255
178 190 218
6 7 113
42 51 114
17 18 114
7 9 111
0 0 113
0 0 113
0 0 113
0 0 113
0 0 113
0 0 113
0 0 113
0 0 113
0 0 113
0 0 113
0 0 113
0 0 113
0 0 113
0 0 113
0 0 113
0 0 113
0 0 112
0 0 113
0 0 113
0 0 113
0 0 113
0 0 113
0 0 113
0 0 113
0 0 113
0 0 113
0 0 113
0 0 113
0 0 113
0 0 113
0 0 113
0 0 113
0 0 113
0 0 113
0 0 113
0 0 113
0 0 113
0 0 113
0 0 113
0 0 113
0 0 113
0 0 113
0 0 113
0 0 113
0 0 113
0 0 113
0 0 113
0 0 113
0 0 113
0 0 113
0 9 113
6 18 115
4 13 116
0 16 115
0 19 116
7 15 116
10 17 117
0 17 117
0 22 118
0 27 120
0 23 119
23 31 120
12 29 128
45 76 137
93 129 98
102 137 66
106 133 79
108 134 52
106 130 59
105 128 67
100 125 58
109 135 75
99 128 59
100 125 53
110 131 69
112 130 75
130 147 112
119 138 94
123 137 102
137 149 122
117 138 82
97 126 93
37 47 116
15 15 110
15 15 118
16 11 117
21 13 115
12 16 116
0 24 112
15 25 120
13 33 119
0 23 118
27 58 133
76 114 104
95 128 52
92 126 40
93 125 46
92 127 23
91 129 43
95 125 89
47 65 105
0 0 113
1 2 113
0 0 113
2 2 113
0 0 112
1 0 113
5 4 113
2 1 112
5 5 113
0 0 113
1 2 113
16 18 114
17 19 115
9 10 113
0 6 113
0 5 114
0 6 113
10 12 114
15 18 113
36 43 109
29 36 113
19 31 113
14 31 111
35 41 111
42 47 115
25 31 109
10 15 108
45 50 116
94 107 117
103 122 101
93 114 96
103 126 95
105 127 90
80 102 86
43 66 102
6 19 113
3 9 115
5 11 115
4 18 109
8 6 115
3 3 113
8 9 115
7 8 113
5 4 112
0 0 113
0 0 113
0 0 113
2 2 113
4 4 113
2 2 113
0 0 113
0 0 113
0 0 113
0 0 113
0 0 113
0 0 113
0 0 113
0 0 113
0 0 113
0 0 113
0 0 113
0 0 113
0 0 113
0 0 113
0 0 113
0 0 112
0 0 113
0 0 113
0 0 113
0 0 113
0 0 113
0 0 113
0 0 113
0 0 113
0 0 113
0 0 113
0 0 113
0 0 113
0 0 113
0 0 113
0 0 113
0 0 113
0 0 113
0 0 113
0 0 113
0 0 113
0 0 113
0 0 113
0 0 113
0 0 113
1 1 113
9 21 117
104 119 160
215 226 240
219 234 255
219 234 255
219 234 255
219 234 255
219 234 255
219 234 255
219 234 255
219 234 255
219 234 255
219 234 255
219 234 255
219 234 255
219 234 255
219 234 255
219 234 255
219 234 255
219 234 255
219 234 255
219 234 255
219 234 255
219 234 255
219 234 255
219 234 255
219 234 255
219 234 255
219 234 255
219 234 255
219 234 255
219 234 255
219 234 255
219 234 255
219 234 255
219 234 255
219 234 255
219 234 255
219 234 255
219 234 255
219 234 255
219 234 255
219 234 255
219 234 255
219 234 255
219 234 255
219 234 255
219 234 255
219 234 255
219 234 255
219 234 255
219 234 255
219 234 255
219 234 255
219 234 255
219 234 255
219 234 255
219 234 255
219 234 255
219 234 255
219 234 255
219 234 255
219 234 255
219 234 255
219 234 255
219 234 255
219 234 255
219 234 255
219 234 255
219 234 255
219 234 255
219 234 255
219 234 255
219 234 255
219 234 255
219 234 255
219 234 255
219 234 255
219 234 255
219 234 255
219 234 255
219 234 255
219 234 255
219 234 255
219 234 255
219 234 255
219 234 255
219 234 255
219 234 255
219 234 255
219 234 255
219 234 255
219 234 255
219 234 255
219 234 255
219 234 255
219 234 255
219 234 255
219 234 255
219 234 255
219 234 255
219 234 255
219 234 255
219 234 255
219 234 255
219 234 255
219 234 255
219 234 255
219 234 255
219 234 255
219 234 255
219 234 255
219 234 255
219 234 255
219 234 255
219 234 255
219 234 255
219 234 255
219 234 255
219 234 255
219 234 255
219 234 255
219 234 255
219 234 255
219 234 255
219 234 255
219 234 255
219 234 255
219 234 255
219 234 255
219 234 255
219 234 255
219 234 255
219 234 255
219 234 255
219 234 255
219 234 255
219 234 255
219 234 255
219 234 255
219 234 255
219 234 255
219 234 255
219 234 255
219 234 255
219 234 255
219 234 255
219 234 255
219 234 255
219 234 255
219 234 255
219 234 255
219 234 255
219 234 255
219 234 255
219 234 255
219 234 255
219 234 255
219 234 255
219 234 255
219 234 255
219 234 255
219 234 255
219 234 255
219 234 255
219 234 255
219 234 255
219 234 255
219 234 255
219 234 255
219 234 255
219 234 255
219 234 255
219 234 255
219 234 255
219 234 255
219 234 255
219 234 255
219 234 255
219 234 255
219 234 255
219 234 255
219 234 255
219 234 255
219 234 255
219 234 255
219 234 255
219 234 255
219 234 255
219 234 255
219 234 255
219 234 255
219 234 255
219 234 255
219 234 255
219 234 255
219 234 255
219 234 255
219 234 255
219 234 255
219 234 255
219 234 255
219 234 255
107 114 159
7 9 115
45 51 114
27 29 113
0 2 113
0 0 113
0 0 113
0 0 113
0 0 113
0 0 113
0 0 113
0 0 113
0 0 113
0 0 112
0 0 113
0 0 113
0 0 113
0 0 113
0 0 113
0 0 113
0 0 113
0 0 113
0 0 113
0 0 113
0 0 113
0 0 113
0 0 113
0 0 113
0 0 113
0 0 113
0 0 113
0 0 113
0 0 113
0 0 113
0 0 113
0 0 113
0 0 113
0 0 113
0 0 113
0 0 113
0 0 113
0 0 112
0 0 113
0 0 113
0 0 113
0 0 113
0 0 113
0 0 113
0 0 113
0 0 113
0 0 113
0 0 113
0 0 113
0 0 113
0 0 113
0 14 115
2 18 116
2 20 116
2 20 116
0 13 115
4 9 114
9 16 115
0 20 116
0 20 116
0 20 116
0 23 117
22 31 123
19 29 115
0 36 120
54 78 152
77 103 133
95 130 94
104 139 69
108 137 91
109 137 72
107 132 70
105 132 59
99 132 56
96 126 55
104 129 67
102 127 61
108 131 74
112 132 83
129 142 109
131 141 101
107 128 74
103 135 79
76 102 91
48 63 112
24 31 115
0 18 112
17 26 117
0 8 128
8 27 132
30 59 142
43 61 130
34 57 131
64 101 106
94 127 60
98 132 29
89 128 33
90 127 43
91 130 31
93 132 71
87 121 82
28 47 116
0 0 113
0 0 113
0 0 113
0 0 113
0 0 113
0 0 113
0 0 113
0 0 113
0 0 113
0 0 113
0 0 113
11 12 114
16 18 115
8 8 113
0 0 113
0 0 113
0 0 113
9 20 112
13 18 116
0 6 118
12 19 115
13 22 114
7 11 115
15 18 115
10 15 111
16 19 112
21 22 120
9 13 111
42 44 113
111 130 105
120 141 98
110 132 73
107 129 79
110 135 77
95 126 81
60 79 111
31 42 113
8 17 113
4 16 118
10 14 111
23 30 110
18 22 115
16 18 114
19 22 113
9 10 113
5 6 113
0 0 113
5 6 113
12 13 114
7 7 115
0 0 113
5 5 113
6 6 113
0 0 113
0 0 113
0 0 113
0 0 113
0 0 113
0 0 113
0 0 113
0 0 113
0 0 113
0 0 113
0 0 113
0 0 113
0 0 113
0 0 113
0 0 113
0 0 113
0 0 113
0 0 113
0 0 113
0 0 113
0 0 113
0 0 113
0 0 113
0 0 113
0 0 113
0 0 113
0 0 113
0 0 113
0 0 113
0 0 113
0 0 113
0 0 113
0 0 113
0 0 113
0 0 113
0 0 112
0 0 113
0 0 113
0 15 116
24 54 135
204 214 219
219 234 255
219 234 255
219 234 255
219 234 255
219 234 255
219 234 255
219 234 255
219 234 255
219 234 255
219 234 255
219 234 255
219 234 255
219 234 255
219 234 255
219 234 255
219 234 255
219 234 255
219 234 255
219 234 255
219 234 255
219 234 255
219 234 255
219 234 255
219 234 255
219 234 255
219 234 255
219 234 255
219 234 255
219 234 255
219 234 255
219 234 255
219 234 255
219 234 255
219 234 255
219 234 255
219 234 255
219 234 255
219 234 255
219 234 255
219 234 255
219 234 255
219 234 255
219 234 255
219 234 255
219 234 255
219 234 255
219 234 255
219 234 255
219 234 255
219 234 255
219 234 255
219 234 255
219 234 255
219 234 255
219 234 255
219 234 255
219 234 255
219 234 255
219 234 255
219 234 255
219 234 255
219 234 255
219 234 255
219 234 255
219 234 255
219 234 255
219 234 255
219 234 255
219 234 255
219 234 255
219 234 255
219 234 255
219 234 255
219 234 255
219 234 255
219 234 255
219 234 255
219 234 255
219 234 255
219 234 255
219 234 255
219 234 255
219 234 255
219 234 255
219 234 255
219 234 255
219 234 255
219 234 255
219 234 255
219 234 255
219 234 255
219 234 255
219 234 255
219 234 255
219 234 255
219 234 255
219 234 255
219 234 255
219 234 255
219 234 255
219 234 255
219 234 255
219 234 255
219 234 255
219 234 255
219 234 255
219 234 255
219 234 255
219 234 255
219 234 255
219 234 255
219 234 255
219 234 255
219 234 255
219 234 255
219 234 255
219 234 255
219 234 255
219 234 255
219 234 255
219 234 255
219 234 255
219 234 255
219 234 255
219 234 255
219 234 255
219 234 255
219 234 255
219 234 255
219 234 255
219 234 255
219 234 255
219 234 255
219 234 255
219 234 255
219 234 255
219 234 255
219 234 255
219 234 255
219 234 255
219 234 255
219 234 255
219 234 255
219 234 255
219 234 255
219 234 255
219 234 255
219 234 255
219 234 255
219 234 255
219 234 255
219 234 255
219 234 255
219 234 255
219 234 255
219 234 255
219 234 255
219 234 255
219 234 255
219 234 255
219 234 255
219 234 255
219 234 255
219 234 255
219 234 255
219 234 255
219 234 255
219 234 255
219 234 255
219 234 255
219 234 255
219 234 255
219 234 255
219 234 255
219 234 255
219 234 255
219 234 255
219 234 255
219 234 255
219 234 255
219 234 255
219 234 255
219 234 255
219 234 255
219 234 255
219 234 255
219 234 255
219 234 255
219 234 255
219 234 255
219 234 255
219 234 255
219 234 255
219 234 255
219 234 255
219 234 255
219 234 255
219 234 255
219 234 255
204 218 242
0 0 113
16 18 114
50 55 113
18 18 115
0 0 113
0 0 113
0 0 113
0 0 113
0 0 113
0 0 113
0 0 113
0 0 113
0 0 113
0 0 112
0 0 113
0 0 112
0 0 113
0 0 113
0 0 113
0 0 113
0 0 113
0 0 113
0 0 113
0 0 113
0 0 113
0 0 113
0 0 113
0 0 113
0 0 113
0 0 113
0 0 113
0 0 113
0 0 113
0 0 113
0 0 113
0 0 113
0 0 113
0 0 113
0 0 113
0 0 113
0 0 113
0 0 113
0 0 113
0 0 113
0 0 113
0 0 113
0 0 113
0 0 113
0 0 113
0 0 113
0 0 113
0 0 113
0 0 113
0 0 113
0 0 113
0 0 113
10 11 114
13 14 114
9 10 113
0 0 113
0 0 113
0 14 115
0 20 116
0 20 116
0 20 116
0 27 118
8 24 119
13 20 117
13 27 116
11 37 129
27 51 142
68 97 120
98 131 63
103 134 54
106 131 64
111 133 76
114 136 80
105 139 65
106 137 58
103 134 56
104 133 62
105 133 71
115 136 88
134 145 115
138 149 124
113 135 68
100 135 65
100 135 74
100 127 87
79 104 86
50 71 103
39 54 120
42 66 111
70 97 107
77 116 102
83 121 68
81 116 115
89 130 83
98 134 46
90 128 36
94 131 42
94 131 33
99 137 51
94 129 99
71 102 105
19 34 112
0 0 113
0 0 113
0 0 113
0 0 113
0 0 113
0 0 113
0 0 113
0 0 113
0 0 113
0 0 113
0 0 113
4 4 113
6 7 113
0 0 112
0 0 112
0 0 113
0 0 113
4 14 108
51 67 102
62 79 98
52 69 99
16 30 110
5 14 115
12 13 117
6 12 114
36 43 108
78 94 104
77 94 99
67 83 103
91 107 104
125 144 96
121 139 97
118 139 101
107 130 73
104 134 59
107 134 81
116 140 90
70 84 105
21 24 115
26 35 115
38 50 108
35 45 110
22 31 112
11 14 116
14 15 114
12 13 114
2 2 113
1 1 113
5 5 113
0 0 112
0 0 113
0 0 113
0 0 113
5 6 113
0 0 113
0 0 113
0 0 113
0 0 113
0 0 113
0 0 113
0 0 113
0 0 113
0 0 113
0 0 112
0 0 113
0 0 113
0 0 113
0 0 113
0 0 113
0 0 113
0 0 113
0 0 113
0 0 113
0 0 113
0 0 113
0 0 113
0 0 113
0 0 113
0 0 113
0 0 113
0 0 113
0 0 113
0 0 113
0 0 113
0 0 113
0 0 113
0 0 113
0 0 113
0 0 113
0 0 113
0 0 113
0 13 116
15 48 131
148 166 186
217 231 248
219 234 255
219 234 255
219 234 255
219 234 255
219 234 255
219 234 255
219 234 255
219 234 255
219 234 255
219 234 255
219 234 255
219 234 255
219 234 255
219 234 255
219 234 255
219 234 255
219 234 255
219 234 255
219 234 255
219 234 255
219 234 255
219 234 255
219 234 255
219 234 255
219 234 255
219 234 255
219 234 255
219 234 255
219 234 255
219 234 255
219 234 255
219 234 255
219 234 255
219 234 255
219 234 255
219 234 255
219 234 255
219 234 255
219 234 255
219 234 255
219 234 255
219 234 255
219 234 255
219 234 255
219 234 255
219 234 255
219 234 255
219 234 255
219 234 255
219 234 255
219 234 255
219 234 255
219 234 255
219 234 255
219 234 255
219 234 255
219 234 255
219 234 255
219 234 255
219 234 255
219 234 255
219 234 255
219 234 255
219 234 255
219 234 255
219 234 255
219 234 255
219 234 255
219 234 255
219 234 255
219 234 255
219 234 255
219 234 255
219 234 255
219 234 255
219 234 255
219 234 255
219 234 255
219 234 255
219 234 255
219 234 255
219 234 255
219 234 255
219 234 255
219 234 255
219 234 255
219 234 255
219 234 255
219 234 255
219 234 255
219 234 255
219 234 255
219 234 255
219 234 255
219 234 255
219 234 255
219 234 255
219 234 255
219 234 255
219 234 255
219 234 255
219 234 255
219 234 255
219 234 255
219 234 255
219 234 255
219 234 255
219 234 255
219 234 255
219 234 255
219 234 255
219 234 255
219 234 255
219 234 255
219 234 255
219 234 255
219 234 255
219 234 255
219 234 255
219 234 255
219 234 255
219 234 255
219 234 255
219 234 255
219 234 255
219 234 255
219 234 255
219 234 255
219 234 255
219 234 255
219 234 255
219 234 255
219 234 255
219 234 255
219 234 255
219 234 255
219 234 255
219 234 255
219 234 255
219 234 255
219 234 255
219 234 255
219 234 255
219 234 255
219 234 255
219 234 255
219 234 255
219 234 255
219 234 255
219 234 255
219 234 255
219 234 255
219 234 255
219 234 255
219 234 255
219 234 255
219 234 255
219 234 255
219 234 255
219 234 255
219 234 255
219 234 255
219 234 255
219 234 255
219 234 255
219 234 255
219 234 255
219 234 255
219 234 255
219 234 255
219 234 255
219 234 255
219 234 255
219 234 255
219 234 255
219 234 255
219 234 255
219 234 255
219 234 255
219 234 255
219 234 255
219 234 255
219 234 255
219 234 255
219 234 255
219 234 255
219 234 255
219 234 255
219 234 255
219 234 255
219 234 255
219 234 255
219 234 255
219 234 255
219 234 255
219 234 255
219 234 255
219 234 255
142 152 187
9 10 113
10 13 114
53 59 109
15 15 113
0 0 113
0 0 113
0 0 113
0 0 113
0 0 113
0 0 113
0 0 113
0 0 113
0 0 113
0 0 113
0 0 113
0 0 113
0 0 113
0 0 113
0 0 113
0 0 113
0 0 113
0 0 113
0 0 113
0 0 113
0 0 113
0 0 113
0 0 113
0 0 113
0 0 113
0 0 113
0 0 113
0 0 113
0 0 113
0 0 113
0 0 113
0 0 113
0 0 113
0 0 113
0 0 113
0 0 113
0 0 113
0 0 113
0 0 113
0 0 113
0 0 113
0 0 113
0 0 113
0 0 113
0 0 113
0 0 112
0 0 113
0 0 113
0 0 113
0 0 113
0 0 113
0 0 113
3 3 113
7 8 113
1 1 113
0 0 113
0 0 113
0 15 115
0 20 116
0 20 116
0 20 116
0 21 124
3 23 114
16 17 113
21 12 119
15 30 119
18 46 125
25 43 129
53 69 130
68 92 110
84 111 110
97 126 97
102 135 57
98 129 60
102 131 70
106 132 74
110 136 83
110 135 73
115 135 77
128 143 104
135 148 120
117 136 87
95 129 42
100 136 60
111 142 83
111 142 77
102 135 76
99 133 74
99 135 56
105 140 71
113 136 65
104 136 61
108 137 56
108 135 69
96 130 41
91 124 41
96 131 19
97 129 53
104 136 71
90 123 81
45 65 118
11 15 113
0 0 113
0 0 113
0 0 113
0 0 113
0 0 113
0 0 113
0 0 113
0 0 113
0 0 113
0 0 113
0 0 113
0 0 113
0 0 113
0 0 112
0 0 112
0 0 113
0 0 113
0 0 112
55 70 106
89 112 84
101 127 63
81 103 80
50 64 106
15 19 112
27 32 117
22 28 108
61 75 102
74 89 103
64 79 107
76 92 108
79 88 106
115 132 97
102 116 106
69 80 112
69 88 98
53 64 118
76 90 103
56 64 111
20 21 118
40 51 112
95 119 79
100 124 87
74 94 95
21 29 115
24 31 114
12 14 114
5 5 113
11 12 114
6 6 113
5 8 111
0 5 112
9 10 114
2 3 112
9 11 113
1 2 113
0 0 113
0 0 113
0 0 113
0 0 113
0 0 113
0 0 113
0 0 113
0 0 113
0 0 113
0 0 113
0 0 113
0 0 113
0 0 113
0 0 113
0 0 113
0 0 113
0 0 113
0 0 113
0 0 113
0 0 113
0 0 113
0 0 113
0 0 113
0 0 113
0 0 112
0 0 113
0 0 113
0 0 113
0 0 113
0 0 113
0 0 113
0 0 113
0 0 113
0 0 113
0 0 113
0 0 113
0 0 113
7 44 129
72 119 168
210 224 230
219 234 255
219 234 255
219 234 255
219 234 255
219 234 255
219 234 255
219 234 255
219 234 255
219 234 255
219 234 255
219 234 255
219 234 255
219 234 255
219 234 255
219 234 255
219 234 255
219 234 255
219 234 255
219 234 255
219 234 255
219 234 255
219 234 255
219 234 255
219 234 255
219 234 255
219 234 255
219 234 255
219 234 255
219 234 255
219 234 255
219 234 255
219 234 255
219 234 255
219 234 255
219 234 255
219 234 255
219 234 255
219 234 255
219 234 255
219 234 255
219 234 255
219 234 255
219 234 255
219 234 255
219 234 255
219 234 255
219 234 255
219 234 255
219 234 255
219 234 255
219 234 255
219 234 255
219 234 255
219 234 255
219 234 255
219 234 255
219 234 255
219 234 255
219 234 255
219 234 255
219 234 255
219 234 255
219 234 255
219 234 255
219 234 255
219 234 255
219 234 255
219 234 255
219 234 255
219 234 255
219 234 255
219 234 255
219 234 255
219 234 255
219 234 255
219 234 255
219 234 255
219 234 255
219 234 255
219 234 255
219 234 255
219 234 255
219 234 255
219 234 255
219 234 255
219 234 255
219 234 255
219 234 255
219 234 255
219 234 255
219 234 255
219 234 255
219 234 255
219 234 255
219 234 255
219 234 255
219 234 255
219 234 255
219 234 255
219 234 255
219 234 255
219 234 255
219 234 255
219 234 255
219 234 255
219 234 255
219 234 255
219 234 255
219 234 255
219 234 255
219 234 255
219 234 255
219 234 255
219 234 255
219 234 255
219 234 255
219 234 255
219 234 255
219 234 255
219 234 255
219 234 255
219 234 255
219 234 255
219 234 255
219 234 255
219 234 255
219 234 255
219 234 255
219 234 255
219 234 255
219 234 255
219 234 255
219 234 255
219 234 255
219 234 255
219 234 255
219 234 255
219 234 255
219 234 255
219 234 255
219 234 255
219 234 255
219 234 255
219 234 255
219 234 255
219 234 255
219 234 255
219 234 255
219 234 255
219 234 255
219 234 255
219 234 255
219 234 255
219 234 255
219 234 255
219 234 255
219 234 255
219 234 255
219 234 255
219 234 255
219 234 255
219 234 255
219 234 255
219 234 255
219 234 255
219 234 255
219 234 255
219 234 255
219 234 255
219 234 255
219 234 255
219 234 255
219 234 255
219 234 255
219 234 255
219 234 255
219 234 255
219 234 255
219 234 255
219 234 255
219 234 255
219 234 255
219 234 255
219 234 255
219 234 255
219 234 255
219 234 255
219 234 255
219 234 255
219 234 255
219 234 255
219 234 255
219 234 255
219 234 255
219 234 255
219 234 255
219 234 255
219 234 255
49 52 124
5 3 112
10 14 113
76 84 97
0 0 113
0 0 113
0 0 113
0 0 113
0 0 113
0 0 113
0 0 113
0 0 113
0 0 112
0 0 113
0 0 113
0 0 113
0 0 113
0 0 113
0 0 113
0 0 113
0 0 113
0 0 113
0 0 113
0 0 112
0 0 113
0 0 113
0 0 113
0 0 113
0 0 113
0 0 113
0 0 113
0 0 113
0 0 113
0 0 113
0 0 113
0 0 113
0 0 113
0 0 113
0 0 113
0 0 113
0 0 113
0 0 113
0 0 113
0 0 113
0 0 113
0 0 113
0 0 113
0 0 113
0 0 113
0 0 113
0 0 113
0 0 113
0 0 113
0 0 113
0 0 113
0 0 113
0 0 113
0 0 113
0 0 113
0 0 113
0 0 113
5 5 113
1 18 116
0 20 116
0 20 116
0 20 116
13 15 118
7 19 116
14 21 117
23 6 118
24 16 119
9 26 121
12 35 121
0 36 123
5 43 136
19 51 132
50 77 123
85 117 86
98 127 66
99 127 63
99 126 61
106 131 70
111 133 81
112 133 75
122 138 96
130 145 103
123 139 98
91 117 37
99 130 52
103 136 61
104 139 75
107 143 61
105 142 52
100 134 63
99 133 60
104 133 54
94 131 66
97 134 62
104 137 54
96 134 49
89 130 27
94 128 40
97 129 34
99 131 50
83 112 89
28 40 126
16 12 109
0 0 113
0 0 113
0 0 113
0 0 113
0 0 113
0 0 113
0 0 113
0 0 113
0 0 113
0 0 113
0 0 113
0 0 113
0 0 113
0 0 113
0 0 113
0 0 113
0 0 113
0 0 115
16 24 115
34 44 109
38 46 118
37 45 118
28 36 114
9 13 111
9 14 109
7 13 112
11 11 116
12 12 116
14 7 117
16 17 118
12 11 109
57 64 110
52 56 114
17 27 105
15 22 117
17 21 116
22 17 114
20 12 118
15 23 107
25 34 112
49 63 110
55 69 116
48 61 107
18 26 114
27 33 117
13 18 113
0 11 112
16 20 114
16 21 114
16 21 112
9 16 112
11 13 114
8 8 113
8 12 113
4 7 113
0 0 113
0 0 113
0 0 113
0 0 113
0 0 113
0 0 113
0 0 113
0 0 113
0 0 113
0 0 113
0 0 113
0 0 113
0 0 113
0 0 113
0 0 113
0 0 113
0 0 113
0 0 113
0 0 113
0 0 113
0 0 113
0 0 113
0 0 113
0 0 113
0 0 113
0 0 113
0 0 113
0 0 113
0 0 113
0 0 113
0 0 113
0 0 112
0 0 113
0 0 113
0 0 113
2 2 113
9 6 115
13 31 122
17 84 154
167 191 199
219 234 254
219 234 255
219 234 255
219 234 255
219 234 255
219 234 255
219 234 255
219 234 255
219 234 255
219 234 255
219 234 255
219 234 255
219 234 255
219 234 255
219 234 255
219 234 255
219 234 255
219 234 255
219 234 255
219 234 255
219 234 255
219 234 255
219 234 255
219 234 255
219 234 255
219 234 255
219 234 255
219 234 255
219 234 255
219 234 255
219 234 255
219 234 255
219 234 255
219 234 255
219 234 255
219 234 255
219 234 255
219 234 255
219 234 255
219 234 255
219 234 255
219 234 255
219 234 255
219 234 255
219 234 255
219 234 255
219 234 255
219 234 255
219 234 255
219 234 255
219 234 255
219 234 255
219 234 255
219 234 255
219 234 255
219 234 255
219 234 255
219 234 255
219 234 255
219 234 255
219 234 255
219 234 255
219 234 255
219 234 255
219 234 255
219 234 255
219 234 255
219 234 255
219 234 255
219 234 255
219 234 255
219 234 255
219 234 255
219 234 255
219 234 255
219 234 255
219 234 255
219 234 255
219 234 255
219 234 255
219 234 255
219 234 255
219 234 255
219 234 255
219 234 255
219 234 255
219 234 255
219 234 255
219 234 255
219 234 255
219 234 255
219 234 255
219 234 255
219 234 255
219 234 255
219 234 255
219 234 255
219 234 255
219 234 255
219 234 255
219 234 255
219 234 255
219 234 255
219 234 255
219 234 255
219 234 255
219 234 255
219 234 255
219 234 255
219 234 255
219 234 255
219 234 255
219 234 255
219 234 255
219 234 255
219 234 255
219 234 255
219 234 255
219 234 255
219 234 255
219 234 255
219 234 255
219 234 255
219 234 255
219 234 255
219 234 255
219 234 255
219 234 255
219 234 255
219 234 255
219 234 255
219 234 255
219 234 255
219 234 255
219 234 255
219 234 255
219 234 255
219 234 255
219 234 255
219 234 255
219 234 255
219 234 255
219 234 255
219 234 255
219 234 255
219 234 255
219 234 255
219 234 255
219 234 255
219 234 255
219 234 255
219 234 255
219 234 255
219 234 255
219 234 255
219 234 255
219 234 255
219 234 255
219 234 255
219 234 255
219 234 255
219 234 255
219 234 255
219 234 255
219 234 255
219 234 255
219 234 255
219 234 255
219 234 255
219 234 255
219 234 255
219 234 255
219 234 255
219 234 255
219 234 255
219 234 255
219 234 255
219 234 255
219 234 255
219 234 255
219 234 255
219 234 255
219 234 255
219 234 255
219 234 255
219 234 255
219 234 255
219 234 255
219 234 255
219 234 255
219 234 255
219 234 255
219 234 255
219 234 255
219 234 255
219 234 255
219 234 255
174 186 214
0 0 113
0 0 112
28 24 113
43 42 112
0 0 113
0 0 113
0 0 113
0 0 113
0 0 113
0 0 113
0 0 113
0 0 113
0 0 113
0 0 113
0 0 113
0 0 113
0 0 113
0 0 113
0 0 113
0 0 113
0 0 113
0 0 113
0 0 113
0 0 113
0 0 113
0 0 113
0 0 113
0 0 113
0 0 113
0 0 113
0 0 113
0 0 113
0 0 113
0 0 113
0 0 113
0 0 113
0 0 113
0 0 113
0 0 113
0 0 113
0 0 113
0 0 113
0 0 113
0 0 113
0 0 113
0 0 113
0 0 113
0 0 113
0 0 113
0 0 113
0 0 113
0 0 113
0 0 113
0 0 113
0 0 113
0 0 113
0 0 113
0 0 113
0 0 113
0 0 113
5 5 113
12 13 114
5 19 116
0 20 116
0 20 116
0 18 116
22 13 110
0 18 116
1 22 114
22 14 108
21 10 116
8 20 119
17 19 114
22 29 120
7 22 114
27 31 123
23 16 124
40 52 121
61 81 122
80 106 93
98 127 76
103 130 70
104 128 75
103 128 74
108 130 59
118 135 83
123 137 97
116 135 88
104 128 64
93 124 49
95 128 62
91 125 45
92 126 50
99 131 67
103 132 66
101 131 60
97 126 54
88 124 34
92 123 42
107 132 62
104 138 59
96 131 45
95 129 41
93 128 44
81 110 93
21 40 120
11 14 117
6 8 112
5 7 113
5 2 112
14 11 114
7 0 113
5 2 113
0 5 111
0 0 112
8 9 113
0 0 113
7 11 112
0 0 113
0 0 113
0 0 113
0 0 113
0 0 113
0 0 113
0 9 112
16 21 114
13 15 113
13 17 113
10 10 109
7 10 113
8 12 112
8 8 115
12 18 112
9 13 110
12 10 116
19 19 109
21 13 110
14 15 117
8 19 112
20 20 119
15 18 114
12 19 113
17 23 106
14 17 117
18 22 113
9 19 110
10 20 113
14 16 111
15 22 110
13 15 120
15 15 115
10 15 109
8 17 112
0 9 111
17 24 114
23 29 115
26 32 115
24 30 113
4 5 113
9 10 115
2 6 112
3 8 113
0 0 113
0 0 113
0 0 113
0 0 113
0 0 113
0 0 113
0 0 113
0 0 113
0 0 113
0 0 113
0 0 113
0 0 113
0 0 113
0 0 113
0 0 113
0 0 113
0 0 113
0 0 113
0 0 113
0 0 113
0 0 113
0 0 113
0 0 113
0 0 113
0 0 113
0 0 113
0 0 113
0 0 113
0 0 113
0 0 113
0 0 113
0 0 113
0 0 113
0 0 113
0 0 113
0 0 113
7 8 113
9 20 116
9 60 138
138 162 183
216 228 241
219 234 255
219 234 255
219 234 255
219 234 255
219 234 255
219 234 255
219 234 255
219 234 255
219 234 255
219 234 255
219 234 255
219 234 255
219 234 255
219 234 255
219 234 255
219 234 255
219 234 255
219 234 255
219 234 255
219 234 255
219 234 255
219 234 255
219 234 255
219 234 255
219 234 255
219 234 255
219 234 255
219 234 255
219 234 255
219 234 255
219 234 255
219 234 255
219 234 255
219 234 255
219 234 255
219 234 255
219 234 255
219 234 255
219 234 255
219 234 255
219 234 255
219 234 255
219 234 255
219 234 255
219 234 255
219 234 255
219 234 255
219 234 255
219 234 255
219 234 255
219 234 255
219 234 255
219 234 255
219 234 255
219 234 255
219 234 255
219 234 255
219 234 255
219 234 255
219 234 255
219 234 255
219 234 255
219 234 255
219 234 255
219 234 255
219 234 255
219 234 255
219 234 255
219 234 255
219 234 255
219 234 255
219 234 255
219 234 255
219 234 255
219 234 255
219 234 255
219 234 255
219 234 255
219 234 255
219 234 255
219 234 255
219 234 255
219 234 255
219 234 255
219 234 255
219 234 255
219 234 255
219 234 255
219 234 255
219 234 255
219 234 255
219 234 255
219 234 255
219 234 255
219 234 255
219 234 255
219 234 255
219 234 255
219 234 255
219 234 255
219 234 255
219 234 255
219 234 255
219 234 255
219 234 255
219 234 255
219 234 255
219 234 255
219 234 255
219 234 255
219 234 255
219 234 255
219 234 255
219 234 255
219 234 255
219 234 255
219 234 255
219 234 255
219 234 255
219 234 255
219 234 255
219 234 255
219 234 255
219 234 255
219 234 255
219 234 255
219 234 255
219 234 255
219 234 255
219 234 255
219 234 255
219 234 255
219 234 255
219 234 255
219 234 255
219 234 255
219 234 255
219 234 255
219 234 255
219 234 255
219 234 255
219 234 255
219 234 255
219 234 255
219 234 255
219 234 255
219 234 255
219 234 255
219 234 255
219 234 255
219 234 255
219 234 255
219 234 255
219 234 255
219 234 255
219 234 255
219 234 255
219 234 255
219 234 255
219 234 255
219 234 255
219 234 255
219 234 255
219 234 255
219 234 255
219 234 255
219 234 255
219 234 255
219 234 255
219 234 255
219 234 255
219 234 255
219 234 255
219 234 255
219 234 255
219 234 255
219 234 255
219 234 255
219 234 255
219 234 255
219 234 255
219 234 255
219 234 255
219 234 255
219 234 255
219 234 255
219 234 255
219 234 255
219 234 255
219 234 255
219 234 255
219 234 255
219 234 255
219 234 255
219 234 255
219 234 255
120 128 169
0 0 113
6 2 113
16 18 110
5 16 114
0 0 113
0 0 113
0 0 113
0 0 113
0 0 113
0 0 113
0 0 113
0 0 113
0 0 113
0 0 113
0 0 113
0 0 113
0 0 113
0 0 113
0 0 113
0 0 113
0 0 113
0 0 113
0 0 113
0 0 113
0 0 113
0 0 113
0 0 113
0 0 113
0 0 113
0 0 113
0 0 113
0 0 113
0 0 113
0 0 113
0 0 113
0 0 113
0 0 113
0 0 113
0 0 113
0 0 113
0 0 113
0 0 113
0 0 113
0 0 113
0 0 113
0 0 113
0 0 113
0 0 113
0 0 113
0 0 114
0 13 114
0 14 115
0 13 114
0 0 113
0 0 113
0 0 113
0 0 113
0 0 112
0 0 113
0 0 113
3 3 113
4 5 113
0 7 113
0 5 113
0 5 113
0 6 113
5 1 112
0 6 114
0 5 113
2 2 113
2 0 113
4 10 114
7 18 116
2 20 116
0 20 116
12 24 117
13 25 118
15 25 116
15 19 119
17 26 124
49 67 129
71 97 113
83 114 110
101 132 86
102 134 61
102 127 53
118 136 93
126 143 106
111 131 81
108 131 71
109 136 97
101 131 75
108 137 69
111 136 81
111 138 81
109 132 72
101 126 64
91 120 51
86 120 26
94 130 40
101 136 56
102 136 56
98 132 48
93 126 51
67 86 106
20 24 119
19 26 107
13 23 114
13 19 116
12 7 115
20 15 116
16 15 116
13 16 115
17 19 113
0 0 107
14 16 116
7 11 113
19 24 114
3 4 113
0 0 113
0 0 113
0 0 113
0 0 113
0 0 113
0 0 113
0 0 113
0 0 113
0 0 113
0 0 113
0 0 113
0 0 113
0 0 113
0 0 113
1 3 112
0 0 113
4 5 113
6 1 113
4 4 113
2 8 112
0 5 112
5 7 113
0 0 113
12 16 112
5 7 115
6 9 112
5 7 113
0 0 115
10 10 115
4 11 111
9 12 112
8 9 113
9 13 112
6 11 113
0 6 112
10 14 112
20 24 115
26 31 115
22 27 112
14 17 114
10 11 116
7 10 114
5 12 112
0 0 113
0 0 113
0 0 113
2 2 113
4 2 113
1 0 113
0 0 112
0 0 113
0 0 113
0 0 113
0 0 113
0 0 113
0 0 113
0 0 113
0 0 113
0 0 113
0 0 113
0 0 113
0 0 113
0 0 113
0 0 113
0 0 113
0 0 113
0 0 113
0 0 113
0 0 113
0 0 113
0 0 113
0 0 113
0 0 113
0 0 113
0 0 113
0 0 113
0 0 113
0 0 113
0 0 113
5 5 113
13 21 115
9 41 128
43 103 162
209 219 220
219 234 255
219 234 255
219 234 255
219 234 255
219 234 255
219 234 255
219 234 255
219 234 255
219 234 255
219 234 255
219 234 255
219 234 255
219 234 255
219 234 255
219 234 255
219 234 255
219 234 255
219 234 255
219 234 255
219 234 255
219 234 255
219 234 255
219 234 255
219 234 255
219 234 255
219 234 255
219 234 255
219 234 255
219 234 255
219 234 255
219 234 255
219 234 255
219 234 255
219 234 255
219 234 255
219 234 255
219 234 255
219 234 255
219 234 255
219 234 255
219 234 255
219 234 255
219 234 255
219 234 255
219 234 255
219 234 255
219 234 255
219 234 255
219 234 255
219 234 255
219 234 255
219 234 255
219 234 255
219 234 255
219 234 255
219 234 255
219 234 255
219 234 255
219 234 255
219 234 255
219 234 255
219 234 255
219 234 255
219 234 255
219 234 255
219 234 255
219 234 255
219 234 255
219 234 255
219 234 255
219 234 255
219 234 255
219 234 255
219 234 255
219 234 255
219 234 255
219 234 255
219 234 255
219 234 255
219 234 255
219 234 255
219 234 255
219 234 255
219 234 255
219 234 255
219 234 255
219 234 255
219 234 255
219 234 255
219 234 255
219 234 255
219 234 255
219 234 255
219 234 255
219 234 255
219 234 255
219 234 255
219 234 255
219 234 255
219 234 255
219 234 255
219 234 255
219 234 255
219 234 255
219 234 255
219 234 255
219 234 255
219 234 255
219 234 255
219 234 255
219 234 255
219 234 255
219 234 255
219 234 255
219 234 255
219 234 255
219 234 255
219 234 255
219 234 255
219 234 255
219 234 255
219 234 255
219 234 255
219 234 255
219 234 255
219 234 255
219 234 255
219 234 255
219 234 255
219 234 255
219 234 255
219 234 255
219 234 255
219 234 255
219 234 255
219 234 255
219 234 255
219 234 255
219 234 255
219 234 255
219 234 255
219 234 255
219 234 255
219 234 255
219 234 255
219 234 255
219 234 255
219 234 255
219 234 255
219 234 255
219 234 255
219 234 255
219 234 255
219 234 255
219 234 255
219 234 255
219 234 255
219 234 255
219 234 255
219 234 255
219 234 255
219 234 255
219 234 255
219 234 255
219 234 255
219 234 255
219 234 255
219 234 255
219 234 255
219 234 255
219 234 255
219 234 255
219 234 255
219 234 255
219 234 255
219 234 255
219 234 255
219 234 255
219 234 255
219 234 255
219 234 255
219 234 255
219 234 255
219 234 255
219 234 255
219 234 255
219 234 255
219 234 255
219 234 255
219 234 255
219 234 255
219 234 255
219 234 255
219 234 255
219 234 255
211 226 248
43 46 122
0 0 113
5 7 114
12 15 112
0 0 113
0 0 113
0 0 113
0 0 113
0 0 113
0 0 113
0 0 113
0 0 113
0 0 113
0 0 113
0 0 113
0 0 113
0 0 113
0 0 113
0 0 113
0 0 113
0 0 113
0 0 113
0 0 113
0 0 113
0 0 113
0 0 113
0 0 113
0 0 113
0 0 113
0 0 113
0 0 113
0 0 113
0 0 113
0 0 113
0 0 113
0 0 113
0 0 113
0 0 113
0 0 113
0 0 113
0 0 113
0 0 113
0 0 113
0 0 113
0 0 113
0 0 113
0 0 113
0 0 113
0 0 113
0 0 113
0 3 115
0 20 116
0 20 116
0 16 115
0 0 113
0 0 113
0 0 113
0 0 113
0 0 113
0 0 113
0 0 113
0 0 113
0 0 113
0 0 113
0 0 113
0 0 113
0 0 113
0 0 113
0 0 113
0 0 113
0 0 113
0 0 113
6 7 113
9 9 113
2 14 115
0 18 116
6 21 116
11 23 117
8 20 117
14 22 120
6 20 122
13 32 123
11 30 119
32 50 123
59 81 132
81 112 94
91 120 72
105 129 78
106 131 70
95 124 80
78 123 120
68 109 147
54 92 134
81 112 87
95 126 48
97 130 55
102 131 64
105 132 84
100 126 67
89 119 23
93 127 31
98 134 42
99 135 66
94 131 37
76 108 92
26 48 114
23 45 113
24 40 113
10 21 115
22 38 111
45 64 111
40 62 104
38 59 108
28 49 110
15 14 126
8 23 104
18 19 125
10 16 117
14 18 115
2 11 111
0 0 113
0 0 113
0 0 113
0 0 113
0 0 113
0 0 113
0 0 113
0 0 113
0 0 113
0 0 113
0 0 113
0 0 113
0 0 113
0 0 113
0 0 113
0 0 113
0 0 113
0 0 113
0 0 113
0 0 113
0 0 113
0 0 113
0 0 113
0 0 113
0 0 113
0 0 113
0 0 113
0 0 113
0 0 113
0 0 113
0 0 113
0 0 113
0 0 113
0 0 113
0 0 113
0 0 113
8 8 113
16 17 114
56 68 107
25 29 119
13 15 117
16 22 111
10 15 111
0 0 113
0 0 113
0 0 112
5 6 113
14 6 113
14 0 112
0 0 113
0 0 113
0 0 113
0 0 113
0 0 113
0 0 113
0 0 113
0 0 113
0 0 113
0 0 113
0 0 112
0 0 113
0 0 113
0 0 113
0 0 113
0 0 113
0 0 113
0 0 113
0 0 113
0 0 113
0 0 113
0 0 113
0 0 113
0 0 113
0 0 113
0 0 113
0 0 113
0 0 113
0 0 113
0 0 113
4 5 113
15 17 116
9 32 123
16 56 136
157 176 188
219 234 254
219 234 255
219 234 255
219 234 255
219 234 255
219 234 255
219 234 255
219 234 255
219 234 255
219 234 255
219 234 255
219 234 255
219 234 255
219 234 255
219 234 255
219 234 255
219 234 255
219 234 255
219 234 255
219 234 255
219 234 255
219 234 255
219 234 255
219 234 255
219 234 255
219 234 255
219 234 255
219 234 255
219 234 255
219 234 255
219 234 255
219 234 255
219 234 255
219 234 255
219 234 255
219 234 255
219 234 255
219 234 255
219 234 255
219 234 255
219 234 255
219 234 255
219 234 255
219 234 255
219 234 255
219 234 255
219 234 255
219 234 255
219 234 255
219 234 255
219 234 255
219 234 255
219 234 255
219 234 255
219 234 255
219 234 255
219 234 255
219 234 255
219 234 255
219 234 255
219 234 255
219 234 255
219 234 255
219 234 255
219 234 255
219 234 255
219 234 255
219 234 255
219 234 255
219 234 255
219 234 255
219 234 255
219 234 255
219 234 255
219 234 255
219 234 255
219 234 255
219 234 255
219 234 255
219 234 255
219 234 255
219 234 255
219 234 255
219 234 255
219 234 255
219 234 255
219 234 255
219 234 255
219 234 255
219 234 255
219 234 255
219 234 255
219 234 255
219 234 255
219 234 255
219 234 255
219 234 255
219 234 255
219 234 255
219 234 255
219 234 255
219 234 255
219 234 255
219 234 255
219 234 255
219 234 255
219 234 255
219 234 255
219 234 255
219 234 255
219 234 255
219 234 255
219 234 255
219 234 255
219 234 255
219 234 255
219 234 255
219 234 255
219 234 255
219 234 255
219 234 255
219 234 255
219 234 255
219 234 255
219 234 255
219 234 255
219 234 255
219 234 255
219 234 255
219 234 255
219 234 255
219 234 255
219 234 255
219 234 255
219 234 255
219 234 255
219 234 255
219 234 255
219 234 255
219 234 255
219 234 255
219 234 255
219 234 255
219 234 255
219 234 255
219 234 255
219 234 255
219 234 255
219 234 255
219 234 255
219 234 255
219 234 255
219 234 255
219 234 255
219 234 255
219 234 255
219 234 255
219 234 255
219 234 255
219 234 255
219 234 255
219 234 255
219 234 255
219 234 255
219 234 255
219 234 255
219 234 255
219 234 255
219 234 255
219 234 255
219 234 255
219 234 255
219 234 255
219 234 255
219 234 255
219 234 255
219 234 255
219 234 255
219 234 255
219 234 255
219 234 255
219 234 255
219 234 255
219 234 255
219 234 255
219 234 255
219 234 255
219 234 255
219 234 255
219 234 255
219 234 255
219 234 255
219 234 255
219 234 255
219 234 255
171 183 212
0 0 113
0 0 113
10 9 114
14 12 115
0 0 113
0 0 113
0 0 113
0 0 113
0 0 113
0 0 113
0 0 113
0 0 113
0 0 113
0 0 113
0 0 113
0 0 113
0 0 113
0 0 113
0 0 113
0 0 113
0 0 113
0 0 113
0 0 113
0 0 113
0 0 113
0 0 113
0 0 113
0 0 113
0 0 113
0 0 113
0 0 113
0 0 113
0 0 113
0 0 113
0 0 113
0 0 113
0 0 112
0 0 113
0 0 113
0 0 113
0 0 113
0 0 113
0 0 113
0 0 113
0 0 113
0 0 113
0 0 112
0 0 113
0 0 113
0 0 114
0 8 115
0 20 116
0 20 116
0 13 114
0 0 113
0 0 113
0 0 113
0 0 113
0 0 113
0 0 113
0 0 113
0 0 113
0 0 113
0 0 113
0 0 113
0 0 113
0 0 113
0 0 113
0 0 113
0 0 113
0 0 113
0 0 113
0 0 113
0 0 113
0 3 113
0 13 115
0 16 115
2 20 116
5 15 118
6 15 118
0 12 114
17 27 117
9 24 119
12 24 120
15 34 116
18 35 125
28 43 135
58 72 125
59 81 110
38 68 132
22 85 162
23 82 153
13 63 136
14 28 133
45 65 115
88 120 70
95 126 35
99 126 63
107 129 63
104 127 56
96 124 55
101 131 62
94 128 36
86 120 44
91 123 68
92 124 59
101 131 65
95 124 64
99 123 75
95 122 64
100 130 59
97 129 41
90 123 42
94 124 64
75 95 96
44 55 119
19 26 113
11 24 113
0 14 119
14 21 119
0 0 113
0 0 113
0 0 113
0 0 113
0 0 113
0 0 113
0 0 113
0 0 113
0 0 113
0 0 113
0 0 113
0 0 113
0 0 113
0 0 113
0 0 113
0 0 113
0 0 113
0 0 113
0 0 113
0 0 113
0 0 113
0 0 113
0 0 113
0 0 113
0 0 113
0 0 113
0 0 113
0 0 113
0 0 113
0 0 113
0 0 113
0 0 113
0 0 113
0 0 113
0 0 113
0 0 113
0 0 113
8 9 113
48 58 112
30 40 104
12 16 109
10 13 112
12 15 113
0 0 113
0 4 113
0 4 113
0 0 113
0 0 113
0 0 113
0 0 113
0 0 113
0 0 113
0 0 113
0 0 113
0 0 113
0 0 113
0 0 113
0 0 113
0 0 113
0 0 113
0 0 113
0 0 113
0 0 113
0 0 113
0 0 113
0 0 113
0 0 113
0 0 113
0 0 113
0 0 113
0 0 113
0 0 113
0 0 113
0 0 113
0 0 113
0 0 112
0 0 113
0 0 113
4 4 113
6 6 113
34 35 113
11 21 118
13 33 124
102 131 168
216 226 237
219 234 255
219 234 255
219 234 255
219 234 255
219 234 255
219 234 255
219 234 255
219 234 255
219 234 255
219 234 255
219 234 255
219 234 255
219 234 255
219 234 255
219 234 255
219 234 255
219 234 255
219 234 255
219 234 255
219 234 255
219 234 255
219 234 255
219 234 255
219 234 255
219 234 255
219 234 255
219 234 255
219 234 255
219 234 255
219 234 255
219 234 255
219 234 255
219 234 255
219 234 255
219 234 255
219 234 255
219 234 255
219 234 255
219 234 255
219 234 255
219 234 255
219 234 255
219 234 255
219 234 255
219 234 255
219 234 255
219 234 255
219 234 255
219 234 255
219 234 255
219 234 255
219 234 255
219 234 255
219 234 255
219 234 255
219 234 255
219 234 255
219 234 255
219 234 255
219 234 255
219 234 255
219 234 255
219 234 255
219 234 255
219 234 255
219 234 255
219 234 255
219 234 255
219 234 255
219 234 255
219 234 255
219 234 255
219 234 255
219 234 255
219 234 255
219 234 255
219 234 255
219 234 255
219 234 255
219 234 255
219 234 255
219 234 255
219 234 255
219 234 255
219 234 255
219 234 255
219 234 255
219 234 255
219 234 255
219 234 255
219 234 255
219 234 255
219 234 255
219 234 255
219 234 255
219 234 255
219 234 255
219 234 255
219 234 255
219 234 255
219 234 255
219 234 255
219 234 255
219 234 255
219 234 255
219 234 255
219 234 255
219 234 255
219 234 255
219 234 255
219 234 255
219 234 255
219 234 255
219 234 255
219 234 255
219 234 255
219 234 255
219 234 255
219 234 255
219 234 255
219 234 255
219 234 255
219 234 255
219 234 255
219 234 255
219 234 255
219 234 255
219 234 255
219 234 255
219 234 255
219 234 255
219 234 255
219 234 255
219 234 255
219 234 255
219 234 255
219 234 255
219 234 255
219 234 255
219 234 255
219 234 255
219 234 255
219 234 255
219 234 255
219 234 255
219 234 255
219 234 255
219 234 255
219 234 255
219 234 255
219 234 255
219 234 255
219 234 255
219 234 255
219 234 255
219 234 255
219 234 255
219 234 255
219 234 255
219 234 255
219 234 255
219 234 255
219 234 255
219 234 255
219 234 255
219 234 255
219 234 255
219 234 255
219 234 255
219 234 255
219 234 255
219 234 255
219 234 255
219 234 255
219 234 255
219 234 255
219 234 255
219 234 255
219 234 255
219 234 255
219 234 255
219 234 255
219 234 255
219 234 255
219 234 255
219 234 255
219 234 255
219 234 255
219 234 255
219 234 255
219 234 255
219 234 255
219 234 255
219 234 255
133 142 179
0 0 113
0 0 113
4 6 112
4 0 112
0 0 113
0 0 113
0 0 113
0 0 113
0 0 113
0 0 113
0 0 113
0 0 113
0 0 113
0 0 113
0 0 113
0 0 113
0 0 113
0 0 113
0 0 113
0 0 113
0 0 113
0 0 113
0 0 113
0 0 113
0 0 113
0 0 113
0 0 113
0 0 113
0 0 113
0 0 113
0 0 113
0 0 113
0 0 113
0 0 113
0 0 113
0 0 113
0 0 113
0 0 113
0 0 113
0 0 113
0 0 113
0 0 113
0 0 113
0 0 113
0 0 113
0 0 113
0 0 113
0 0 113
0 0 113
0 0 114
0 12 116
0 20 116
0 20 116
0 9 114
0 0 113
0 0 113
0 0 113
0 0 113
0 0 113
0 0 113
0 0 113
0 0 113
0 0 113
0 0 113
0 0 113
0 0 113
0 0 113
0 0 113
0 0 113
0 0 113
0 0 113
0 0 113
0 0 113
0 0 113
0 0 113
0 8 114
0 14 115
0 16 115
11 26 113
12 24 115
6 15 118
16 18 119
18 24 116
16 17 111
15 18 116
17 28 119
9 25 117
22 24 119
21 26 125
18 42 133
18 62 140
14 59 138
19 49 133
21 25 128
18 25 120
37 60 113
90 117 75
98 124 57
105 126 58
104 123 72
103 125 71
103 128 67
107 133 61
104 131 64
106 134 73
105 132 60
104 129 46
105 130 58
109 130 49
107 131 64
106 132 76
102 131 74
92 123 42
100 130 47
103 128 72
96 116 101
58 70 119
7 14 123
0 13 120
0 16 113
0 0 113
0 0 113
0 0 113
0 0 113
0 0 113
0 0 113
0 0 113
0 0 113
0 0 112
0 0 112
0 0 113
0 0 113
0 0 113
0 0 113
0 0 113
0 0 113
0 0 113
0 0 113
0 0 113
0 0 113
0 0 113
0 0 113
0 0 113
0 0 113
0 0 113
0 0 113
0 0 113
0 0 113
0 0 113
0 0 113
0 0 113
0 0 113
0 0 113
0 0 113
0 0 113
0 0 113
0 0 112
0 0 113
21 27 110
40 46 118
16 19 114
19 22 116
11 18 110
7 10 113
0 17 115
0 22 117
0 15 115
0 4 113
0 6 113
0 3 112
0 0 113
0 0 113
0 0 112
0 0 113
0 0 113
0 0 113
0 0 113
0 0 113
0 0 113
0 0 113
0 0 113
0 0 113
0 0 113
0 0 113
0 0 113
0 0 113
0 0 112
0 0 113
0 0 113
0 0 113
0 0 113
0 0 113
0 0 113
0 0 113
0 0 113
0 0 113
0 0 113
0 0 113
0 0 113
1 1 113
30 32 116
24 32 114
18 29 119
43 87 150
208 211 209
219 234 255
219 234 255
219 234 255
219 234 255
219 234 255
219 234 255
219 234 255
219 234 255
219 234 255
219 234 255
219 234 255
219 234 255
219 234 255
219 234 255
219 234 255
219 234 255
219 234 255
219 234 255
219 234 255
219 234 255
219 234 255
219 234 255
219 234 255
219 234 255
219 234 255
219 234 255
219 234 255
219 234 255
219 234 255
219 234 255
219 234 255
219 234 255
219 234 255
219 234 255
219 234 255
219 234 255
219 234 255
219 234 255
219 234 255
219 234 255
219 234 255
219 234 255
219 234 255
219 234 255
219 234 255
219 234 255
219 234 255
219 234 255
219 234 255
219 234 255
219 234 255
219 234 255
219 234 255
219 234 255
219 234 255
219 234 255
219 234 255
219 234 255
219 234 255
219 234 255
219 234 255
219 234 255
219 234 255
219 234 255
219 234 255
219 234 255
219 234 255
219 234 255
219 234 255
219 234 255
219 234 255
219 234 255
219 234 255
219 234 255
219 234 255
219 234 255
219 234 255
219 234 255
219 234 255
219 234 255
219 234 255
219 234 255
219 234 255
219 234 255
219 234 255
219 234 255
219 234 255
219 234 255
219 234 255
219 234 255
219 234 255
219 234 255
219 234 255
219 234 255
219 234 255
219 234 255
219 234 255
219 235 255
219 235 255
219 235 255
219 235 255
219 235 255
219 235 255
219 235 255
219 235 255
219 235 255
219 235 255
219 235 255
219 235 255
219 235 255
219 235 255
219 235 255
219 235 255
219 235 255
219 235 255
219 235 255
219 235 255
219 235 255
219 235 255
219 235 255
219 235 255
219 235 255
219 235 255
219 235 255
219 235 255
219 235 255
219 235 255
219 235 255
219 235 255
219 235 255
219 235 255
219 235 255
219 235 255
219 235 255
219 235 255
219 235 255
219 235 255
219 235 255
219 235 255
219 235 255
219 235 255
219 235 255
219 235 255
219 235 255
219 235 255
219 235 255
219 235 255
219 235 255
219 235 255
219 235 255
219 235 255
219 235 255
219 235 255
219 234 255
219 234 255
219 234 255
219 235 255
219 234 255
219 234 255
219 234 255
219 234 255
219 234 255
219 234 255
219 234 255
219 234 255
219 234 255
219 234 255
219 234 255
219 234 255
219 234 255
219 234 255
219 234 255
219 234 255
219 234 255
219 234 255
219 234 255
219 234 255
219 234 255
219 234 255
219 234 255
219 234 255
219 234 255
219 234 255
219 234 255
219 234 255
219 234 255
219 234 255
219 234 255
219 234 255
219 234 255
219 234 255
219 234 255
219 234 255
218 233 254
49 52 124
0 0 113
0 0 113
0 0 113
0 0 113
0 0 113
0 0 113
0 0 113
0 0 113
0 0 112
0 0 113
0 0 113
0 0 113
0 0 113
0 0 113
0 0 113
0 0 113
0 0 113
0 0 113
0 0 113
0 0 113
0 0 114
6 7 114
6 7 115
0 0 114
0 0 113
0 0 113
0 0 113
0 0 113
0 0 113
0 0 113
0 0 113
0 0 113
0 0 113
0 0 113
0 0 113
0 0 113
0 0 113
0 0 113
0 0 113
0 0 113
0 0 113
0 0 113
0 0 113
0 0 113
0 0 113
0 0 113
0 0 113
0 0 113
0 0 113
0 0 114
0 13 116
0 20 116
0 20 116
0 6 113
0 0 113
0 0 113
0 0 113
0 0 113
0 0 113
0 0 113
0 0 113
0 0 113
0 0 112
0 0 113
0 0 113
0 0 113
0 0 113
0 0 113
0 0 113
0 0 113
0 0 113
0 0 113
0 0 113
0 0 113
0 0 113
0 0 113
0 11 114
0 14 115
6 14 111
6 13 113
9 16 118
12 14 116
14 20 115
19 24 116
19 11 122
11 22 114
0 16 113
19 17 118
15 23 117
8 29 116
22 47 121
6 41 131
8 36 125
15 24 125
12 9 128
0 30 109
47 64 120
91 116 89
102 130 68
94 120 54
101 128 58
104 129 68
113 137 81
111 135 78
105 130 65
104 127 72
106 126 72
111 131 66
117 135 80
115 137 77
113 140 76
105 136 69
94 126 57
96 126 68
110 135 63
112 137 78
66 78 116
12 15 120
24 26 120
10 12 111
0 0 113
0 0 113
0 0 113
0 0 113
0 0 113
0 0 113
0 0 113
0 0 113
0 0 113
0 0 112
0 0 113
0 0 113
0 0 113
0 0 113
0 0 113
0 0 113
0 0 113
0 0 113
0 0 113
0 0 113
0 0 113
0 0 113
0 0 113
0 0 113
0 0 113
0 0 113
0 0 113
0 0 113
0 0 113
0 0 113
0 0 113
0 0 113
0 0 113
0 0 113
0 0 113
0 0 113
0 0 113
5 5 113
9 15 102
46 55 112
29 36 111
8 9 112
13 17 112
6 9 114
10 25 118
3 26 121
0 20 117
0 8 113
0 14 115
0 13 115
0 2 112
3 0 112
3 0 113
0 0 113
0 0 113
0 0 113
0 0 113
0 0 113
0 0 113
0 0 113
0 0 113
0 0 113
0 0 113
0 0 113
0 0 113
0 0 113
0 0 113
0 0 113
0 0 113
0 0 113
0 0 113
0 0 113
0 0 113
0 0 113
0 0 113
0 0 113
0 0 113
0 0 113
0 0 113
0 0 113
5 6 113
24 28 117
33 40 123
18 53 137
164 179 184
218 233 253
219 234 255
219 234 255
219 234 255
219 234 255
219 234 255
219 234 255
219 234 255
219 234 255
219 234 255
219 234 255
219 234 255
219 234 255
219 234 255
219 234 255
219 234 255
219 234 255
219 234 255
219 234 255
219 234 255
219 234 255
219 234 255
219 234 255
219 234 255
219 234 255
219 234 255
219 234 255
219 234 255
219 234 255
219 234 255
219 234 255
219 234 255
219 234 255
219 234 255
219 234 255
219 234 255
219 234 255
219 235 255
219 234 255
219 234 255
219 234 255
219 235 255
219 235 255
219 235 255
219 235 255
219 235 255
219 235 255
219 235 255
219 235 255
219 235 255
219 235 255
219 235 255
219 235 255
219 235 255
219 235 255
219 235 255
219 235 255
219 235 255
219 235 255
219 235 255
219 235 255
219 235 255
219 235 255
219 235 255
219 235 255
219 235 255
219 235 255
219 235 255
219 235 255
219 235 255
219 235 255
219 235 255
219 235 255
219 235 255
219 235 255
219 235 255
219 235 255
219 235 255
219 235 255
219 235 255
219 235 255
219 235 255
219 235 255
219 235 255
219 235 255
219 235 255
219 235 255
219 235 255
219 235 255
219 235 255
219 235 255
219 235 255
219 235 255
219 235 255
219 235 255
219 235 255
219 235 255
219 235 255
219 235 255
219 235 255
219 235 255
219 235 255
219 235 255
219 235 255
219 235 255
219 235 255
219 235 255
219 235 255
219 235 255
219 235 255
219 235 255
219 235 255
219 235 255
219 235 255
219 235 255
219 235 255
219 235 255
219 235 255
219 235 255
219 235 255
219 235 255
219 235 255
219 235 255
219 235 255
219 235 255
219 235 255
219 235 255
219 235 255
219 235 255
219 235 255
219 235 255
219 235 255
219 235 255
219 235 255
219 235 255
219 235 255
219 235 255
219 235 255
219 235 255
219 235 255
219 235 255
219 235 255
219 235 255
219 235 255
219 235 255
219 235 255
219 235 255
219 235 255
219 235 255
219 235 255
219 235 255
219 235 255
219 235 255
219 235 255
219 235 255
219 235 255
219 235 255
219 235 255
219 235 255
219 235 255
219 235 255
219 235 255
219 235 255
219 235 255
219 235 255
219 235 255
219 235 255
219 235 255
219 235 255
219 235 255
219 235 255
219 235 255
219 235 255
219 235 255
219 235 255
219 235 255
219 235 255
219 235 255
219 235 255
219 235 255
219 235 255
219 235 255
219 235 255
219 235 255
219 235 255
219 235 255
219 235 255
219 235 255
219 235 255
219 235 255
219 235 255
219 235 255
219 235 255
189 202 227
0 0 113
0 0 113
0 0 113
0 0 113
0 0 113
0 0 113
0 0 113
0 0 113
0 0 113
0 0 113
0 0 113
0 0 113
0 0 113
0 0 113
0 0 113
0 0 113
0 0 113
0 0 113
0 0 113
0 0 113
0 1 113
3 8 115
11 15 116
10 13 116
0 4 114
0 0 113
0 0 113
0 0 113
0 0 113
0 0 113
0 0 113
0 0 113
0 0 113
0 0 113
0 0 113
0 0 113
0 0 113
0 0 113
0 0 113
0 0 113
0 0 113
0 0 113
0 0 113
0 0 113
0 0 113
0 0 113
0 0 113
0 0 113
0 0 113
0 0 113
0 0 115
0 14 116
0 20 116
0 20 116
0 4 113
0 0 113
0 0 113
0 0 113
0 0 113
0 0 113
0 0 113
0 0 113
0 0 113
0 0 113
0 0 113
0 1 113
0 3 113
0 2 113
0 0 113
0 0 113
0 0 113
0 0 113
0 0 113
16 10 113
2 1 113
0 0 113
0 0 113
0 1 113
0 3 113
16 14 119
2 2 114
5 19 112
6 18 111
4 10 115
3 4 118
6 18 118
8 28 107
3 19 117
18 14 123
20 26 115
8 18 119
2 27 126
13 45 132
8 48 127
11 39 121
18 32 123
11 19 121
5 24 118
38 56 121
86 113 104
94 125 71
95 125 73
99 128 70
108 133 72
104 131 61
101 130 49
102 129 55
108 128 70
113 131 86
116 135 80
113 136 78
111 140 72
103 137 65
97 132 61
99 132 65
104 130 66
106 131 76
74 91 96
22 23 120
6 11 110
0 6 116
0 0 113
0 0 113
0 0 113
0 0 113
0 0 113
0 0 113
0 0 113
0 0 113
0 0 113
0 0 113
0 0 113
0 4 113
0 6 113
0 5 113
0 5 113
0 4 113
0 5 113
0 2 113
1 4 113
0 2 113
0 3 113
0 0 113
0 0 113
0 0 113
0 0 113
0 0 113
0 0 113
0 0 113
0 0 113
0 0 113
0 0 113
0 0 113
0 0 113
0 0 113
0 0 113
0 0 113
5 6 113
11 12 114
16 17 115
35 41 113
42 51 108
17 21 112
9 12 118
9 13 113
20 31 119
13 33 124
0 23 120
10 16 115
3 19 118
1 19 116
0 8 113
4 0 112
11 0 112
0 0 112
0 0 113
0 0 113
0 0 113
0 0 113
0 0 113
0 0 113
0 0 113
0 0 113
0 0 113
0 0 113
0 0 113
0 0 113
0 0 113
0 0 113
0 0 113
0 0 113
0 0 113
0 0 113
0 0 113
0 0 113
0 0 113
0 0 113
0 0 113
0 0 113
0 0 113
0 0 113
0 0 113
14 13 113
38 42 119
15 43 129
106 147 173
212 223 235
219 235 255
219 235 255
219 235 255
219 235 255
219 235 255
219 235 255
219 235 255
219 235 255
219 235 255
219 235 255
219 235 255
219 235 255
219 235 255
219 235 255
219 235 255
219 235 255
219 235 255
219 235 255
219 235 255
219 235 255
219 235 255
219 235 255
219 235 255
219 235 255
219 235 255
219 235 255
219 235 255
219 235 255
219 235 255
219 235 255
219 235 255
219 235 255
219 235 255
219 235 255
219 235 255
219 235 255
219 235 255
219 235 255
219 235 255
219 235 255
219 235 255
219 235 255
219 235 255
219 235 255
219 235 255
219 235 255
219 235 255
219 235 255
219 235 255
219 235 255
219 235 255
219 235 255
219 235 255
219 235 255
219 235 255
219 235 255
219 235 255
219 235 255
219 235 255
219 235 255
219 235 255
219 235 255
219 235 255
219 235 255
219 235 255
219 235 255
219 235 255
219 235 255
219 235 255
219 235 255
219 235 255
219 235 255
219 235 255
219 235 255
219 235 255
219 235 255
219 235 255
219 235 255
219 235 255
219 235 255
219 235 255
219 235 255
219 235 255
219 235 255
219 235 255
219 235 255
219 235 255
219 235 255
219 235 255
219 235 255
219 235 255
219 235 255
219 235 255
219 235 255
219 235 255
219 235 255
220 235 255
220 235 255
220 235 255
220 235 255
220 235 255
220 235 255
220 235 255
220 235 255
220 235 255
220 235 255
220 235 255
220 235 255
220 235 255
220 235 255
220 235 255
220 235 255
220 235 255
220 235 255
220 235 255
220 235 255
220 235 255
220 235 255
220 235 255
220 235 255
220 235 255
220 235 255
220 235 255
220 235 255
220 235 255
220 235 255
220 235 255
220 235 255
220 235 255
220 235 255
220 235 255
220 235 255
220 235 255
220 235 255
220 235 255
220 235 255
220 235 255
220 235 255
220 235 255
220 235 255
220 235 255
220 235 255
220 235 255
220 235 255
220 235 255
220 235 255
220 235 255
220 235 255
220 235 255
220 235 255
220 235 255
220 235 255
220 235 255
220 235 255
220 235 255
220 235 255
219 235 255
219 235 255
219 235 255
219 235 255
219 235 255
219 235 255
219 235 255
219 235 255
219 235 255
219 235 255
219 235 255
219 235 255
219 235 255
219 235 255
219 235 255
219 235 255
219 235 255
219 235 255
219 235 255
219 235 255
219 235 255
219 235 255
219 235 255
219 235 255
219 235 255
219 235 255
219 235 255
219 235 255
219 235 255
219 235 255
219 235 255
219 235 255
219 235 255
219 235 255
219 235 255
219 235 255
140 150 185
0 0 113
0 0 113
0 0 113
0 0 113
0 0 113
0 0 113
0 0 113
0 0 113
0 0 113
0 0 113
0 0 113
0 0 113
0 0 113
0 0 113
0 0 113
0 0 113
0 0 113
0 0 113
0 0 113
0 0 113
0 5 113
0 16 115
0 20 116
0 17 116
0 9 114
0 0 113
0 0 113
0 3 113
0 3 113
0 5 113
0 3 113
0 0 113
6 0 113
0 0 113
0 0 113
0 0 113
5 9 114
0 14 114
0 12 114
0 4 113
0 0 113
0 7 113
0 14 114
0 13 114
0 0 113
6 7 113
5 5 113
0 0 113
0 0 113
0 0 113
0 0 114
10 14 115
12 15 116
11 14 116
0 0 115
0 0 115
0 13 115
0 19 116
0 18 116
0 8 114
0 0 113
0 0 113
0 0 113
0 0 113
0 6 113
0 13 112
0 14 112
0 10 112
0 0 113
0 0 113
0 0 113
0 0 113
0 0 113
0 0 113
0 0 113
0 0 113
0 0 113
0 0 113
0 0 113
0 0 112
0 0 113
8 9 113
12 13 116
6 6 115
0 4 115
0 20 116
0 20 116
0 20 116
0 20 116
0 20 116
0 21 117
10 32 123
22 44 127
11 42 126
6 37 124
9 34 123
6 26 120
15 23 117
12 23 118
22 36 122
44 62 124
48 67 115
56 78 119
86 113 92
91 124 64
99 133 53
98 138 64
105 135 83
103 134 80
118 137 89
116 138 87
112 141 67
109 144 83
106 142 75
110 143 73
108 136 62
95 119 83
41 53 109
13 19 120
13 12 117
5 11 111
0 2 113
0 0 113
0 0 113
0 0 113
0 0 113
0 0 113
0 0 113
0 0 113
0 0 113
0 0 113
0 0 113
0 8 113
0 17 115
0 12 114
0 11 113
6 13 113
8 14 113
10 13 111
14 34 114
9 20 110
18 17 114
6 14 114
10 12 112
18 19 115
19 20 117
10 14 112
13 19 108
11 13 116
14 15 117
10 11 115
0 0 115
0 0 114
0 0 113
9 1 113
16 1 113
15 0 113
11 2 112
10 8 113
11 11 115
15 16 115
44 52 116
12 20 114
11 16 116
12 19 115
13 26 120
13 31 122
8 22 120
13 18 116
8 23 119
9 27 120
8 23 117
14 22 117
13 5 113
0 0 113
0 0 113
0 0 113
0 0 113
0 0 113
0 0 113
0 0 113
0 0 113
0 0 113
0 0 113
0 0 113
0 0 113
0 0 113
0 0 113
0 0 113
0 0 113
0 0 113
0 0 113
0 0 113
0 0 113
0 0 113
0 0 113
0 0 113
0 0 113
0 0 113
0 0 113
0 0 113
0 0 113
7 6 114
45 49 119
10 34 125
84 114 158
199 209 213
219 235 255
219 235 255
219 235 255
219 235 255
219 235 255
219 235 255
219 235 255
219 235 255
219 235 255
219 235 255
219 235 255
219 235 255
219 235 255
219 235 255
219 235 255
219 235 255
219 235 255
219 235 255
219 235 255
219 235 255
219 235 255
219 235 255
219 235 255
219 235 255
219 235 255
219 235 255
219 235 255
219 235 255
220 235 255
219 235 255
219 235 255
219 235 255
219 235 255
219 235 255
219 235 255
219 235 255
220 235 255
220 235 255
220 235 255
220 235 255
220 235 255
220 235 255
220 235 255
220 235 255
220 235 255
220 235 255
220 235 255
220 235 255
220 235 255
220 235 255
220 235 255
220 235 255
220 235 255
220 235 255
220 235 255
220 235 255
220 235 255
220 235 255
220 235 255
220 235 255
220 235 255
220 235 255
220 235 255
220 235 255
220 235 255
220 235 255
220 235 255
220 235 255
220 235 255
220 235 255
220 235 255
220 235 255
220 235 255
220 235 255
220 235 255
220 235 255
220 235 255
220 235 255
220 235 255
220 235 255
220 235 255
220 235 255
220 235 255
220 235 255
220 235 255
220 235 255
220 235 255
220 235 255
220 235 255
220 235 255
220 235 255
220 235 255
220 235 255
220 235 255
220 235 255
220 235 255
220 235 255
220 235 255
220 235 255
220 235 255
220 235 255
220 235 255
220 235 255
220 235 255
220 235 255
220 235 255
220 235 255
220 235 255
220 235 255
220 235 255
220 235 255
220 235 255
220 235 255
220 235 255
220 235 255
220 235 255
220 235 255
220 235 255
220 235 255
220 235 255
220 235 255
220 235 255
220 235 255
220 235 255
220 235 255
220 235 255
220 235 255
220 235 255
220 235 255
220 235 255
220 235 255
220 235 255
220 235 255
220 235 255
220 235 255
220 235 255
220 235 255
220 235 255
220 235 255
220 235 255
220 235 255
220 235 255
220 235 255
220 235 255
220 235 255
220 235 255
220 235 255
220 235 255
220 235 255
220 235 255
220 235 255
220 235 255
220 235 255
220 235 255
220 235 255
220 235 255
220 235 255
220 235 255
220 235 255
220 235 255
220 235 255
220 235 255
220 235 255
220 235 255
220 235 255
220 235 255
220 235 255
220 235 255
220 235 255
220 235 255
220 235 255
220 235 255
220 235 255
220 235 255
220 235 255
220 235 255
220 235 255
220 235 255
220 235 255
220 235 255
220 235 255
220 235 255
220 235 255
220 235 255
220 235 255
220 235 255
220 235 255
220 235 255
220 235 255
220 235 255
220 235 255
220 235 255
76 81 138
0 0 113
0 0 113
0 0 113
0 0 113
0 0 113
0 0 113
0 0 113
0 0 113
0 0 113
0 0 113
0 2 113
0 3 113
0 0 113
0 0 113
0 0 113
0 0 113
0 0 113
0 0 113
0 0 113
0 0 113
0 4 113
0 8 114
0 10 114
0 6 113
0 2 113
0 0 113
0 18 116
0 20 116
0 20 116
0 20 116
0 7 115
0 0 115
10 0 113
0 0 113
0 0 113
0 11 113
5 18 115
0 20 116
0 20 116
0 0 113
0 0 113
0 13 115
0 20 116
0 17 115
0 0 113
9 10 113
4 4 112
0 0 113
0 0 113
0 0 113
0 0 113
9 10 115
10 11 116
4 4 115
0 0 115
0 0 115
0 16 116
0 20 116
0 20 116
0 7 113
0 0 113
0 0 113
0 0 113
0 0 113
0 0 113
0 8 113
0 14 112
0 9 112
0 0 113
0 0 113
0 0 113
0 0 113
0 0 113
0 0 113
0 0 113
0 0 113
0 0 113
0 0 113
0 0 113
0 0 113
0 0 113
1 1 113
6 6 115
0 0 115
0 7 115
0 20 116
0 20 116
0 20 116
0 20 116
0 20 116
4 21 117
21 34 124
21 38 126
8 32 123
7 27 121
16 31 121
18 28 120
8 22 114
5 18 115
5 19 120
6 25 123
8 22 121
9 29 121
29 51 122
33 60 122
61 76 117
70 101 91
74 106 120
83 129 118
112 136 85
115 136 83
114 138 91
112 144 72
118 153 87
120 152 87
109 140 67
88 114 83
30 48 106
3 14 118
9 9 115
8 14 113
0 5 112
0 0 113
0 0 113
0 0 113
0 0 113
0 0 113
0 0 113
0 0 113
0 0 113
0 0 113
0 0 113
0 0 113
0 0 113
0 0 113
0 0 113
6 6 113
8 9 113
12 13 115
22 10 114
31 16 114
23 0 114
12 26 111
18 17 117
9 15 111
12 17 109
7 7 111
14 15 117
16 21 114
15 20 114
4 14 116
0 11 115
0 9 115
0 9 114
5 13 114
11 15 114
10 12 113
3 5 113
0 7 113
8 10 115
21 26 117
35 43 111
10 18 110
20 26 118
16 28 115
1 15 118
0 17 117
12 23 117
17 19 117
10 19 119
8 30 122
0 33 123
20 37 124
10 15 116
0 0 112
0 0 113
0 0 113
0 0 113
0 0 113
0 0 113
0 0 113
0 0 113
0 0 113
0 0 113
0 0 113
0 0 114
0 0 113
0 0 113
0 0 113
0 0 113
0 0 113
0 0 113
0 0 113
0 0 113
0 0 113
0 0 113
0 0 113
0 0 113
0 0 113
0 0 113
0 0 113
0 0 113
6 7 114
42 49 116
8 28 122
26 74 144
176 187 170
220 235 255
220 235 255
220 235 255
220 235 255
220 235 255
220 235 255
220 235 255
220 235 255
220 235 255
220 235 255
220 235 255
220 235 255
220 235 255
220 235 255
220 235 255
220 235 255
220 235 255
220 235 255
220 235 255
220 235 255
220 235 255
220 235 255
220 235 255
220 235 255
220 235 255
220 235 255
220 235 255
220 235 255
220 235 255
220 235 255
220 235 255
220 235 255
220 235 255
220 235 255
220 235 255
220 235 255
220 235 255
220 235 255
220 235 255
220 235 255
220 235 255
220 235 255
220 235 255
220 235 255
220 235 255
220 235 255
220 235 255
220 235 255
220 235 255
220 235 255
220 235 255
220 235 255
220 235 255
220 235 255
220 235 255
220 235 255
220 235 255
220 235 255
220 235 255
220 235 255
220 235 255
220 235 255
220 235 255
220 235 255
220 235 255
220 235 255
220 235 255
220 235 255
220 235 255
220 235 255
220 235 255
220 235 255
220 235 255
220 235 255
220 235 255
220 235 255
220 235 255
220 235 255
220 235 255
220 235 255
220 235 255
220 235 255
220 235 255
220 235 255
220 235 255
220 235 255
220 235 255
220 235 255
220 235 255
220 235 255
220 235 255
220 235 255
220 235 255
220 235 255
220 235 255
220 235 255
220 235 255
220 235 255
220 235 255
220 235 255
220 235 255
220 235 255
220 235 255
220 235 255
220 235 255
220 235 255
220 235 255
220 235 255
220 235 255
220 235 255
220 235 255
220 235 255
220 235 255
220 235 255
220 235 255
220 235 255
220 235 255
220 235 255
220 235 255
220 235 255
220 235 255
220 235 255
220 235 255
220 235 255
220 235 255
220 235 255
220 235 255
220 235 255
220 235 255
220 235 255
220 235 255
220 235 255
220 235 255
220 235 255
220 235 255
220 235 255
220 235 255
220 235 255
220 235 255
220 235 255
220 235 255
220 235 255
220 235 255
220 235 255
220 235 255
220 235 255
220 235 255
220 235 255
220 235 255
220 235 255
220 235 255
220 235 255
220 235 255
220 235 255
220 235 255
220 235 255
220 235 255
220 235 255
220 235 255
220 235 255
220 235 255
220 235 255
220 235 255
220 235 255
220 235 255
220 235 255
220 235 255
220 235 255
220 235 255
220 235 255
220 235 255
220 235 255
220 235 255
220 235 255
220 235 255
220 235 255
220 235 255
220 235 255
220 235 255
220 235 255
220 235 255
220 235 255
220 235 255
220 235 255
220 235 255
220 235 255
220 235 255
220 235 255
220 235 255
220 235 255
220 235 255
199 212 236
0 0 113
0 0 113
0 0 113
0 0 113
0 0 113
0 0 113
0 0 113
0 0 113
0 0 113
0 0 113
0 7 113
0 20 116
0 9 115
0 0 113
0 0 113
0 0 113
0 0 113
0 0 113
0 0 113
0 0 113
0 0 113
0 0 113
0 0 113
0 0 113
0 0 113
0 0 113
0 5 113
0 20 116
0 20 116
0 20 116
0 20 116
0 2 115
0 0 115
0 0 113
0 0 113
0 10 113
0 19 114
0 20 115
0 20 116
0 18 116
0 0 113
0 0 113
0 16 115
0 20 116
0 15 115
0 0 113
10 11 114
2 2 113
0 0 113
0 0 113
0 0 113
0 0 113
0 0 115
0 0 115
0 0 115
0 0 115
11 11 116
5 18 116
0 20 116
0 20 116
0 4 113
0 0 113
0 0 113
0 0 114
0 0 113
0 0 113
0 0 113
0 6 113
0 4 113
0 0 113
0 0 113
0 0 113
0 0 113
0 0 113
0 0 113
0 0 113
0 0 113
0 0 113
0 0 113
0 0 113
0 0 113
0 0 113
0 0 113
0 0 115
0 0 115
6 10 116
0 20 116
0 20 116
0 20 116
0 20 116
0 20 116
5 21 117
14 28 121
16 28 121
5 19 119
0 16 118
13 23 120
17 23 120
9 16 118
10 24 118
16 32 119
16 32 120
24 37 124
15 34 126
33 36 121
0 32 129
33 18 128
24 22 117
22 33 124
61 92 112
107 133 71
122 144 100
114 136 82
119 148 84
126 160 92
123 156 101
118 152 87
94 122 103
38 52 113
10 18 117
6 13 112
8 13 113
3 4 113
0 0 113
0 0 113
0 0 113
0 0 113
0 0 113
0 0 113
0 0 113
0 0 113
0 0 113
0 0 113
0 0 113
0 0 113
9 10 113
10 11 114
6 6 113
4 4 114
4 7 111
22 14 110
19 19 116
23 41 124
20 24 108
16 16 114
11 16 112
22 28 111
12 13 114
9 11 118
22 28 114
0 12 109
0 20 116
0 20 116
0 16 115
0 16 115
0 20 115
0 18 115
0 10 113
0 8 112
0 10 113
0 11 113
24 31 117
21 30 115
13 22 113
32 35 122
38 45 114
12 21 119
7 22 117
3 21 116
5 20 116
12 18 117
11 29 121
0 29 120
17 33 121
12 17 116
0 0 113
0 0 113
7 7 113
11 12 114
3 3 113
0 0 113
0 0 113
0 0 113
0 0 113
0 0 113
0 0 113
0 0 114
0 0 114
0 0 113
0 0 113
0 0 113
0 0 113
0 0 113
0 0 113
0 0 113
0 0 113
0 0 113
0 0 113
0 0 113
0 0 113
0 0 113
0 0 113
0 0 113
0 0 113
5 15 113
8 30 121
17 43 129
145 160 146
213 227 243
220 235 255
220 235 255
220 235 255
220 235 255
220 235 255
220 235 255
220 235 255
220 235 255
220 235 255
220 235 255
220 235 255
220 235 255
220 235 255
220 235 255
220 235 255
220 235 255
220 235 255
220 235 255
220 235 255
220 235 255
220 235 255
220 235 255
220 235 255
220 235 255
220 235 255
220 235 255
220 235 255
220 235 255
220 235 255
220 235 255
220 235 255
220 235 255
220 235 255
220 235 255
220 235 255
220 235 255
220 235 255
220 235 255
220 235 255
220 235 255
220 235 255
220 235 255
220 235 255
220 235 255
220 235 255
220 235 255
220 235 255
220 235 255
220 235 255
220 235 255
220 235 255
220 235 255
220 235 255
220 235 255
220 235 255
220 235 255
220 235 255
220 235 255
220 235 255
220 235 255
220 235 255
220 235 255
220 235 255
220 235 255
220 235 255
220 235 255
220 235 255
220 235 255
220 235 255
220 235 255
220 235 255
220 235 255
220 235 255
220 235 255
220 235 255
220 235 255
220 235 255
220 235 255
220 235 255
220 235 255
220 235 255
220 235 255
220 235 255
220 235 255
220 235 255
220 235 255
220 235 255
220 235 255
220 235 255
220 235 255
220 235 255
220 235 255
220 235 255
220 235 255
220 235 255
220 235 255
220 235 255
220 235 255
220 235 255
220 235 255
220 235 255
220 235 255
220 235 255
220 235 255
220 235 255
220 235 255
220 235 255
220 235 255
220 235 255
220 235 255
220 235 255
220 235 255
220 235 255
220 235 255
220 235 255
220 235 255
220 235 255
220 235 255
220 235 255
220 235 255
220 235 255
220 235 255
220 235 255
220 235 255
220 235 255
220 235 255
220 235 255
220 235 255
220 235 255
220 235 255
220 235 255
220 235 255
220 235 255
220 235 255
220 235 255
220 235 255
220 235 255
220 235 255
220 235 255
220 235 255
220 235 255
220 235 255
220 235 255
220 235 255
220 235 255
220 235 255
220 235 255
220 235 255
220 235 255
220 235 255
220 235 255
220 235 255
220 235 255
220 235 255
220 235 255
220 235 255
220 235 255
220 235 255
220 235 255
220 235 255
220 235 255
220 235 255
220 235 255
220 235 255
220 235 255
220 235 255
220 235 255
220 235 255
220 235 255
220 235 255
220 235 255
220 235 255
220 235 255
220 235 255
220 235 255
220 235 255
220 235 255
220 235 255
220 235 255
220 235 255
220 235 255
220 235 255
220 235 255
220 235 255
220 235 255
220 235 255
220 235 255
220 235 255
220 235 255
220 235 255
161 172 203
0 0 113
0 0 113
0 0 113
0 0 113
0 0 113
0 0 113
0 0 113
0 0 113
0 0 113
0 0 113
0 12 114
0 20 116
0 1 114
0 0 113
0 0 113
0 0 113
0 0 113
0 0 113
0 0 113
0 0 113
0 0 113
0 0 113
0 0 113
0 0 113
0 0 113
0 0 113
0 9 114
0 20 116
0 20 116
0 20 116
0 18 116
0 0 115
0 0 115
0 0 114
0 0 114
0 19 115
0 20 115
0 20 116
0 20 116
0 16 115
0 0 113
0 1 113
0 17 116
0 20 116
0 14 115
0 0 113
11 11 114
0 0 113
0 0 113
0 0 113
0 0 113
0 0 113
0 0 115
0 0 115
0 0 115
0 0 115
3 3 115
2 6 114
0 4 113
0 5 113
0 20 116
0 20 116
0 18 116
0 0 115
0 0 115
0 0 113
0 0 113
0 0 113
0 0 113
0 0 113
0 0 113
0 0 113
0 0 113
0 0 113
0 0 113
0 0 113
0 0 113
0 0 113
0 0 113
0 0 113
0 0 113
0 0 113
0 0 113
0 0 115
7 7 115
12 15 116
0 20 116
0 20 116
0 20 116
0 20 116
0 20 116
2 19 116
8 18 117
10 20 118
9 20 118
0 14 117
7 18 119
9 20 119
16 23 123
11 26 121
8 28 118
0 30 119
10 38 123
14 37 125
22 39 132
14 72 144
13 49 129
20 37 124
15 25 121
29 33 115
86 104 105
123 145 108
122 146 93
111 143 83
125 159 100
126 160 105
123 157 93
96 123 114
33 49 114
4 12 113
15 20 113
15 18 113
0 0 113
0 0 113
0 0 113
0 0 113
0 0 113
0 0 113
0 0 113
0 0 113
0 0 113
0 0 113
0 0 113
0 0 113
0 9 113
0 5 113
4 5 113
13 14 114
14 18 114
13 19 114
0 23 123
41 53 128
120 121 136
102 98 124
17 17 114
57 55 128
42 37 111
36 40 113
26 31 115
27 31 120
16 16 119
3 16 115
7 21 116
6 19 116
0 15 115
5 19 116
16 20 118
13 14 116
15 10 115
19 0 115
16 0 113
23 30 113
14 24 112
13 19 119
12 14 117
17 23 111
6 21 116
0 20 116
0 18 116
0 20 116
8 22 117
13 25 119
0 22 119
11 24 118
7 16 115
0 6 113
0 7 113
2 7 113
10 14 114
5 6 113
0 0 113
0 0 113
0 0 113
0 0 113
0 0 113
0 0 113
0 0 113
0 0 114
0 0 113
0 0 113
0 0 113
0 0 113
0 0 113
0 0 113
0 0 113
0 0 113
0 0 113
0 0 113
0 0 113
0 0 113
0 0 113
0 0 113
0 0 113
0 0 113
3 0 114
11 25 120
18 27 121
98 121 138
193 210 214
220 235 255
220 235 255
220 235 255
220 235 255
220 235 255
220 235 255
220 235 255
220 235 255
220 235 255
220 235 255
220 235 255
220 235 255
220 235 255
220 235 255
220 235 255
220 235 255
220 235 255
220 235 255
220 235 255
220 235 255
220 235 255
220 235 255
220 235 255
220 235 255
220 235 255
220 235 255
220 235 255
220 235 255
220 235 255
220 235 255
220 235 255
220 235 255
220 235 255
220 235 255
220 235 255
220 235 255
220 235 255
220 235 255
220 235 255
220 235 255
220 235 255
220 235 255
220 235 255
220 235 255
220 235 255
220 235 255
220 235 255
220 235 255
220 235 255
220 235 255
220 235 255
220 235 255
220 235 255
220 235 255
220 235 255
220 235 255
220 235 255
220 235 255
220 235 255
220 235 255
220 235 255
220 235 255
220 235 255
220 235 255
220 235 255
220 235 255
220 235 255
220 235 255
220 235 255
220 235 255
220 235 255
220 235 255
220 235 255
220 235 255
220 235 255
220 235 255
220 235 255
220 235 255
220 235 255
220 235 255
220 235 255
220 235 255
220 235 255
220 235 255
220 235 255
220 235 255
220 235 255
220 235 255
220 235 255
220 235 255
220 235 255
220 235 255
220 235 255
220 235 255
220 235 255
220 235 255
220 235 255
220 235 255
220 235 255
220 235 255
220 235 255
220 235 255
220 235 255
220 235 255
220 235 255
220 235 255
220 235 255
220 235 255
220 235 255
220 235 255
220 235 255
220 235 255
220 235 255
220 235 255
220 235 255
220 235 255
220 235 255
220 235 255
220 235 255
220 235 255
220 235 255
220 235 255
220 235 255
220 235 255
220 235 255
220 235 255
220 235 255
220 235 255
220 235 255
220 235 255
220 235 255
220 235 255
220 235 255
220 235 255
220 235 255
220 235 255
220 235 255
220 235 255
220 235 255
220 235 255
220 235 255
220 235 255
220 235 255
220 235 255
220 235 255
220 235 255
220 235 255
220 235 255
220 235 255
220 235 255
220 235 255
220 235 255
220 235 255
220 235 255
220 235 255
220 235 255
220 235 255
220 235 255
220 235 255
220 235 255
220 235 255
220 235 255
220 235 255
220 235 255
220 235 255
220 235 255
220 235 255
220 235 255
220 235 255
220 235 255
220 235 255
220 235 255
220 235 255
220 235 255
220 235 255
220 235 255
220 235 255
220 235 255
220 235 255
220 235 255
220 235 255
220 235 255
220 235 255
220 235 255
220 235 255
220 235 255
220 235 255
220 235 255
220 235 255
220 235 255
130 139 176
0 0 113
0 0 113
0 0 113
0 0 113
0 0 113
0 0 113
0 0 113
0 0 113
0 0 113
0 6 113
0 13 114
0 15 115
0 0 114
0 0 113
0 0 113
0 0 113
0 0 113
0 0 113
0 0 115
0 0 115
0 2 115
0 19 116
0 19 116
0 19 116
0 16 115
0 0 113
0 13 114
0 20 116
0 20 116
0 20 116
0 16 116
0 0 115
0 0 115
0 0 115
0 11 115
0 20 116
0 20 116
0 20 116
0 20 116
0 15 115
0 0 112
0 5 113
0 17 116
0 20 116
0 10 114
0 0 113
10 11 114
0 0 113
0 0 113
0 0 113
0 0 113
0 0 113
0 0 115
0 0 115
0 0 115
0 0 115
0 0 115
0 0 113
0 0 113
0 7 113
0 20 116
0 20 116
0 16 116
0 0 115
0 0 115
0 0 114
0 0 113
0 0 113
0 0 113
0 0 113
0 0 113
0 0 113
0 0 113
0 0 113
0 0 113
0 0 113
0 0 113
0 0 113
0 0 113
0 0 113
0 0 113
0 0 113
0 0 113
0 0 115
11 12 116
11 16 116
0 20 116
0 20 116
0 20 116
0 20 116
0 20 116
0 20 116
0 20 116
0 20 116
16 22 117
11 23 117
6 24 119
4 24 118
17 27 119
15 26 119
0 23 120
5 36 126
3 38 128
10 45 131
10 49 136
28 100 162
23 79 152
4 40 122
5 39 123
19 33 119
26 33 123
82 100 122
102 132 72
73 111 78
102 140 83
122 157 100
120 153 90
89 112 113
7 20 111
3 9 114
13 20 111
17 21 115
0 0 113
0 0 113
0 0 113
0 0 113
0 0 112
0 0 113
0 0 113
0 0 113
0 0 113
0 0 113
0 0 113
0 0 113
9 18 117
0 18 115
0 13 113
0 14 113
0 17 113
17 26 115
58 63 124
123 128 133
173 172 155
133 137 150
7 28 126
111 117 139
98 103 123
41 35 116
44 51 115
29 38 109
16 20 117
8 22 115
19 29 118
17 28 118
9 23 117
18 28 118
15 28 122
15 28 122
10 24 120
0 12 117
8 12 116
28 40 115
9 23 112
21 27 121
16 19 117
14 15 119
12 17 116
0 17 116
0 14 115
1 18 117
9 20 118
3 25 119
0 24 119
0 21 118
0 16 116
0 17 115
0 15 115
0 14 115
0 19 116
0 12 114
0 0 113
0 0 113
0 0 113
0 0 113
0 0 113
0 0 113
0 0 113
0 0 115
0 0 113
0 0 113
0 0 113
0 0 113
0 0 113
0 0 113
0 0 113
0 0 113
0 0 113
0 0 113
0 0 113
0 0 113
0 0 113
0 0 113
0 0 113
0 0 113
2 4 113
11 23 119
10 28 120
39 79 133
171 192 177
220 235 255
220 235 255
220 235 255
220 235 255
220 235 255
220 235 255
220 235 255
220 235 255
220 235 255
220 235 255
220 235 255
220 235 255
220 235 255
220 235 255
220 235 255
220 235 255
220 235 255
220 235 255
220 235 255
220 235 255
220 235 255
220 235 255
220 235 255
220 235 255
220 235 255
220 235 255
220 235 255
220 235 255
220 235 255
220 235 255
220 235 255
220 235 255
220 235 255
220 235 255
220 235 255
220 235 255
220 235 255
220 235 255
220 235 255
220 235 255
220 235 255
220 235 255
220 235 255
220 235 255
220 235 255
220 235 255
220 235 255
220 235 255
220 235 255
220 235 255
220 235 255
220 235 255
220 235 255
220 235 255
220 235 255
220 235 255
220 235 255
220 235 255
220 235 255
220 235 255
220 235 255
220 235 255
220 235 255
220 235 255
220 235 255
220 235 255
220 235 255
220 235 255
220 235 255
220 235 255
220 235 255
220 235 255
220 235 255
220 235 255
220 235 255
220 235 255
220 235 255
220 235 255
220 235 255
220 235 255
220 235 255
220 235 255
220 235 255
220 235 255
220 235 255
220 235 255
220 235 255
220 235 255
220 235 255
220 235 255
220 235 255
220 235 255
220 235 255
220 235 255
220 235 255
220 235 255
220 235 255
220 235 255
220 235 255
220 235 255
220 235 255
220 235 255
220 235 255
220 235 255
220 235 255
220 235 255
220 235 255
220 235 255
220 235 255
220 235 255
220 235 255
220 235 255
220 235 255
220 235 255
220 235 255
220 235 255
220 235 255
220 235 255
220 235 255
220 235 255
220 235 255
220 235 255
220 235 255
220 235 255
220 235 255
220 235 255
220 235 255
220 235 255
220 235 255
220 235 255
220 235 255
220 235 255
220 235 255
220 235 255
220 235 255
220 235 255
220 235 255
220 235 255
220 235 255
220 235 255
220 235 255
220 235 255
220 235 255
220 235 255
220 235 255
220 235 255
220 235 255
220 235 255
220 235 255
220 235 255
220 235 255
220 235 255
220 235 255
220 235 255
220 235 255
220 235 255
220 235 255
220 235 255
220 235 255
220 235 255
220 235 255
220 235 255
220 235 255
220 235 255
220 235 255
220 235 255
220 235 255
220 235 255
220 235 255
220 235 255
220 235 255
220 235 255
220 235 255
220 235 255
220 235 255
220 235 255
220 235 255
220 235 255
220 235 255
220 235 255
220 235 255
220 235 255
220 235 255
220 235 255
220 235 255
220 235 255
220 235 255
220 235 255
220 235 255
220 235 255
76 81 138
0 0 113
0 0 113
0 0 113
0 0 114
0 0 114
0 0 113
0 0 113
0 0 113
0 0 113
0 20 116
0 10 114
0 0 114
0 0 113
0 0 113
0 0 113
0 0 113
0 0 113
0 8 114
0 12 115
0 12 116
0 13 116
0 20 116
0 20 116
0 20 116
0 16 115
0 0 113
0 14 114
0 20 116
0 20 116
0 20 116
0 15 116
0 0 115
0 2 115
0 12 116
0 19 116
0 20 116
0 20 116
0 20 116
0 20 116
0 13 114
0 0 113
0 7 113
0 18 116
0 20 116
0 9 114
1 1 113
10 11 114
0 0 113
0 0 113
0 0 113
0 0 113
0 0 113
0 0 115
0 0 115
0 0 115
0 0 115
0 0 114
0 0 113
0 0 113
0 10 114
0 20 116
1 20 116
1 14 116
0 0 115
0 0 115
0 0 115
2 2 113
2 2 113
1 2 113
0 0 113
0 0 113
0 0 113
0 0 113
0 0 113
0 0 113
0 0 113
0 0 113
0 0 113
0 0 113
0 0 113
0 0 113
0 0 113
0 0 114
0 0 115
10 10 116
10 14 116
0 20 116
0 20 116
0 20 116
0 20 116
0 20 116
1 21 116
7 22 115
0 19 115
11 22 118
16 26 119
10 28 119
7 28 120
8 19 115
11 21 117
4 28 123
17 51 131
8 50 132
28 56 136
29 73 149
16 94 155
15 59 142
28 30 118
8 38 127
13 38 124
12 34 119
19 41 122
65 93 112
76 113 95
65 104 82
113 144 92
117 149 82
78 100 110
5 19 117
20 23 119
13 11 108
12 10 112
8 7 114
2 5 112
4 8 113
0 0 112
9 9 114
9 0 113
7 0 115
0 4 113
0 6 113
7 1 113
6 0 114
0 0 113
8 22 118
17 31 119
21 35 118
32 47 117
45 58 115
60 77 115
121 140 98
154 158 126
106 112 147
45 70 150
42 64 137
117 125 151
143 153 145
97 106 113
77 85 119
18 15 117
13 15 113
4 14 113
15 25 116
16 26 117
8 19 116
15 23 118
10 43 127
15 49 130
10 43 127
0 36 123
4 35 121
9 31 120
10 18 116
24 31 119
15 17 114
19 14 114
15 14 117
10 14 116
1 17 116
12 20 119
17 25 120
0 31 121
9 30 123
13 29 122
4 24 119
11 25 117
8 21 116
0 16 115
0 20 116
0 14 115
0 0 113
0 0 113
0 0 113
0 0 113
0 0 113
0 0 113
0 0 112
0 0 115
0 0 113
0 0 113
0 0 113
0 0 113
0 0 113
0 0 113
0 0 113
0 0 113
0 0 113
0 0 112
0 0 113
0 0 113
0 0 113
0 0 113
0 0 113
0 0 113
4 7 113
11 18 117
11 33 122
19 43 124
125 159 126
219 234 254
220 235 255
220 235 255
220 235 255
220 235 255
220 235 255
220 235 255
220 235 255
220 235 255
220 235 255
220 235 255
220 235 255
220 235 255
220 235 255
220 235 255
220 235 255
220 235 255
220 235 255
220 235 255
220 235 255
220 235 255
220 235 255
220 235 255
220 235 255
220 235 255
220 235 255
220 235 255
220 235 255
220 235 255
220 235 255
220 235 255
220 235 255
220 235 255
220 235 255
220 235 255
220 235 255
220 235 255
220 235 255
220 235 255
220 235 255
220 235 255
220 235 255
220 235 255
220 235 255
220 235 255
220 235 255
220 235 255
220 235 255
220 235 255
220 235 255
220 235 255
220 235 255
220 235 255
220 235 255
220 235 255
220 235 255
220 235 255
220 235 255
220 235 255
220 235 255
220 235 255
220 235 255
220 235 255
220 235 255
220 235 255
220 235 255
220 235 255
220 235 255
220 235 255
220 235 255
220 235 255
220 235 255
220 235 255
220 235 255
220 235 255
220 235 255
220 235 255
220 235 255
220 235 255
220 235 255
220 235 255
220 235 255
220 235 255
220 235 255
220 235 255
220 235 255
220 235 255
220 235 255
220 235 255
220 235 255
220 235 255
220 235 255
220 235 255
220 235 255
220 235 255
220 235 255
220 235 255
220 235 255
220 235 255
220 235 255
220 235 255
220 235 255
220 235 255
220 235 255
220 235 255
220 235 255
220 235 255
220 235 255
220 235 255
220 235 255
220 235 255
220 235 255
220 235 255
220 235 255
220 235 255
220 235 255
220 235 255
220 235 255
220 235 255
220 235 255
220 235 255
220 235 255
220 235 255
220 235 255
220 235 255
220 235 255
220 235 255
220 235 255
220 235 255
220 235 255
220 235 255
220 235 255
220 235 255
220 235 255
220 235 255
220 235 255
220 235 255
220 235 255
220 235 255
220 235 255
220 235 255
220 235 255
220 235 255
220 235 255
220 235 255
220 235 255
220 235 255
220 235 255
220 235 255
220 235 255
220 235 255
220 235 255
220 235 255
220 235 255
220 235 255
220 235 255
220 235 255
220 235 255
220 235 255
220 235 255
220 235 255
220 235 255
220 235 255
220 235 255
220 235 255
220 235 255
220 235 255
220 235 255
220 235 255
220 235 255
220 235 255
220 235 255
220 235 255
220 235 255
220 235 255
220 235 255
220 235 255
220 235 255
220 235 255
220 235 255
220 235 255
220 235 255
220 235 255
220 235 255
220 235 255
220 235 255
220 235 255
220 235 255
220 235 255
204 218 241
0 0 113
0 0 113
0 0 113
0 0 113
0 7 115
0 4 114
0 0 113
0 0 113
0 0 113
0 6 113
0 20 116
0 6 113
0 0 114
0 0 113
0 0 113
0 0 113
0 0 113
0 0 113
0 17 115
0 20 116
0 20 116
0 20 116
0 20 116
0 20 116
0 20 116
4 14 115
1 1 113
0 15 115
5 19 116
3 18 116
0 17 116
6 13 116
7 8 115
5 10 115
0 20 116
7 22 117
4 21 116
0 18 116
0 20 116
0 20 116
0 17 115
7 17 115
8 16 115
0 12 115
0 10 115
0 2 113
9 10 113
10 11 114
0 0 113
0 0 113
0 0 113
0 0 113
0 0 113
0 0 113
0 0 113
0 0 113
0 0 113
0 0 113
0 0 115
0 0 115
0 1 115
0 2 115
9 10 116
8 9 116
0 0 115
0 0 115
0 0 115
8 8 115
13 14 116
7 8 115
0 0 115
0 0 115
0 0 115
0 0 115
7 7 115
0 0 115
0 0 114
0 0 112
0 0 112
0 0 115
0 0 115
0 0 115
0 0 115
0 0 115
0 0 115
0 0 115
0 10 115
0 20 116
0 20 116
0 20 116
0 20 116
0 20 116
7 21 116
12 21 117
0 18 116
3 16 119
13 25 120
17 30 122
13 29 122
6 30 120
15 25 121
15 35 125
0 49 130
7 48 131
18 39 131
27 89 159
25 105 166
0 72 147
32 35 131
12 44 126
7 54 133
4 37 132
12 34 122
15 28 124
92 121 97
104 135 90
118 146 102
121 147 94
104 124 115
35 45 114
3 11 111
21 18 116
20 17 107
14 12 112
4 7 113
7 15 116
0 10 111
14 16 113
17 6 111
13 12 114
5 10 110
13 22 115
14 11 112
14 7 118
8 10 114
22 19 113
62 77 118
93 118 113
85 114 81
101 127 71
110 132 74
110 138 69
114 135 67
136 151 132
108 138 161
142 155 134
153 157 136
138 148 103
125 140 87
126 145 87
75 92 108
31 8 117
17 18 116
27 33 118
16 29 117
10 26 116
25 31 120
13 49 133
71 88 134
44 68 143
25 43 131
10 51 140
10 50 139
23 24 126
35 41 119
42 10 110
21 21 112
20 15 116
8 18 116
2 20 116
9 22 119
13 27 120
0 32 122
12 35 124
15 34 126
12 33 125
14 34 121
16 31 119
4 21 116
6 21 116
10 20 116
3 10 114
0 6 113
0 0 113
0 0 113
0 0 113
0 0 113
0 0 113
0 0 115
0 0 113
0 0 113
0 0 113
0 0 113
0 0 113
0 0 113
0 0 113
0 0 113
0 0 113
0 0 112
0 0 113
0 0 113
0 0 113
0 0 113
0 0 113
0 0 113
0 0 113
7 15 116
7 23 119
14 20 118
107 139 131
206 223 236
220 235 255
220 235 255
220 235 255
220 235 255
220 235 255
220 235 255
220 235 255
220 235 255
220 235 255
220 235 255
220 235 255
220 235 255
220 235 255
220 235 255
220 235 255
220 235 255
220 235 255
220 235 255
220 235 255
220 235 255
220 235 255
220 235 255
220 235 255
220 235 255
220 235 255
220 235 255
220 235 255
220 235 255
220 235 255
220 235 255
220 235 255
220 235 255
220 235 255
220 235 255
220 235 255
220 235 255
220 235 255
220 235 255
220 235 255
220 235 255
220 235 255
220 235 255
220 235 255
220 235 255
220 235 255
220 235 255
220 235 255
220 235 255
220 235 255
220 235 255
220 235 255
220 235 255
220 235 255
220 235 255
220 235 255
220 235 255
220 235 255
220 235 255
220 235 255
220 235 255
220 235 255
220 235 255
220 235 255
220 235 255
220 235 255
220 235 255
220 235 255
220 235 255
220 235 255
220 235 255
220 235 255
220 235 255
220 235 255
220 235 255
220 235 255
220 235 255
220 235 255
220 235 255
220 235 255
220 235 255
220 235 255
220 235 255
220 235 255
220 235 255
220 235 255
220 235 255
220 235 255
220 235 255
220 235 255
220 235 255
220 235 255
220 235 255
220 235 255
220 235 255
220 235 255
220 235 255
220 235 255
220 235 255
220 235 255
220 235 255
220 235 255
220 235 255
220 235 255
220 235 255
220 235 255
220 235 255
220 235 255
220 235 255
220 235 255
220 235 255
220 235 255
220 235 255
220 235 255
220 235 255
220 235 255
220 235 255
220 235 255
220 235 255
220 235 255
220 235 255
220 235 255
220 235 255
220 235 255
220 235 255
220 235 255
220 235 255
220 235 255
220 235 255
220 235 255
220 235 255
220 235 255
220 235 255
220 235 255
220 235 255
220 235 255
220 235 255
220 235 255
220 235 255
220 235 255
220 235 255
220 235 255
220 235 255
220 235 255
220 235 255
220 235 255
220 235 255
220 235 255
220 235 255
220 235 255
220 235 255
220 235 255
220 235 255
220 235 255
220 235 255
220 235 255
220 235 255
220 235 255
220 235 255
220 235 255
220 235 255
220 235 255
220 235 255
220 235 255
220 235 255
220 235 255
220 235 255
220 235 255
220 235 255
220 235 255
220 235 255
220 235 255
220 235 255
220 235 255
220 235 255
220 235 255
220 235 255
220 235 255
220 235 255
220 235 255
220 235 255
220 235 255
220 235 255
220 235 255
220 235 255
220 235 255
220 235 255
220 235 255
220 235 255
163 174 204
0 0 114
0 0 113
0 0 113
0 7 113
0 14 115
0 9 114
0 6 113
4 6 113
5 6 114
5 11 114
0 15 115
0 7 113
0 4 114
0 0 113
0 1 113
0 16 115
0 16 115
0 16 115
0 8 113
0 7 113
7 9 113
8 18 115
0 20 116
0 20 116
0 20 116
12 15 116
5 5 115
0 0 115
12 13 116
6 7 115
0 0 115
11 12 116
13 14 116
7 17 116
0 20 116
7 21 116
0 20 116
0 19 116
0 20 116
0 20 116
0 20 116
4 21 116
4 15 116
5 5 115
6 6 115
6 6 113
10 11 114
7 8 113
0 0 113
0 0 113
0 0 113
0 0 113
0 0 113
0 0 113
0 0 113
0 0 113
0 0 113
0 0 113
0 0 115
0 0 115
0 0 115
8 9 115
13 14 116
8 8 116
0 0 115
0 0 115
0 0 115
5 6 115
12 13 116
12 13 116
7 7 115
0 0 115
0 0 115
8 9 116
11 12 116
0 0 115
0 0 113
0 0 113
0 0 113
0 0 115
0 0 115
0 0 115
0 0 115
0 0 115
0 0 115
0 0 115
0 11 115
0 20 116
0 20 116
0 20 116
0 20 116
0 20 116
3 21 116
4 21 116
0 20 116
0 25 119
4 31 121
5 34 123
6 31 122
11 28 118
23 32 120
19 40 124
0 47 127
0 48 127
15 43 128
13 68 142
10 98 158
20 87 155
29 67 145
19 74 147
4 70 147
15 51 135
10 31 126
31 39 125
90 119 89
111 145 78
116 149 89
115 142 93
115 141 89
67 84 102
16 26 112
10 11 122
21 24 113
18 24 110
7 14 113
21 23 118
0 8 109
17 15 115
19 4 120
11 20 113
6 9 115
12 21 114
16 26 114
12 27 107
8 21 111
26 36 114
101 124 101
117 144 82
108 136 52
101 124 79
114 136 79
104 132 72
110 136 73
147 169 143
125 169 146
118 143 89
136 138 112
147 149 122
127 140 90
111 137 57
100 124 96
66 82 100
68 81 100
84 103 95
79 99 98
32 46 118
28 35 124
26 43 125
77 104 139
66 113 122
86 109 105
63 114 124
39 71 143
78 105 109
41 70 116
13 23 116
34 16 119
10 26 115
0 20 116
0 20 116
0 23 118
0 25 119
0 30 121
15 37 125
16 39 128
19 42 129
4 37 124
10 36 122
3 24 118
9 23 117
9 22 117
7 22 117
0 15 115
0 0 113
0 0 113
0 0 113
0 0 113
0 0 113
0 0 113
0 0 113
0 0 113
0 0 113
0 0 113
0 0 113
0 0 114
0 0 114
0 0 114
0 0 114
0 0 112
0 0 113
0 0 113
0 0 113
0 0 113
0 0 113
0 0 113
0 0 113
7 14 116
0 15 116
12 22 116
69 102 134
181 199 198
220 235 255
220 235 255
220 235 255
220 235 255
220 235 255
220 235 255
220 235 255
220 235 255
220 235 255
220 235 255
220 235 255
220 235 255
220 235 255
220 235 255
220 235 255
220 235 255
220 235 255
220 235 255
220 235 255
220 235 255
220 235 255
220 235 255
220 235 255
220 235 255
220 235 255
220 235 255
220 235 255
220 235 255
220 235 255
220 235 255
220 235 255
220 235 255
220 235 255
220 235 255
220 235 255
220 235 255
220 235 255
220 235 255
220 235 255
220 235 255
220 235 255
220 235 255
220 235 255
220 235 255
220 235 255
220 235 255
220 235 255
220 235 255
220 235 255
220 235 255
220 235 255
220 235 255
220 235 255
220 235 255
220 235 255
220 235 255
220 235 255
220 235 255
220 235 255
220 235 255
220 235 255
220 235 255
220 235 255
220 235 255
220 235 255
220 235 255
220 235 255
220 235 255
220 235 255
220 235 255
220 235 255
220 235 255
220 235 255
220 235 255
220 235 255
220 235 255
220 235 255
220 235 255
220 235 255
220 235 255
220 235 255
220 235 255
220 235 255
220 235 255
220 235 255
220 235 255
220 235 255
220 235 255
220 235 255
220 235 255
220 235 255
220 235 255
220 235 255
220 235 255
220 235 255
220 235 255
220 235 255
220 235 255
220 235 255
220 235 255
220 235 255
220 235 255
220 235 255
220 235 255
220 235 255
220 235 255
220 235 255
220 235 255
220 235 255
220 235 255
220 235 255
220 235 255
220 235 255
220 235 255
220 235 255
220 235 255
220 235 255
220 235 255
220 235 255
220 235 255
220 235 255
220 235 255
220 235 255
220 235 255
220 235 255
220 235 255
220 235 255
220 235 255
220 235 255
220 235 255
220 235 255
220 235 255
220 235 255
220 235 255
220 235 255
220 235 255
220 235 255
220 235 255
220 235 255
220 235 255
220 235 255
220 235 255
220 235 255
220 235 255
220 235 255
220 235 255
220 235 255
220 235 255
220 235 255
220 235 255
220 235 255
220 235 255
220 235 255
220 235 255
220 235 255
220 235 255
220 235 255
220 235 255
220 235 255
220 235 255
220 235 255
220 235 255
220 235 255
220 235 255
220 235 255
220 235 255
220 235 255
220 235 255
220 235 255
220 235 255
220 235 255
220 235 255
220 235 255
220 235 255
220 235 255
220 235 255
220 235 255
220 235 255
220 235 255
220 235 255
220 235 255
220 235 255
220 235 255
220 235 255
220 235 255
220 235 255
220 235 255
220 235 255
151 161 194
2 2 115
0 14 115
9 11 115
9 13 115
0 18 116
0 20 116
0 20 116
12 15 116
13 14 116
8 9 116
0 0 113
0 9 112
0 2 113
0 0 113
0 7 113
0 20 116
0 20 116
0 20 116
0 9 114
0 9 114
7 15 115
9 20 116
10 23 117
8 22 117
0 20 116
13 14 116
1 2 115
0 0 115
13 14 116
2 2 115
0 0 115
13 14 116
13 14 116
8 20 116
0 20 116
0 19 116
0 20 116
3 21 116
0 20 116
0 20 116
0 20 116
0 20 116
10 17 116
13 14 116
13 14 116
13 14 113
4 4 113
0 0 113
0 0 113
0 0 113
0 0 113
0 0 113
0 0 113
0 0 113
0 0 113
0 0 113
0 0 113
0 0 113
0 0 115
0 0 115
7 8 115
13 14 116
13 14 116
7 8 115
0 0 115
0 0 115
0 0 115
0 0 115
11 12 116
11 12 116
3 4 115
0 0 115
0 0 115
5 5 115
11 12 116
3 3 115
0 0 114
0 0 113
0 0 113
2 2 115
6 7 115
5 6 115
5 5 115
5 6 115
5 6 115
6 6 115
4 13 116
0 20 116
0 20 116
0 20 116
0 20 116
0 20 116
0 20 116
0 22 116
12 28 120
6 36 123
4 39 125
0 41 126
11 42 127
21 35 126
12 34 125
0 37 126
0 42 128
0 45 129
0 45 129
29 55 140
14 81 153
27 82 158
26 71 148
16 69 147
10 58 144
12 52 127
11 28 124
9 18 112
58 79 98
94 126 98
95 129 98
112 144 71
115 141 89
99 126 64
62 84 91
18 27 123
4 15 112
14 16 114
10 13 118
12 17 119
12 19 111
29 32 123
24 29 116
8 16 109
13 17 107
19 14 114
9 6 122
11 19 109
16 15 113
40 51 126
107 134 78
115 140 81
111 135 68
115 137 91
118 142 83
107 127 61
123 147 81
101 143 151
81 150 175
106 138 91
135 142 106
150 154 125
141 155 110
107 141 45
112 139 75
115 140 93
117 141 96
113 139 65
108 137 64
86 113 82
75 99 104
76 99 104
105 123 78
105 133 83
101 134 69
78 147 129
44 105 155
93 129 130
52 79 123
29 30 125
1 25 113
11 25 114
0 20 116
0 20 116
0 20 117
0 24 119
8 28 121
2 31 124
16 40 128
17 46 130
7 40 126
10 35 124
0 29 121
2 25 119
4 19 118
9 23 117
0 17 116
0 1 113
0 0 113
0 0 113
0 0 113
0 0 113
0 0 113
0 0 113
0 0 113
0 0 113
0 0 113
0 0 113
0 0 114
0 0 115
0 0 115
0 0 115
0 0 113
0 0 113
0 0 113
0 0 113
0 0 113
0 0 113
0 6 113
0 0 113
12 13 116
6 10 115
8 17 114
30 81 142
167 186 183
220 235 255
220 235 255
220 235 255
220 235 255
220 235 255
220 235 255
220 235 255
220 235 255
220 235 255
220 235 255
220 235 255
220 235 255
220 235 255
220 235 255
220 235 255
220 235 255
220 235 255
220 235 255
220 235 255
220 235 255
220 235 255
220 235 255
220 235 255
220 235 255
220 235 255
220 235 255
220 235 255
220 235 255
220 235 255
220 235 255
220 235 255
220 235 255
220 235 255
220 235 255
220 235 255
220 235 255
220 235 255
220 235 255
220 235 255
220 235 255
220 235 255
220 235 255
220 235 255
220 235 255
220 235 255
220 235 255
220 235 255
220 235 255
220 235 255
220 235 255
220 235 255
220 235 255
220 235 255
220 235 255
220 235 255
220 235 255
220 235 255
220 235 255
220 235 255
220 235 255
220 235 255
220 235 255
220 235 255
220 235 255
220 235 255
220 235 255
220 235 255
220 235 255
220 235 255
220 235 255
220 235 255
220 235 255
220 235 255
220 235 255
220 235 255
220 235 255
220 235 255
220 235 255
220 235 255
220 235 255
220 235 255
220 235 255
220 235 255
220 235 255
220 235 255
220 235 255
220 235 255
220 235 255
220 235 255
220 235 255
220 235 255
220 235 255
220 235 255
220 235 255
220 235 255
220 235 255
220 235 255
220 235 255
220 235 255
220 235 255
220 235 255
220 235 255
220 235 255
220 235 255
220 235 255
220 235 255
220 235 255
220 235 255
220 235 255
220 235 255
220 235 255
220 235 255
220 235 255
220 235 255
220 235 255
220 235 255
220 235 255
220 235 255
220 235 255
220 235 255
220 235 255
220 235 255
220 235 255
220 235 255
220 235 255
220 235 255
220 235 255
220 235 255
220 235 255
220 235 255
220 235 255
220 235 255
220 235 255
220 235 255
220 235 255
220 235 255
220 235 255
220 235 255
220 235 255
220 235 255
220 235 255
220 235 255
220 235 255
220 235 255
220 235 255
220 235 255
220 235 255
220 235 255
220 235 255
220 235 255
220 235 255
220 235 255
220 235 255
220 235 255
220 235 255
220 235 255
220 235 255
220 235 255
220 235 255
220 235 255
220 235 255
220 235 255
220 235 255
220 235 255
220 235 255
220 235 255
220 235 255
220 235 255
220 235 255
220 235 255
220 235 255
220 235 255
220 235 255
220 235 255
220 235 255
220 235 255
220 235 255
220 235 255
220 235 255
220 235 255
220 235 255
220 235 255
220 235 255
220 235 255
220 235 255
220 235 255
220 235 255
220 235 255
98 105 153
3 7 115
1 20 116
10 17 116
7 17 116
0 20 116
0 20 116
0 20 116
5 19 116
4 19 116
8 14 116
2 2 113
0 0 113
0 0 113
0 0 113
0 10 114
0 20 116
0 20 116
0 20 116
0 15 115
0 18 116
0 20 116
12 24 116
13 25 117
9 23 117
4 17 116
12 13 116
0 0 115
5 5 115
12 13 116
0 0 115
2 2 115
13 14 116
13 14 116
11 22 117
0 19 116
0 15 115
1 20 116
9 23 117
0 20 116
0 20 116
0 20 116
0 17 116
12 14 116
13 14 116
13 14 116
13 14 114
0 0 113
0 0 113
0 0 113
0 0 113
0 0 113
0 0 112
0 0 113
0 0 113
0 0 113
0 0 113
0 0 113
0 0 114
0 0 115
2 2 115
10 11 116
13 14 116
13 14 116
13 14 116
0 0 115
0 0 115
0 0 115
0 0 115
0 0 115
0 0 115
0 0 115
0 0 114
0 0 115
0 0 115
7 8 115
8 9 116
0 0 113
0 0 113
0 0 113
4 4 115
13 14 116
13 14 116
13 14 116
13 14 116
13 14 116
13 14 116
10 17 116
0 20 116
0 20 116
0 20 116
0 20 116
0 20 116
0 19 116
6 19 117
16 30 121
13 37 125
10 42 127
11 48 129
21 54 134
25 48 136
10 49 135
3 47 134
15 48 135
23 51 136
21 55 138
20 63 145
0 77 154
7 86 159
2 72 148
0 58 137
20 52 135
22 39 131
13 31 117
19 23 119
17 33 119
36 63 108
50 73 123
83 107 106
104 130 85
104 132 59
95 123 58
56 76 102
10 28 116
18 25 116
16 23 112
12 23 113
36 49 108
78 101 103
67 89 97
52 69 105
51 57 116
26 15 109
13 24 110
20 28 115
37 43 113
67 83 115
116 142 85
119 146 70
119 142 80
118 142 87
112 137 72
95 115 47
110 143 71
61 125 131
55 134 184
100 151 137
113 135 76
116 133 90
120 141 86
106 141 71
110 138 70
119 143 69
118 143 85
117 144 85
119 147 87
112 144 69
106 141 67
106 139 67
122 144 93
126 148 88
116 143 72
97 130 61
87 131 100
79 136 137
26 111 155
30 37 124
0 32 112
32 15 117
0 20 116
0 20 116
0 20 117
0 24 119
15 30 122
8 33 124
0 35 127
11 44 130
6 41 127
0 36 124
0 31 123
5 27 121
0 20 118
9 23 117
0 18 116
0 5 113
0 0 113
0 0 113
0 0 113
0 0 112
0 0 113
0 0 113
0 0 113
0 0 113
0 0 113
0 0 113
0 0 114
0 0 114
0 0 113
0 0 113
0 0 113
0 0 113
0 0 113
0 0 113
0 0 113
0 0 113
0 0 113
0 0 113
10 10 115
3 5 115
6 18 116
16 46 125
124 156 164
220 235 255
220 235 255
220 235 255
220 235 255
220 235 255
220 235 255
220 235 255
220 235 255
220 235 255
220 235 255
220 235 255
220 235 255
220 235 255
220 235 255
220 235 255
220 235 255
220 235 255
220 235 255
220 235 255
220 235 255
220 235 255
220 235 255
220 235 255
220 235 255
220 235 255
220 235 255
220 235 255
220 235 255
220 235 255
220 235 255
220 235 255
220 235 255
220 235 255
220 235 255
220 235 255
220 235 255
220 235 255
220 235 255
220 235 255
220 235 255
220 235 255
220 235 255
220 235 255
220 235 255
220 235 255
220 235 255
220 235 255
220 235 255
220 235 255
220 235 255
220 235 255
220 235 255
220 235 255
220 235 255
220 235 255
220 235 255
220 235 255
220 235 255
220 235 255
220 235 255
220 235 255
220 235 255
220 235 255
220 235 255
220 235 255
220 235 255
220 235 255
220 235 255
220 235 255
220 235 255
220 235 255
220 235 255
220 235 255
220 235 255
220 235 255
220 235 255
220 235 255
220 235 255
220 235 255
220 235 255
220 235 255
220 235 255
220 235 255
220 235 255
220 235 255
220 235 255
220 235 255
220 235 255
220 235 255
220 235 255
220 235 255
220 235 255
220 235 255
220 235 255
220 235 255
220 235 255
220 235 255
220 235 255
220 235 255
220 235 255
220 235 255
220 235 255
220 235 255
220 235 255
220 235 255
220 235 255
220 235 255
220 235 255
220 235 255
220 235 255
220 235 255
220 235 255
220 235 255
220 235 255
220 235 255
220 235 255
220 235 255
220 235 255
220 235 255
220 235 255
220 235 255
220 235 255
220 235 255
220 235 255
220 235 255
220 235 255
220 235 255
220 235 255
220 235 255
220 235 255
220 235 255
220 235 255
220 235 255
220 235 255
220 235 255
220 235 255
220 235 255
220 235 255
220 235 255
220 235 255
220 235 255
220 235 255
220 235 255
220 235 255
220 235 255
220 235 255
220 235 255
220 235 255
220 235 255
220 235 255
220 235 255
220 235 255
220 235 255
220 235 255
220 235 255
220 235 255
220 235 255
220 235 255
220 235 255
220 235 255
220 235 255
220 235 255
220 235 255
220 235 255
220 235 255
220 235 255
220 235 255
220 235 255
220 235 255
220 235 255
220 235 255
220 235 255
220 235 255
220 235 255
220 235 255
220 235 255
220 235 255
220 235 255
220 235 255
220 235 255
220 235 255
220 235 255
220 235 255
220 235 255
220 235 255
220 235 255
220 235 255
217 231 252
49 52 125
11 16 116
0 20 116
0 20 116
0 20 116
0 20 116
0 20 116
0 20 116
0 20 116
0 20 116
7 18 115
3 14 115
0 10 114
0 12 115
0 12 115
0 15 115
0 20 116
0 20 116
0 20 116
0 20 116
6 21 117
2 20 116
12 24 117
13 25 117
8 22 117
6 18 116
12 13 116
0 0 115
7 7 115
11 12 116
0 0 115
5 5 115
13 14 116
13 14 116
5 21 116
0 20 116
0 19 116
1 20 116
4 21 116
0 20 116
0 20 116
0 20 116
0 19 116
9 14 116
11 12 116
11 12 115
10 11 114
8 8 113
1 1 113
0 0 113
0 0 113
0 0 113
0 0 113
0 0 113
0 0 113
0 0 113
0 0 113
0 0 113
0 0 114
2 2 115
9 10 116
13 14 116
13 14 116
13 14 116
12 13 116
7 7 115
0 0 115
0 0 115
0 0 115
0 0 115
0 0 115
0 0 115
0 0 115
0 0 115
0 0 115
8 9 116
12 13 116
3 3 113
0 0 113
0 0 112
11 12 116
13 14 116
13 14 116
13 14 116
13 14 116
13 14 116
13 14 116
10 17 116
0 20 116
0 20 116
0 20 116
0 20 116
0 20 116
6 18 116
15 20 118
18 30 121
6 34 124
5 39 126
12 48 131
22 56 137
14 59 141
4 65 143
12 65 142
25 57 140
30 57 141
28 63 142
24 78 150
15 80 154
0 85 158
11 80 152
12 62 136
14 44 127
18 38 118
20 27 117
14 14 113
14 21 119
6 33 119
13 24 124
20 39 111
64 85 114
102 130 86
103 132 68
101 130 82
64 87 112
37 58 106
19 35 111
68 89 101
101 129 91
106 136 116
96 129 117
101 134 101
103 129 99
63 74 111
21 42 114
14 28 118
83 99 125
125 147 118
128 153 109
122 149 92
115 143 74
109 137 69
98 124 64
81 112 57
104 132 55
105 139 79
90 169 159
112 152 120
119 138 82
105 133 64
108 139 51
109 141 66
107 138 59
113 143 48
121 146 70
121 147 76
121 147 83
125 151 86
120 147 83
119 144 89
139 155 101
148 155 102
137 149 101
126 136 81
101 131 48
102 126 40
93 146 122
44 129 173
19 41 127
18 17 121
4 21 116
0 20 116
0 20 117
0 21 119
9 30 122
11 40 127
6 46 130
15 47 131
6 36 125
8 35 124
7 30 123
11 26 121
8 19 119
11 23 117
0 19 116
0 7 114
0 0 113
0 0 113
0 0 113
0 0 113
0 0 112
0 0 113
0 0 113
0 0 113
0 0 113
0 0 113
0 0 114
0 0 114
0 0 113
0 0 113
0 0 113
0 0 113
0 0 113
0 0 113
0 0 113
0 0 113
0 0 113
0 0 113
4 4 113
2 2 115
6 20 116
3 17 116
75 112 142
218 233 252
220 235 255
220 235 255
220 235 255
220 235 255
220 235 255
220 235 255
220 235 255
220 235 255
220 235 255
220 235 255
220 235 255
220 235 255
220 235 255
220 235 255
220 235 255
220 235 255
220 235 255
220 235 255
220 235 255
220 235 255
220 235 255
220 235 255
220 235 255
220 235 255
220 235 255
220 235 255
220 235 255
220 235 255
220 235 255
220 235 255
220 235 255
220 235 255
220 235 255
220 235 255
220 235 255
220 235 255
220 235 255
220 235 255
220 235 255
220 235 255
220 235 255
220 235 255
220 235 255
220 235 255
220 235 255
220 235 255
220 235 255
220 235 255
220 235 255
220 235 255
220 235 255
220 235 255
220 235 255
220 235 255
220 235 255
220 235 255
220 235 255
220 235 255
220 235 255
220 235 255
220 235 255
220 235 255
220 235 255
220 235 255
220 235 255
220 235 255
220 235 255
220 235 255
220 235 255
220 235 255
220 235 255
220 235 255
220 235 255
220 235 255
220 235 255
220 235 255
220 235 255
220 235 255
220 235 255
220 235 255
220 235 255
220 235 255
220 235 255
220 235 255
220 235 255
220 235 255
220 235 255
220 235 255
220 235 255
220 235 255
220 235 255
220 235 255
220 235 255
220 235 255
220 235 255
220 235 255
220 235 255
220 235 255
220 235 255
220 235 255
220 235 255
220 235 255
220 235 255
220 235 255
220 235 255
220 235 255
220 235 255
220 235 255
220 235 255
220 235 255
220 235 255
220 235 255
220 235 255
220 235 255
220 235 255
220 235 255
220 235 255
220 235 255
220 235 255
220 235 255
220 235 255
220 235 255
220 235 255
220 235 255
220 235 255
220 235 255
220 235 255
220 235 255
220 235 255
220 235 255
220 235 255
220 235 255
220 235 255
220 235 255
220 235 255
220 235 255
220 235 255
220 235 255
220 235 255
220 235 255
220 235 255
220 235 255
220 235 255
220 235 255
220 235 255
220 235 255
220 235 255
220 235 255
220 235 255
220 235 255
220 235 255
220 235 255
220 235 255
220 235 255
220 235 255
220 235 255
220 235 255
220 235 255
220 235 255
220 235 255
220 235 255
220 235 255
220 235 255
220 235 255
220 235 255
220 235 255
220 235 255
220 235 255
220 235 255
220 235 255
220 235 255
220 235 255
220 235 255
220 235 255
220 235 255
220 235 255
220 235 255
220 235 255
220 235 255
220 235 255
220 235 255
220 235 255
220 235 255
220 235 255
220 235 255
220 235 255
199 213 236
5 8 115
5 17 116
0 20 116
0 20 116
0 20 116
0 20 116
0 20 116
0 20 116
0 20 116
0 20 116
0 20 115
1 20 116
4 20 116
0 20 116
0 20 116
0 20 116
0 20 116
0 20 116
0 20 116
5 21 116
12 24 117
7 22 117
6 21 116
8 22 117
4 21 116
7 18 116
10 10 116
0 0 115
9 9 116
10 11 116
0 0 115
7 7 115
13 14 116
13 15 116
0 20 116
4 21 116
5 21 116
0 20 116
0 16 115
0 14 115
0 18 116
0 20 116
0 20 116
0 7 115
0 0 115
0 0 114
5 6 113
13 14 114
2 2 113
0 0 113
0 0 113
0 0 113
0 0 113
0 0 113
0 0 113
0 0 113
0 0 113
0 0 113
0 0 114
10 10 116
13 14 116
13 14 116
13 14 116
13 14 116
13 14 116
10 11 116
0 0 115
0 0 115
0 0 115
6 7 115
12 13 116
6 7 115
0 5 115
0 4 115
11 14 116
12 14 116
13 15 116
2 6 113
0 5 113
0 6 113
12 15 116
13 15 116
12 14 116
12 14 116
13 14 116
12 14 116
12 14 116
9 16 116
0 20 116
0 19 117
0 20 116
0 20 116
0 20 116
6 19 116
18 22 119
23 29 121
13 29 123
0 32 124
1 42 130
18 56 136
7 63 141
12 74 145
9 69 143
0 48 133
9 41 130
13 45 130
20 59 134
31 70 146
16 70 149
13 63 142
21 44 131
22 32 125
0 12 122
11 15 117
15 16 124
16 28 121
6 16 107
18 16 114
12 19 120
37 59 108
76 102 85
103 130 85
116 146 85
113 143 82
108 135 87
105 131 89
110 140 74
108 137 101
75 103 137
32 67 141
68 107 118
106 139 112
107 135 89
67 96 122
77 112 148
126 157 118
131 158 104
126 153 87
120 148 74
110 140 67
106 138 48
103 132 62
84 115 42
93 135 37
113 144 79
108 135 82
126 138 94
114 137 85
107 139 80
104 141 43
112 140 65
108 142 61
109 146 61
116 141 72
134 153 97
135 154 95
128 148 87
125 145 86
131 149 95
148 158 119
149 155 110
132 139 90
135 142 100
115 136 70
97 128 60
96 131 72
59 151 176
34 69 139
19 51 127
9 23 117
0 20 116
0 20 116
0 20 118
0 29 121
10 41 127
14 51 132
14 48 131
10 34 125
13 29 121
6 21 119
11 21 118
11 17 117
14 23 117
0 20 116
0 8 114
0 0 113
0 0 113
0 0 113
0 0 113
0 0 113
0 0 113
0 0 113
0 0 113
0 0 113
0 0 113
0 0 113
0 0 114
0 0 113
0 0 113
0 0 113
0 0 113
0 0 113
0 0 113
0 0 113
0 0 113
0 0 113
0 0 113
0 0 113
0 0 113
3 16 115
0 17 117
54 87 136
202 218 229
220 235 255
220 235 255
220 235 255
220 235 255
220 235 255
220 235 255
220 235 255
220 235 255
220 235 255
220 235 255
220 235 255
220 235 255
220 235 255
220 235 255
220 235 255
220 235 255
220 235 255
220 235 255
220 235 255
220 235 255
220 235 255
220 235 255
220 235 255
220 235 255
220 235 255
220 235 255
220 235 255
220 235 255
220 235 255
220 235 255
220 235 255
220 235 255
220 235 255
220 235 255
220 235 255
220 235 255
220 235 255
220 235 255
220 235 255
220 235 255
220 235 255
220 235 255
220 235 255
220 235 255
220 235 255
220 235 255
220 235 255
220 235 255
220 235 255
220 235 255
220 235 255
220 235 255
220 235 255
220 235 255
220 235 255
220 235 255
220 235 255
220 235 255
220 235 255
220 235 255
220 235 255
220 235 255
220 235 255
220 235 255
220 235 255
220 235 255
220 235 255
220 235 255
220 235 255
220 235 255
220 235 255
220 235 255
220 235 255
220 235 255
220 235 255
220 235 255
220 235 255
220 235 255
220 235 255
220 235 255
220 235 255
220 235 255
220 235 255
220 235 255
220 235 255
220 235 255
220 235 255
220 235 255
220 235 255
220 235 255
220 235 255
220 235 255
220 235 255
220 235 255
220 235 255
220 235 255
220 235 255
220 235 255
220 235 255
220 235 255
220 235 255
220 235 255
220 235 255
220 235 255
220 235 255
220 235 255
220 235 255
220 235 255
220 235 255
220 235 255
220 235 255
220 235 255
220 235 255
220 235 255
220 235 255
220 235 255
220 235 255
220 235 255
220 235 255
220 235 255
220 235 255
220 235 255
220 235 255
220 235 255
220 235 255
220 235 255
220 235 255
220 235 255
220 235 255
220 235 255
220 235 255
220 235 255
220 235 255
220 235 255
220 235 255
220 235 255
220 235 255
220 235 255
220 235 255
220 235 255
220 235 255
220 235 255
220 235 255
220 235 255
220 235 255
220 235 255
220 235 255
220 235 255
220 235 255
220 235 255
220 235 255
220 235 255
220 235 255
220 235 255
220 235 255
220 235 255
220 235 255
220 235 255
220 235 255
220 235 255
220 235 255
220 235 255
220 235 255
220 235 255
220 235 255
220 235 255
220 235 255
220 235 255
220 235 255
220 235 255
220 235 255
220 235 255
220 235 255
220 235 255
220 235 255
220 235 255
220 235 255
220 235 255
220 235 255
220 235 255
220 235 255
220 235 255
220 235 255
220 235 255
220 235 255
220 235 255
173 185 213
9 14 116
0 19 116
0 20 116
0 20 116
0 20 116
0 18 116
0 20 116
0 20 116
0 20 116
0 19 116
0 18 115
8 21 117
11 22 118
10 23 117
10 23 117
5 21 116
0 20 116
0 20 116
0 18 116
10 24 117
12 24 118
8 22 117
0 20 116
0 20 116
0 20 116
9 17 116
11 12 116
6 6 115
7 7 115
11 13 115
0 13 116
6 15 116
10 17 116
8 17 116
0 17 116
7 19 116
7 22 116
9 22 117
5 19 116
0 16 115
0 15 115
0 17 116
0 16 115
0 2 114
0 0 114
0 0 113
4 4 113
6 7 113
11 12 115
12 13 116
11 12 115
11 12 115
12 13 116
1 1 115
0 10 115
0 15 115
0 19 116
0 19 116
0 19 116
4 20 116
3 20 116
3 20 116
2 20 116
2 20 116
13 14 116
13 14 116
12 13 116
0 0 115
0 0 115
0 12 115
0 20 116
0 20 116
0 20 116
0 20 116
0 20 116
0 20 116
0 20 116
0 20 116
0 20 116
0 20 116
0 20 116
0 20 116
0 20 116
0 14 115
0 14 115
0 14 115
0 14 115
6 14 116
9 14 117
0 17 118
0 20 116
0 20 116
0 20 116
0 20 117
10 26 120
23 30 122
19 27 121
0 28 121
0 41 128
17 56 136
16 60 140
24 60 140
15 50 133
0 35 125
12 30 122
18 29 121
13 24 120
9 33 123
0 39 127
14 45 130
16 44 128
6 32 122
0 22 117
0 20 116
0 20 116
0 20 116
0 20 116
0 20 116
9 22 117
14 22 120
29 41 113
55 73 116
67 87 117
77 101 101
100 131 80
111 146 66
115 145 91
59 77 130
18 40 122
20 50 128
25 54 128
73 118 128
111 145 81
104 134 90
97 169 147
123 159 114
124 156 95
117 150 81
110 140 68
101 132 50
103 132 59
111 135 75
101 121 67
108 129 77
113 136 80
114 135 86
117 139 84
114 142 75
117 146 81
110 143 65
110 143 55
111 146 58
113 146 62
113 142 65
119 138 71
137 147 94
147 153 108
144 152 105
144 155 105
145 150 106
149 154 105
132 143 103
123 140 94
95 123 46
94 122 53
90 121 57
90 123 73
78 116 104
56 108 152
26 52 129
5 30 112
9 16 112
19 21 117
22 25 112
4 37 125
11 51 130
15 51 136
16 37 129
12 25 119
5 16 117
15 18 116
12 7 115
12 21 117
0 20 116
0 9 114
6 0 113
9 5 113
0 0 113
0 0 113
0 0 113
0 0 113
0 0 113
0 0 113
0 0 113
0 0 113
0 0 113
0 0 115
0 0 113
0 0 113
0 0 113
0 0 113
0 0 113
0 0 113
0 0 113
0 0 113
0 0 112
6 6 114
0 0 113
0 0 113
3 11 114
3 19 116
18 33 121
197 213 226
220 235 255
220 235 255
220 235 255
220 235 255
220 235 255
220 235 255
220 235 255
220 235 255
220 235 255
220 235 255
220 235 255
220 235 255
220 235 255
220 235 255
220 235 255
220 235 255
220 235 255
220 235 255
220 235 255
220 235 255
220 235 255
220 235 255
220 235 255
220 235 255
220 235 255
220 235 255
220 235 255
220 235 255
220 235 255
220 235 255
220 235 255
220 235 255
220 235 255
220 235 255
220 235 255
220 235 255
220 235 255
220 235 255
220 235 255
220 235 255
220 235 255
220 235 255
220 235 255
220 235 255
220 235 255
220 235 255
220 235 255
220 235 255
220 235 255
220 235 255
220 235 255
220 235 255
220 235 255
220 235 255
220 235 255
220 235 255
220 235 255
220 235 255
220 235 255
220 235 255
220 235 255
220 235 255
220 235 255
220 235 255
220 235 255
220 235 255
220 235 255
220 235 255
220 235 255
220 235 255
220 235 255
220 235 255
220 235 255
220 235 255
220 235 255
220 235 255
220 235 255
220 235 255
220 235 255
220 235 255
220 235 255
220 235 255
220 235 255
220 235 255
220 235 255
220 235 255
220 235 255
220 235 255
220 235 255
220 235 255
220 235 255
220 235 255
220 235 255
220 235 255
220 235 255
220 235 255
220 235 255
220 235 255
220 235 255
220 235 255
220 235 255
220 235 255
220 235 255
220 235 255
220 235 255
220 235 255
220 235 255
220 235 255
220 235 255
220 235 255
220 235 255
220 235 255
220 235 255
220 235 255
220 235 255
220 235 255
220 235 255
220 235 255
220 235 255
220 235 255
220 235 255
220 235 255
220 235 255
220 235 255
220 235 255
220 235 255
220 235 255
220 235 255
220 235 255
220 235 255
220 235 255
220 235 255
220 235 255
220 235 255
220 235 255
220 235 255
220 235 255
220 235 255
220 235 255
220 235 255
220 235 255
220 235 255
220 235 255
220 235 255
220 235 255
220 235 255
220 235 255
220 235 255
220 235 255
220 235 255
220 235 255
220 235 255
220 235 255
220 235 255
220 235 255
220 235 255
220 235 255
220 235 255
220 235 255
220 235 255
220 235 255
220 235 255
220 235 255
220 235 255
220 235 255
220 235 255
220 235 255
220 235 255
220 235 255
220 235 255
220 235 255
220 235 255
220 235 255
220 235 255
220 235 255
220 235 255
220 235 255
220 235 255
220 235 255
220 235 255
220 235 255
220 235 255
220 235 255
220 235 255
220 235 255
220 235 255
144 154 189
8 19 116
0 20 116
0 20 116
0 20 116
0 17 116
0 18 116
0 20 116
2 20 116
10 23 116
4 20 117
9 16 115
12 29 121
15 41 127
11 31 122
8 20 116
1 20 116
7 22 117
1 18 116
0 23 118
0 25 119
0 22 119
0 20 118
0 20 116
0 20 116
0 20 116
6 19 116
11 15 116
5 5 114
3 0 113
7 15 115
0 20 116
0 20 116
0 20 116
0 20 116
0 19 116
0 19 116
0 20 116
13 25 117
4 21 116
0 20 116
0 17 116
0 16 115
0 15 115
0 0 113
0 0 113
0 0 113
0 0 113
2 2 114
12 13 116
11 12 116
11 11 116
11 12 116
10 11 116
8 9 116
3 17 116
0 20 116
0 20 116
0 20 116
0 20 116
0 20 116
0 20 116
0 20 116
0 20 116
0 20 116
9 17 116
9 17 116
8 17 116
0 13 115
0 10 115
0 15 116
0 20 116
0 20 116
0 20 116
0 20 116
0 20 116
0 20 116
0 20 116
0 20 116
0 20 116
0 20 116
0 20 116
0 20 116
0 20 116
0 17 116
0 14 115
0 14 115
0 15 115
9 16 116
13 14 116
10 17 116
0 20 116
0 20 116
0 20 116
0 20 117
6 24 119
18 26 121
16 26 120
7 29 122
0 37 126
7 48 130
7 48 133
9 42 129
2 32 125
7 28 122
15 27 121
13 21 120
16 23 118
9 27 120
0 30 122
3 36 126
13 38 125
9 32 121
4 22 117
0 20 116
0 20 116
0 20 116
0 20 116
0 20 116
16 23 115
20 26 119
13 20 118
15 29 120
7 22 123
19 40 120
63 88 112
91 119 97
125 156 86
80 101 124
26 42 125
27 49 138
13 20 131
62 87 115
111 136 83
109 133 72
116 160 106
123 150 103
109 136 62
113 143 76
106 135 60
86 119 13
95 127 51
111 136 73
106 126 72
114 135 85
112 136 76
109 136 76
105 136 66
107 139 56
116 141 72
108 135 54
111 142 59
108 142 56
105 140 55
109 143 71
115 145 78
112 134 66
131 143 93
137 145 97
142 148 100
136 149 99
139 149 97
134 144 106
110 121 74
116 137 78
95 126 32
81 119 25
87 119 33
91 121 30
85 126 72
54 131 160
27 72 136
29 21 119
13 30 122
22 30 121
20 23 122
20 54 134
15 57 142
21 49 127
16 31 116
3 16 116
14 8 115
11 14 115
1 17 117
0 20 116
0 11 114
12 0 112
14 6 113
0 0 113
0 0 113
0 0 113
0 0 113
0 0 113
0 0 113
0 0 113
0 0 113
0 0 113
0 0 113
0 0 113
0 0 113
0 0 113
0 0 113
0 0 113
0 0 113
0 0 113
0 0 113
0 0 113
6 7 113
0 0 113
0 4 112
2 9 113
7 17 116
14 16 116
164 181 193
220 235 255
220 235 255
220 235 255
220 235 255
220 235 255
220 235 255
220 235 255
220 235 255
220 235 255
220 235 255
220 235 255
220 235 255
220 235 255
220 235 255
220 235 255
220 235 255
220 235 255
220 235 255
220 235 255
220 235 255
220 235 255
220 235 255
220 235 255
220 235 255
220 235 255
220 235 255
220 235 255
220 235 255
220 235 255
220 235 255
220 235 255
220 235 255
220 235 255
220 235 255
220 235 255
220 235 255
220 235 255
220 235 255
220 235 255
220 235 255
220 235 255
220 235 255
220 235 255
220 235 255
220 235 255
220 235 255
220 235 255
220 235 255
220 235 255
220 235 255
220 235 255
220 235 255
220 235 255
220 235 255
220 235 255
220 235 255
220 235 255
220 235 255
220 235 255
220 235 255
220 235 255
220 235 255
220 235 255
220 235 255
220 235 255
220 235 255
220 235 255
220 235 255
220 235 255
220 235 255
220 235 255
220 235 255
220 235 255
220 235 255
220 235 255
220 235 255
220 235 255
220 235 255
220 235 255
220 235 255
220 235 255
220 235 255
220 235 255
220 235 255
220 235 255
220 235 255
220 235 255
220 235 255
220 235 255
220 235 255
220 235 255
220 235 255
220 235 255
220 235 255
220 235 255
220 235 255
220 235 255
220 235 255
220 235 255
220 235 255
220 235 255
220 235 255
220 235 255
220 235 255
220 235 255
220 235 255
220 235 255
220 235 255
220 235 255
220 235 255
220 235 255
220 235 255
220 235 255
220 235 255
220 235 255
220 235 255
220 235 255
220 235 255
220 235 255
220 235 255
220 235 255
220 235 255
220 235 255
220 235 255
220 235 255
220 235 255
220 235 255
220 235 255
220 235 255
220 235 255
220 235 255
220 235 255
220 235 255
220 235 255
220 235 255
220 235 255
220 235 255
220 235 255
220 235 255
220 235 255
220 235 255
220 235 255
220 235 255
220 235 255
220 235 255
220 235 255
220 235 255
220 235 255
220 235 255
220 235 255
220 235 255
220 235 255
220 235 255
220 235 255
220 235 255
220 235 255
220 235 255
220 235 255
220 235 255
220 235 255
220 235 255
220 235 255
220 235 255
220 235 255
220 235 255
220 235 255
220 235 255
220 235 255
220 235 255
220 235 255
220 235 255
220 235 255
220 235 255
220 235 255
220 235 255
220 235 255
220 235 255
220 235 255
220 235 255
220 235 255
220 235 255
220 235 255
220 235 255
220 235 255
220 235 255
220 235 255
128 137 176
2 20 116
0 20 116
0 20 116
0 20 116
0 17 116
0 16 116
0 20 116
5 21 116
13 25 117
1 20 117
11 16 115
10 31 122
13 39 126
12 32 122
8 22 117
0 19 116
8 22 117
10 23 117
3 24 119
0 24 119
0 20 118
0 20 118
0 20 116
0 20 116
0 20 116
0 19 116
3 13 115
0 2 114
0 0 113
9 10 115
11 13 116
11 12 116
12 13 116
8 15 116
0 20 116
0 20 116
2 20 116
11 23 117
3 21 116
0 20 116
0 20 116
0 20 116
0 19 116
0 0 115
0 0 115
0 0 115
0 0 115
0 0 115
0 0 115
0 0 115
0 0 115
0 0 115
1 1 115
13 14 116
7 19 116
0 20 116
0 20 116
5 21 116
7 22 116
0 20 116
0 20 116
0 20 116
0 20 116
0 20 116
0 20 116
0 20 116
0 20 116
0 20 116
0 16 115
0 17 116
0 20 116
0 20 116
0 20 116
0 20 116
0 20 116
0 20 116
0 20 116
0 20 116
0 20 116
0 20 116
0 20 116
0 20 116
0 20 116
0 20 116
0 20 116
0 19 116
0 20 116
3 14 116
5 5 115
7 8 115
8 17 116
0 20 116
0 20 116
0 20 116
0 21 117
12 24 117
14 23 120
10 29 122
0 32 123
9 35 125
17 33 123
8 24 120
5 18 118
14 22 120
17 25 119
7 17 119
17 21 116
9 23 118
0 21 119
3 29 120
13 30 121
12 27 119
5 21 116
0 20 116
0 20 116
0 20 116
0 20 116
0 20 116
7 16 114
16 19 118
10 16 120
7 18 119
6 22 119
26 43 119
31 47 122
41 56 128
77 101 114
62 84 121
18 43 117
15 48 123
23 46 125
29 39 127
94 122 106
123 150 113
126 157 113
123 150 105
103 130 65
99 125 54
97 124 48
82 115 0
92 125 39
103 130 57
107 124 66
128 144 104
116 138 81
106 136 65
103 138 60
103 138 50
107 136 62
106 133 52
106 133 52
111 134 58
116 135 68
116 135 73
114 136 74
107 131 67
115 136 80
118 137 84
114 132 73
111 136 71
115 133 67
137 147 109
111 120 73
126 143 95
111 131 74
90 124 29
85 122 35
90 118 55
87 116 40
92 136 100
53 128 164
25 25 121
25 25 114
22 19 116
7 34 124
3 43 129
19 65 144
22 66 142
20 48 130
0 31 121
0 25 118
13 27 118
8 21 117
0 20 116
0 14 115
5 2 113
7 0 113
0 0 113
0 0 113
0 0 113
0 0 113
0 0 113
0 0 113
0 0 113
0 0 113
0 0 113
0 0 113
0 0 113
0 0 113
0 0 113
0 0 113
0 0 113
0 0 113
0 0 113
0 0 113
0 0 113
0 0 113
0 0 113
0 0 113
4 19 116
6 18 116
6 9 114
148 162 183
220 235 255
220 235 255
220 235 255
220 235 255
220 235 255
220 235 255
220 235 255
220 235 255
220 235 255
220 235 255
220 235 255
220 235 255
220 235 255
220 235 255
220 235 255
220 235 255
220 235 255
220 235 255
220 235 255
220 235 255
220 235 255
220 235 255
220 235 255
220 235 255
220 235 255
220 235 255
220 235 255
220 235 255
220 235 255
220 235 255
220 235 255
220 235 255
220 235 255
220 235 255
220 235 255
220 235 255
220 235 255
220 235 255
220 235 255
220 235 255
220 235 255
220 235 255
220 235 255
220 235 255
220 235 255
220 235 255
220 235 255
220 235 255
220 235 255
220 235 255
220 235 255
220 235 255
220 235 255
220 235 255
220 235 255
220 235 255
220 235 255
220 235 255
220 235 255
220 235 255
220 235 255
220 235 255
220 235 255
220 235 255
220 235 255
220 235 255
220 235 255
220 235 255
220 235 255
220 235 255
220 235 255
220 235 255
220 235 255
220 235 255
220 235 255
220 235 255
220 235 255
220 235 255
220 235 255
220 235 255
220 235 255
220 235 255
220 235 255
220 235 255
220 235 255
220 235 255
220 235 255
220 235 255
220 235 255
220 235 255
220 235 255
220 235 255
220 235 255
220 235 255
220 235 255
220 235 255
220 235 255
220 235 255
220 235 255
220 235 255
220 235 255
220 235 255
220 235 255
220 235 255
220 235 255
220 235 255
220 235 255
220 235 255
220 235 255
220 235 255
220 235 255
220 235 255
220 235 255
220 235 255
220 235 255
220 235 255
220 235 255
220 235 255
220 235 255
220 235 255
220 235 255
220 235 255
220 235 255
220 235 255
220 235 255
220 235 255
220 235 255
220 235 255
220 235 255
220 235 255
220 235 255
220 235 255
220 235 255
220 235 255
220 235 255
220 235 255
220 235 255
220 235 255
220 235 255
220 235 255
220 235 255
220 235 255
220 235 255
220 235 255
220 235 255
220 235 255
220 235 255
220 235 255
220 235 255
220 235 255
220 235 255
220 235 255
220 235 255
220 235 255
220 235 255
220 235 255
220 235 255
220 235 255
220 235 255
220 235 255
220 235 255
220 235 255
220 235 255
220 235 255
220 235 255
220 235 255
220 235 255
220 235 255
220 235 255
220 235 255
220 235 255
220 235 255
220 235 255
220 235 255
220 235 255
220 235 255
220 235 255
220 235 255
220 235 255
220 235 255
220 235 255
220 235 255
220 235 255
220 235 255
220 235 255
220 235 255
85 92 146
0 20 116
0 20 116
0 20 116
0 20 116
3 16 116
0 19 116
0 20 116
5 21 116
11 24 117
0 19 116
8 20 116
0 27 121
8 33 124
8 27 120
8 22 117
4 20 116
12 24 117
12 24 117
12 25 118
6 22 117
0 20 116
0 20 116
0 20 116
0 20 116
0 20 116
0 17 116
0 15 115
0 6 113
0 0 112
0 0 115
0 0 115
0 0 115
0 0 115
0 7 115
0 13 116
0 14 116
0 12 116
0 12 116
0 20 116
0 20 116
0 20 116
0 20 116
0 19 116
0 17 116
0 17 116
0 17 116
0 17 116
0 13 116
0 0 115
0 0 115
0 0 115
0 0 115
2 2 115
13 14 116
7 19 116
0 20 116
0 20 116
9 23 117
6 21 116
0 20 116
0 20 116
0 20 116
0 20 116
0 20 116
0 20 116
0 20 116
0 20 116
0 20 116
0 20 116
0 20 116
0 20 116
0 20 116
0 20 116
0 20 116
0 20 116
0 20 116
0 20 116
0 20 116
0 20 116
0 20 116
0 20 116
0 20 116
0 20 116
0 20 116
0 20 116
0 20 116
0 14 115
0 10 114
0 0 113
0 0 113
0 10 115
0 19 116
0 20 116
0 19 117
0 20 116
1 20 116
14 21 120
15 25 120
6 27 120
5 20 119
13 14 116
12 13 116
13 24 117
12 24 117
6 20 116
0 20 116
0 11 113
6 21 116
4 21 117
7 25 119
13 26 119
8 20 117
0 19 116
0 20 116
0 20 116
0 20 116
0 20 116
0 20 116
14 19 118
22 31 120
21 28 123
11 24 123
7 25 119
17 30 121
17 30 125
17 35 128
13 30 128
15 29 134
25 45 130
9 35 125
8 34 125
30 36 125
39 51 126
109 136 124
128 149 120
115 145 96
98 124 63
103 126 71
98 123 52
94 124 44
95 127 46
101 127 52
115 131 82
132 141 105
136 151 111
117 142 80
106 137 57
103 132 60
106 131 65
108 131 59
117 135 69
127 139 84
133 142 95
139 145 104
127 138 88
108 125 62
107 133 77
95 126 59
90 122 52
100 131 53
109 132 58
125 142 95
104 121 56
102 129 69
102 127 58
92 121 33
88 120 40
89 119 56
89 122 48
91 119 40
86 147 142
34 104 158
30 53 127
32 27 116
11 24 119
20 50 132
23 65 142
33 72 150
23 59 142
20 44 130
14 30 121
9 19 116
16 14 116
0 20 116
0 19 116
0 12 114
0 7 113
0 0 113
0 0 113
0 0 113
0 0 113
0 0 113
0 0 113
0 0 113
0 0 113
0 0 113
0 0 113
0 0 113
0 0 113
0 0 113
0 0 113
0 0 113
0 0 113
0 0 113
0 0 113
0 0 113
0 0 113
0 0 113
0 0 113
0 18 115
2 18 116
3 4 114
114 127 158
220 235 255
220 235 255
220 235 255
220 235 255
220 235 255
220 235 255
220 235 255
220 235 255
220 235 255
220 235 255
220 235 255
220 235 255
220 235 255
220 235 255
220 235 255
220 235 255
220 235 255
220 235 255
220 235 255
220 235 255
220 235 255
220 235 255
220 235 255
220 235 255
220 235 255
220 235 255
220 235 255
220 235 255
220 235 255
220 235 255
220 235 255
220 235 255
220 235 255
220 235 255
220 235 255
220 235 255
220 235 255
220 235 255
220 235 255
220 235 255
220 235 255
220 235 255
220 235 255
220 235 255
220 235 255
220 235 255
220 235 255
220 235 255
220 235 255
220 235 255
220 235 255
220 235 255
220 235 255
220 235 255
220 235 255
220 235 255
220 235 255
220 235 255
220 235 255
220 235 255
220 235 255
220 235 255
220 235 255
220 235 255
220 235 255
220 235 255
220 235 255
220 235 255
220 235 255
220 235 255
220 235 255
220 235 255
220 235 255
220 235 255
220 235 255
220 235 255
220 235 255
220 235 255
220 235 255
220 235 255
220 235 255
220 235 255
220 235 255
220 235 255
220 235 255
220 235 255
220 235 255
220 235 255
220 235 255
220 235 255
220 235 255
220 235 255
220 235 255
220 235 255
220 235 255
220 235 255
220 235 255
220 235 255
220 235 255
220 235 255
220 235 255
220 235 255
220 235 255
220 235 255
220 235 255
220 235 255
220 235 255
220 235 255
220 235 255
220 235 255
220 235 255
220 235 255
220 235 255
220 235 255
220 235 255
220 235 255
220 235 255
220 235 255
220 235 255
220 235 255
220 235 255
220 235 255
220 235 255
220 235 255
220 235 255
220 235 255
220 235 255
220 235 255
220 235 255
220 235 255
220 235 255
220 235 255
220 235 255
220 235 255
220 235 255
220 235 255
220 235 255
220 235 255
220 235 255
220 235 255
220 235 255
220 235 255
220 235 255
220 235 255
220 235 255
220 235 255
220 235 255
220 235 255
220 235 255
220 235 255
220 235 255
220 235 255
220 235 255
220 235 255
220 235 255
220 235 255
220 235 255
220 235 255
220 235 255
220 235 255
220 235 255
220 235 255
220 235 255
220 235 255
220 235 255
220 235 255
220 235 255
220 235 255
220 235 255
220 235 255
220 235 255
220 235 255
220 235 255
220 235 255
220 235 255
220 235 255
220 235 255
220 235 255
220 235 255
220 235 255
220 235 255
220 235 255
220 235 255
220 235 255
220 235 255
220 235 255
62 68 133
0 20 116
0 20 116
0 20 116
0 20 116
7 17 116
2 20 116
0 20 116
0 20 116
4 21 116
0 19 116
3 20 116
0 21 118
3 23 119
3 23 119
11 27 120
13 25 117
5 21 116
1 20 116
5 21 116
0 20 116
0 20 116
0 20 116
0 20 116
0 20 116
0 20 116
0 20 116
0 19 116
0 10 113
0 0 113
0 0 115
0 0 115
0 0 115
0 1 115
0 0 115
0 0 115
0 0 114
0 0 114
0 4 115
0 20 116
0 20 116
0 20 116
0 20 116
0 20 116
0 20 116
0 20 116
0 20 116
0 20 116
2 17 116
4 4 115
6 7 115
6 7 115
6 6 115
7 8 115
11 12 116
4 19 116
0 20 116
0 20 116
0 20 116
0 20 116
0 20 116
0 20 116
0 20 116
0 20 116
0 20 116
0 20 116
0 20 116
0 20 116
0 20 116
0 20 116
0 20 116
0 20 116
0 20 116
0 20 116
0 20 116
0 20 116
0 20 116
0 20 116
0 20 116
0 20 116
0 20 116
0 20 116
0 18 116
0 20 116
0 20 116
0 20 116
0 18 116
0 14 115
0 9 113
0 9 112
0 0 113
0 0 114
7 16 116
2 19 117
0 17 117
0 20 115
0 20 116
6 16 119
11 19 119
6 22 118
0 19 117
0 13 115
8 13 115
9 22 117
8 21 116
0 14 115
0 19 116
0 16 115
5 21 116
5 21 116
9 22 117
13 22 119
8 12 118
0 17 116
0 20 116
0 20 116
0 20 116
0 20 116
0 20 116
7 21 118
4 25 116
15 28 121
13 27 123
8 32 114
13 36 115
12 29 124
8 32 125
19 41 126
15 40 125
0 30 122
4 31 120
12 29 119
35 36 120
18 25 121
83 103 126
130 153 118
124 154 112
107 127 74
108 129 73
97 121 45
101 130 58
101 132 60
99 125 49
108 123 63
131 140 102
137 149 112
120 143 82
104 133 55
111 129 70
112 124 60
119 132 76
126 140 89
132 145 100
134 146 101
127 140 95
115 133 80
98 122 51
99 125 62
92 118 49
100 124 66
106 135 65
105 132 59
101 125 52
92 119 29
77 112 17
80 120 15
86 119 48
90 116 51
92 119 38
90 119 35
95 119 58
101 126 62
89 150 130
57 127 171
17 58 137
7 50 137
37 84 161
22 93 164
15 95 158
7 88 152
16 57 139
25 39 129
11 28 120
21 14 118
0 20 116
0 20 116
0 19 116
0 16 115
0 0 113
0 0 113
0 0 113
0 0 113
0 0 113
0 0 113
0 0 113
0 0 113
0 0 113
0 0 113
0 0 113
0 0 113
0 0 113
0 0 112
0 0 113
0 0 113
0 0 113
0 0 113
0 0 113
1 2 113
4 4 114
0 0 114
0 16 115
0 19 116
4 4 114
62 71 126
220 235 255
220 235 255
220 235 255
220 235 255
220 235 255
220 235 255
220 235 255
220 235 255
220 235 255
220 235 255
220 235 255
220 235 255
220 235 255
220 235 255
220 235 255
220 235 255
220 235 255
220 235 255
220 235 255
220 235 255
220 235 255
220 235 255
220 235 255
220 235 255
220 235 255
220 235 255
220 235 255
220 235 255
220 235 255
220 235 255
220 235 255
220 235 255
220 235 255
220 235 255
220 235 255
220 235 255
220 235 255
220 235 255
220 235 255
220 235 255
220 235 255
220 235 255
220 235 255
220 235 255
220 235 255
220 235 255
220 235 255
220 235 255
220 235 255
220 235 255
220 235 255
220 235 255
220 235 255
220 235 255
220 235 255
220 235 255
220 235 255
220 235 255
220 235 255
220 235 255
220 235 255
220 235 255
220 235 255
220 235 255
220 235 255
220 235 255
220 235 255
220 235 255
220 235 255
220 235 255
220 235 255
220 235 255
220 235 255
220 235 255
220 235 255
220 235 255
220 235 255
220 235 255
220 235 255
220 235 255
220 235 255
220 235 255
220 235 255
220 235 255
220 235 255
220 235 255
220 235 255
220 235 255
220 235 255
220 235 255
220 235 255
220 235 255
220 235 255
220 235 255
220 235 255
220 235 255
220 235 255
220 235 255
220 235 255
220 235 255
220 235 255
220 235 255
220 235 255
220 235 255
220 235 255
220 235 255
220 235 255
220 235 255
220 235 255
220 235 255
220 235 255
220 235 255
220 235 255
220 235 255
220 235 255
220 235 255
220 235 255
220 235 255
220 235 255
220 235 255
220 235 255
220 235 255
220 235 255
220 235 255
220 235 255
220 235 255
220 235 255
220 235 255
220 235 255
220 235 255
220 235 255
220 235 255
220 235 255
220 235 255
220 235 255
220 235 255
220 235 255
220 235 255
220 235 255
220 235 255
220 235 255
220 235 255
220 235 255
220 235 255
220 235 255
220 235 255
220 235 255
220 235 255
220 235 255
220 235 255
220 235 255
220 235 255
220 235 255
220 235 255
220 235 255
220 235 255
220 235 255
220 235 255
220 235 255
220 235 255
220 235 255
220 235 255
220 235 255
220 235 255
220 235 255
220 235 255
220 235 255
220 235 255
220 235 255
220 235 255
220 235 255
220 235 255
220 235 255
220 235 255
220 235 255
220 235 255
220 235 255
220 235 255
220 235 255
220 235 255
220 235 255
220 235 255
220 235 255
220 235 255
220 235 255
211 225 247
1 17 116
0 20 117
0 20 117
0 20 116
2 20 116
9 18 116
0 20 116
0 20 116
0 20 116
0 20 116
0 20 116
0 20 116
0 20 116
9 23 117
9 26 120
12 27 119
8 22 117
0 20 116
0 20 116
0 20 116
0 20 116
0 20 116
0 20 116
0 20 116
0 20 116
0 20 116
0 21 116
0 20 116
0 20 114
11 15 114
3 20 116
0 20 116
0 20 116
0 20 116
0 12 114
0 0 113
7 8 113
2 2 113
0 5 113
0 19 116
0 20 116
0 20 116
0 20 116
0 20 116
0 20 116
0 20 116
0 20 116
0 20 116
7 19 116
13 14 116
13 14 116
13 14 116
13 14 116
12 13 116
0 0 115
0 16 116
0 19 116
0 20 116
0 20 116
0 20 116
0 20 116
0 20 116
0 20 116
0 20 116
0 20 116
0 20 116
0 20 116
0 20 116
0 20 116
0 20 116
0 20 116
0 20 116
0 20 116
0 20 116
0 20 116
0 20 116
0 20 116
0 20 116
0 20 116
0 20 116
0 20 116
0 20 116
0 16 115
0 16 115
0 20 116
0 20 116
0 16 115
0 13 115
9 4 112
5 6 111
0 0 113
0 0 114
11 12 116
12 15 117
9 17 117
0 20 114
0 20 116
0 14 118
4 15 118
3 20 117
13 20 116
12 22 117
0 11 115
0 19 116
0 22 117
0 21 115
0 26 115
0 15 115
0 20 116
0 17 116
1 16 115
6 17 119
3 18 118
0 20 117
0 20 116
0 20 116
0 20 116
0 20 116
0 20 116
10 26 120
6 27 116
12 29 123
6 25 125
0 28 114
5 34 123
10 32 125
10 33 125
6 32 125
11 38 122
7 28 127
11 32 111
17 30 123
18 33 122
25 30 127
68 93 122
119 150 109
123 160 136
121 138 97
99 121 57
97 122 41
106 135 64
96 128 47
105 130 66
116 133 78
132 148 110
121 137 87
119 144 82
112 139 67
115 127 73
118 134 82
120 137 83
124 141 90
127 141 92
128 141 94
126 138 89
99 125 57
86 114 31
100 126 61
93 119 42
102 126 63
110 135 75
103 129 63
96 122 46
95 121 44
83 111 22
89 112 38
96 118 53
93 117 48
88 118 53
86 115 59
96 121 60
91 127 65
107 130 54
88 149 122
62 122 144
57 125 144
57 139 163
51 139 150
50 137 173
28 115 173
16 88 156
21 51 135
9 42 126
6 24 120
2 21 116
12 25 117
12 25 117
7 22 117
0 0 113
0 0 113
0 0 113
0 0 113
0 0 113
0 0 113
0 0 113
0 0 113
0 0 113
0 0 113
0 0 113
0 0 113
0 0 113
0 0 113
0 0 113
0 0 113
0 0 113
0 0 113
0 0 113
10 10 113
11 14 116
0 4 115
0 13 114
6 21 116
9 11 115
16 19 113
218 232 252
220 235 255
220 235 255
220 235 255
220 235 255
220 235 255
220 235 255
220 235 255
220 235 255
220 235 255
220 235 255
220 235 255
220 235 255
220 235 255
220 235 255
220 235 255
220 235 255
220 235 255
220 235 255
220 235 255
220 235 255
220 235 255
220 235 255
220 235 255
220 235 255
220 235 255
220 235 255
220 235 255
220 235 255
220 235 255
220 235 255
220 235 255
220 235 255
220 235 255
220 235 255
220 235 255
220 235 255
220 235 255
220 235 255
220 235 255
220 235 255
220 235 255
220 235 255
220 235 255
220 235 255
220 235 255
220 235 255
220 235 255
220 235 255
220 235 255
220 235 255
220 235 255
220 235 255
220 235 255
220 235 255
220 235 255
220 235 255
220 235 255
220 235 255
220 235 255
220 235 255
220 235 255
220 235 255
220 235 255
220 235 255
220 235 255
220 235 255
220 235 255
220 235 255
220 235 255
220 235 255
220 235 255
220 235 255
220 235 255
220 235 255
220 235 255
220 235 255
220 235 255
220 235 255
220 235 255
220 235 255
220 235 255
220 235 255
220 235 255
220 235 255
220 235 255
220 235 255
220 235 255
220 235 255
220 235 255
220 235 255
220 235 255
220 235 255
221 235 255
221 235 255
221 235 255
221 235 255
221 235 255
221 235 255
221 235 255
221 235 255
221 235 255
221 235 255
221 235 255
221 235 255
221 235 255
221 235 255
221 235 255
221 235 255
221 235 255
221 235 255
221 235 255
221 235 255
221 235 255
221 235 255
221 235 255
221 235 255
221 235 255
221 235 255
221 235 255
221 235 255
221 235 255
221 235 255
221 235 255
221 235 255
221 235 255
221 235 255
221 235 255
221 235 255
221 235 255
221 235 255
221 235 255
221 235 255
221 235 255
221 235 255
221 235 255
221 235 255
221 235 255
221 235 255
221 235 255
221 235 255
221 235 255
221 235 255
221 235 255
221 235 255
221 235 255
221 235 255
221 235 255
221 235 255
221 235 255
221 235 255
221 235 255
221 235 255
221 235 255
221 235 255
221 235 255
221 235 255
221 235 255
221 235 255
221 235 255
221 235 255
221 235 255
221 235 255
221 235 255
221 235 255
221 235 255
221 235 255
221 235 255
221 235 255
221 235 255
221 235 255
221 235 255
221 235 255
221 235 255
221 235 255
221 235 255
221 235 255
221 235 255
221 235 255
221 235 255
221 235 255
221 235 255
221 235 255
221 235 255
221 235 255
209 223 245
4 19 116
0 22 118
0 24 119
0 20 116
5 21 116
9 18 116
0 20 116
0 20 116
0 20 116
0 20 116
6 21 116
0 20 116
9 18 115
4 20 115
7 23 119
5 21 118
0 18 116
2 20 116
10 23 117
0 20 116
0 20 116
0 20 116
0 20 116
0 20 116
0 20 116
0 20 116
0 21 116
0 20 116
0 20 115
0 19 115
0 19 116
0 20 116
0 20 116
0 19 116
0 16 115
1 14 115
8 9 115
3 3 114
0 11 114
0 19 116
0 20 116
0 20 116
0 20 116
0 20 115
0 20 116
0 20 116
0 20 116
0 20 116
9 18 116
13 14 116
13 14 116
7 8 115
6 6 115
5 11 116
0 18 116
0 19 116
0 20 116
0 20 116
0 20 116
0 20 116
0 20 116
0 20 116
0 20 116
0 20 116
0 20 116
0 20 116
0 20 116
0 20 116
0 20 116
0 20 116
0 20 116
0 20 116
0 20 116
0 20 116
0 20 116
0 20 116
0 20 116
0 20 116
0 20 116
0 20 116
0 20 116
0 20 116
5 14 114
1 3 113
0 5 113
0 4 113
0 3 113
3 4 113
4 11 114
2 14 115
0 14 115
0 18 116
1 20 116
1 20 116
1 20 116
0 20 116
0 20 116
0 20 116
0 20 116
0 20 116
0 19 116
0 15 115
0 19 116
0 20 116
6 19 116
11 16 116
11 14 116
0 20 116
0 20 116
0 20 116
0 20 116
0 20 116
0 20 116
0 20 116
0 20 116
0 20 116
0 20 116
0 20 116
0 16 115
9 21 116
5 20 116
16 17 118
20 24 120
13 27 120
13 36 124
16 39 125
13 36 125
11 34 125
2 32 124
0 31 123
2 30 122
5 33 122
18 29 127
22 50 124
95 123 137
127 156 107
123 158 117
112 142 84
106 129 64
101 122 59
105 131 59
104 132 72
129 145 109
131 145 104
125 144 96
118 141 86
115 141 84
115 138 77
118 135 76
123 140 91
125 141 93
126 140 90
132 142 96
130 139 92
117 128 74
86 114 24
88 117 35
90 119 46
89 118 38
94 122 40
100 127 51
99 126 51
99 125 45
93 118 39
93 114 42
98 112 39
108 123 62
93 117 44
89 120 58
88 118 52
94 120 50
94 122 58
98 123 54
90 123 40
85 123 60
83 125 79
87 121 65
84 117 39
87 129 92
72 130 127
58 124 157
15 86 155
22 56 136
10 50 129
10 27 120
15 22 116
8 29 117
0 25 119
0 9 114
0 0 114
0 0 113
0 0 113
0 0 113
0 0 113
0 0 113
0 0 113
0 0 113
0 0 113
0 0 113
0 0 113
0 0 113
0 0 113
0 0 113
0 0 113
0 0 113
0 0 113
0 0 113
11 12 114
5 19 116
0 14 115
0 13 114
0 20 116
8 11 115
4 3 112
202 216 238
221 235 255
221 235 255
221 235 255
221 235 255
221 235 255
221 235 255
221 235 255
221 235 255
221 235 255
221 235 255
221 235 255
221 235 255
221 235 255
221 235 255
221 235 255
221 235 255
221 235 255
221 235 255
221 235 255
221 235 255
221 235 255
221 235 255
221 235 255
221 235 255
221 235 255
221 235 255
221 235 255
221 235 255
221 235 255
221 235 255
221 235 255
221 235 255
221 235 255
221 235 255
221 235 255
221 235 255
221 235 255
221 235 255
221 235 255
221 235 255
221 235 255
221 235 255
221 235 255
221 235 255
221 235 255
221 235 255
221 235 255
221 235 255
221 235 255
221 235 255
221 235 255
221 235 255
221 235 255
221 235 255
221 235 255
221 235 255
221 235 255
221 235 255
221 235 255
221 235 255
221 235 255
221 235 255
221 235 255
221 235 255
221 235 255
221 235 255
221 235 255
221 235 255
221 235 255
221 235 255
221 235 255
221 235 255
221 235 255
221 235 255
221 235 255
221 235 255
221 235 255
221 235 255
221 235 255
221 235 255
221 235 255
221 235 255
221 235 255
221 235 255
221 235 255
221 235 255
221 235 255
221 235 255
221 235 255
221 235 255
221 235 255
221 235 255
221 235 255
221 235 255
221 235 255
221 235 255
221 235 255
221 235 255
221 235 255
221 235 255
221 235 255
221 235 255
221 235 255
221 235 255
221 235 255
221 235 255
221 235 255
221 235 255
221 235 255
221 235 255
221 235 255
221 235 255
221 235 255
221 235 255
221 235 255
221 235 255
221 235 255
221 235 255
221 235 255
221 235 255
221 235 255
221 235 255
221 235 255
221 235 255
221 235 255
221 235 255
221 235 255
221 235 255
221 235 255
221 235 255
221 235 255
221 235 255
221 235 255
221 235 255
221 235 255
221 235 255
221 235 255
221 235 255
221 235 255
221 235 255
221 235 255
221 235 255
221 235 255
221 235 255
221 235 255
221 235 255
221 235 255
221 235 255
221 235 255
221 235 255
221 235 255
221 235 255
221 235 255
221 235 255
221 235 255
221 235 255
221 235 255
221 235 255
221 235 255
221 235 255
221 235 255
221 235 255
221 235 255
221 235 255
221 235 255
221 235 255
221 235 255
221 235 255
221 235 255
221 235 255
221 235 255
221 235 255
221 235 255
221 235 255
221 235 255
221 235 255
221 235 255
221 235 255
221 235 255
221 235 255
221 235 255
221 235 255
221 235 255
221 235 255
190 202 228
1 20 116
0 23 118
0 23 118
0 20 116
2 20 116
3 20 116
0 20 116
0 20 116
0 20 116
0 20 116
0 20 116
0 20 116
0 20 116
0 20 116
0 20 116
0 20 116
0 20 116
0 20 116
0 20 116
0 20 116
0 20 116
0 20 116
0 20 116
0 20 116
0 20 116
0 20 116
0 20 116
0 20 116
0 20 116
0 19 116
0 19 116
0 20 116
0 20 116
0 20 116
0 20 116
0 19 116
0 0 115
0 0 115
0 16 115
0 20 116
0 20 116
0 20 116
0 20 116
0 20 116
0 20 116
0 20 116
0 20 116
0 20 116
9 17 116
13 14 116
13 14 116
3 4 115
0 0 115
0 12 115
0 20 116
0 20 116
0 20 116
0 20 116
0 20 116
0 20 116
0 20 116
0 20 116
0 20 116
0 20 116
0 20 116
0 20 116
0 20 116
0 20 116
0 20 116
0 20 116
0 20 116
0 20 116
0 20 116
0 20 116
0 20 116
0 20 116
0 20 116
0 20 116
0 20 116
0 20 116
0 20 116
0 20 116
11 16 115
3 3 114
0 0 114
0 0 114
0 0 114
8 9 114
7 14 115
0 14 115
0 15 115
0 19 116
0 20 116
0 20 116
0 20 116
0 20 116
0 20 116
0 20 116
0 20 116
0 20 116
0 20 116
0 20 116
0 20 116
0 20 116
0 20 116
0 20 116
0 18 116
0 20 116
0 20 116
0 20 116
0 20 116
0 20 116
0 20 116
7 22 117
0 20 116
0 20 116
0 20 116
0 20 116
0 20 116
0 20 116
0 16 115
9 10 116
14 18 118
6 16 118
5 29 120
12 35 123
10 34 124
0 33 124
0 31 123
0 32 124
0 32 124
0 34 124
25 27 131
21 46 128
80 115 148
130 159 118
119 149 107
108 137 73
112 134 78
112 133 79
109 132 67
123 143 97
134 151 115
122 141 88
116 140 83
117 140 81
117 138 76
121 141 85
126 141 87
130 143 96
130 143 100
131 145 100
130 146 102
122 139 86
103 122 53
93 120 43
90 117 42
81 111 23
84 112 21
97 124 48
100 126 59
95 120 42
91 119 36
90 117 44
87 112 40
98 116 50
118 129 76
120 128 78
110 121 63
104 124 65
94 120 56
99 125 61
93 120 45
85 115 24
80 112 16
85 114 18
84 111 36
76 104 29
84 112 36
87 119 56
86 122 79
55 146 176
28 92 161
7 60 134
15 42 127
9 15 116
13 21 114
21 21 117
8 15 116
0 3 115
0 0 113
0 0 113
0 0 113
0 0 113
0 0 113
0 0 113
0 0 113
0 0 113
0 0 113
0 0 113
0 0 113
0 0 112
0 0 113
0 0 113
0 0 113
0 0 113
0 0 114
4 4 115
11 14 116
10 15 116
0 18 116
0 20 116
7 15 116
7 9 114
195 208 232
221 235 255
221 235 255
221 235 255
221 235 255
221 235 255
221 235 255
221 235 255
221 235 255
221 235 255
221 235 255
221 235 255
221 235 255
221 235 255
221 235 255
221 235 255
221 235 255
221 235 255
221 235 255
221 235 255
221 235 255
221 235 255
221 235 255
221 235 255
221 235 255
221 235 255
221 235 255
221 235 255
221 235 255
221 235 255
221 235 255
221 235 255
221 235 255
221 235 255
221 235 255
221 235 255
221 235 255
221 235 255
221 235 255
221 235 255
221 235 255
221 235 255
221 235 255
221 235 255
221 235 255
221 235 255
221 235 255
221 235 255
221 235 255
221 235 255
221 235 255
221 235 255
221 235 255
221 235 255
221 235 255
221 235 255
221 235 255
221 235 255
221 235 255
221 235 255
221 235 255
221 235 255
221 235 255
221 235 255
221 235 255
221 235 255
221 235 255
221 235 255
221 235 255
221 235 255
221 235 255
221 235 255
221 235 255
221 235 255
221 235 255
221 235 255
221 235 255
221 235 255
221 235 255
221 235 255
221 235 255
221 235 255
221 235 255
221 235 255
221 235 255
221 235 255
221 235 255
221 235 255
221 235 255
221 235 255
221 235 255
221 235 255
221 235 255
221 235 255
221 235 255
221 235 255
221 235 255
221 235 255
221 235 255
221 235 255
221 235 255
221 235 255
221 235 255
221 235 255
221 235 255
221 235 255
221 235 255
221 235 255
221 235 255
221 235 255
221 235 255
221 235 255
221 235 255
221 235 255
221 235 255
221 235 255
221 235 255
221 235 255
221 235 255
221 235 255
221 235 255
221 235 255
221 235 255
221 235 255
221 235 255
221 235 255
221 235 255
221 235 255
221 235 255
221 235 255
221 235 255
221 235 255
221 235 255
221 235 255
221 235 255
221 235 255
221 235 255
221 235 255
221 235 255
221 235 255
221 235 255
221 235 255
221 235 255
221 235 255
221 235 255
221 235 255
221 235 255
221 235 255
221 235 255
221 235 255
221 235 255
221 235 255
221 235 255
221 235 255
221 235 255
221 235 255
221 235 255
221 235 255
221 235 255
221 235 255
221 235 255
221 235 255
221 235 255
221 235 255
221 235 255
221 235 255
221 235 255
221 235 255
221 235 255
221 235 255
221 235 255
221 235 255
221 235 255
221 235 255
221 235 255
221 235 255
221 235 255
221 235 255
221 235 255
221 235 255
221 235 255
221 235 255
221 235 255
221 235 255
221 235 255
168 179 209
0 20 116
0 21 118
0 23 118
0 20 116
0 20 116
0 20 116
0 20 116
0 20 116
0 20 116
0 20 116
0 20 116
0 20 116
0 20 116
0 20 116
0 20 116
0 20 116
0 20 116
0 20 116
0 20 116
0 20 116
0 20 116
0 20 116
0 20 116
0 20 116
0 20 116
0 20 116
0 20 116
0 20 116
0 20 116
0 20 116
0 20 116
0 20 116
0 20 116
0 20 116
0 20 116
0 18 116
0 0 115
0 0 115
0 16 115
0 20 116
0 20 116
0 20 116
0 20 116
0 20 116
0 20 116
0 20 116
0 20 116
0 20 116
9 17 116
13 14 116
13 14 116
2 3 115
0 0 115
0 12 116
0 20 116
0 20 116
0 20 116
0 20 116
0 20 116
0 20 116
0 20 116
0 20 116
0 20 116
0 20 116
0 20 116
0 20 116
0 20 116
0 20 116
0 20 116
0 20 116
0 20 116
0 20 116
0 20 116
0 20 116
0 20 116
0 20 116
0 21 116
0 20 116
0 20 116
0 20 116
0 20 116
0 20 116
10 17 116
9 10 116
0 0 115
0 0 115
4 4 115
12 13 116
8 14 116
0 14 115
0 19 116
0 20 116
0 20 116
0 20 116
0 20 116
0 20 116
0 20 116
0 20 116
0 20 116
0 20 116
0 19 118
0 16 118
0 17 118
0 17 117
0 20 116
0 20 116
0 20 116
0 20 116
0 20 116
0 20 116
0 20 116
0 20 116
0 20 116
12 19 115
9 18 115
0 20 116
0 20 116
0 20 116
0 17 116
0 19 116
9 21 116
11 21 117
10 19 118
0 12 118
2 19 119
9 28 121
10 30 122
11 30 122
9 29 121
10 30 122
10 31 122
13 36 125
29 30 125
22 38 127
84 128 147
123 155 103
125 148 103
113 139 74
119 139 87
116 139 87
117 135 79
131 145 103
131 149 108
118 142 82
116 141 74
119 139 76
120 137 74
127 143 86
129 146 91
129 144 96
125 140 93
123 139 88
118 137 85
105 128 65
94 120 36
92 117 40
89 115 41
83 111 26
91 117 46
94 119 47
97 121 57
95 118 49
92 117 47
87 114 35
84 111 29
88 116 43
106 123 61
132 137 92
139 145 102
113 131 70
99 129 66
98 126 58
88 119 37
84 115 30
82 113 25
85 114 26
86 113 43
71 100 41
86 116 46
87 118 29
86 116 41
93 131 85
60 157 181
31 88 157
18 48 132
0 27 119
17 18 115
18 17 114
11 20 116
9 12 116
1 1 113
0 0 113
0 0 113
0 0 113
0 0 113
0 0 113
0 0 113
0 0 113
0 0 113
0 0 113
0 0 113
0 0 113
0 0 113
0 0 113
0 0 113
0 0 113
0 0 114
0 0 115
11 11 116
13 14 116
3 20 116
0 20 116
3 20 116
5 14 115
172 184 212
221 235 255
221 235 255
221 235 255
221 235 255
221 235 255
221 235 255
221 235 255
221 235 255
221 235 255
221 235 255
221 235 255
221 235 255
221 235 255
221 235 255
221 235 255
221 235 255
221 235 255
221 235 255
221 235 255
221 235 255
221 235 255
221 235 255
221 235 255
221 235 255
221 235 255
221 235 255
221 235 255
221 235 255
221 235 255
221 235 255
221 235 255
221 235 255
221 235 255
221 235 255
221 235 255
221 235 255
221 235 255
221 235 255
221 235 255
221 235 255
221 235 255
221 235 255
221 235 255
221 235 255
221 235 255
221 235 255
221 235 255
221 235 255
221 235 255
221 235 255
221 235 255
221 235 255
221 235 255
221 235 255
221 235 255
221 235 255
221 235 255
221 235 255
221 235 255
221 235 255
221 235 255
221 235 255
221 235 255
221 235 255
221 235 255
221 235 255
221 235 255
221 235 255
221 235 255
221 235 255
221 235 255
221 235 255
221 235 255
221 235 255
221 235 255
221 235 255
221 235 255
221 235 255
221 235 255
221 235 255
221 235 255
221 235 255
221 235 255
221 235 255
221 235 255
221 235 255
221 235 255
221 235 255
221 235 255
221 235 255
221 235 255
221 235 255
221 235 255
221 235 255
221 235 255
221 235 255
221 235 255
221 235 255
221 235 255
221 235 255
221 235 255
221 235 255
221 235 255
221 235 255
221 235 255
221 235 255
221 235 255
221 235 255
221 235 255
221 235 255
221 235 255
221 235 255
221 235 255
221 235 255
221 235 255
221 235 255
221 235 255
221 235 255
221 235 255
221 235 255
221 235 255
221 235 255
221 235 255
221 235 255
221 235 255
221 235 255
221 235 255
221 235 255
221 235 255
221 235 255
221 235 255
221 235 255
221 235 255
221 235 255
221 235 255
221 235 255
221 235 255
221 235 255
221 235 255
221 235 255
221 235 255
221 235 255
221 235 255
221 235 255
221 235 255
221 235 255
221 235 255
221 235 255
221 235 255
221 235 255
221 235 255
221 235 255
221 235 255
221 235 255
221 235 255
221 235 255
221 235 255
221 235 255
221 235 255
221 235 255
221 235 255
221 235 255
221 235 255
221 235 255
221 235 255
221 235 255
221 235 255
221 235 255
221 235 255
221 235 255
221 235 255
221 235 255
221 235 255
221 235 255
221 235 255
221 235 255
221 235 255
221 235 255
221 235 255
221 235 255
221 235 255
221 235 255
221 235 255
221 235 255
169 181 210
0 20 116
0 20 117
0 22 117
0 20 116
0 20 116
0 18 116
0 20 116
0 20 116
0 20 116
0 20 116
0 20 116
0 20 116
0 20 116
0 20 116
0 20 116
0 20 116
0 20 116
0 20 116
0 20 116
0 20 116
0 20 116
0 20 116
0 20 116
0 20 116
0 20 116
0 20 116
0 20 116
0 20 116
0 20 116
0 20 116
0 20 116
0 20 116
0 20 116
0 20 116
0 20 116
0 18 116
0 0 115
0 0 115
0 14 115
0 13 116
0 12 116
0 12 116
0 13 116
0 18 116
0 20 116
0 20 116
0 20 116
0 20 116
11 16 116
13 14 116
13 14 116
1 1 115
0 0 115
0 12 116
0 20 116
0 20 116
0 20 116
0 20 116
0 20 116
0 20 116
0 20 116
0 20 116
0 20 116
0 20 116
0 20 116
0 20 116
0 20 116
0 20 116
0 20 116
0 20 116
0 20 116
0 20 116
0 20 116
0 20 116
0 20 116
0 20 116
0 20 116
0 20 116
0 20 116
0 20 116
0 20 116
0 20 116
5 19 116
5 18 116
0 13 115
0 13 115
1 15 115
4 20 116
2 20 116
0 20 116
0 20 116
0 20 116
0 20 116
0 20 116
0 20 116
0 20 116
0 20 116
0 21 116
0 21 117
0 21 118
3 20 119
0 16 119
0 16 119
5 17 119
12 22 118
9 25 117
6 25 117
0 20 116
0 20 116
0 20 116
0 20 116
0 20 116
0 20 116
3 17 115
4 15 115
0 18 116
0 20 116
0 21 118
0 20 118
0 23 119
11 28 120
13 28 120
10 27 120
0 18 119
3 15 118
3 20 119
5 25 120
4 22 119
4 23 119
5 25 120
11 28 120
12 31 122
31 26 117
17 37 136
81 126 151
116 146 101
127 147 102
120 141 82
125 142 92
118 139 83
129 143 97
133 145 101
124 143 91
120 145 87
125 144 83
126 141 79
124 139 75
122 140 78
119 142 78
114 136 74
108 129 69
110 131 69
102 125 61
96 120 46
94 119 41
96 119 47
92 116 43
83 109 17
88 114 43
95 118 52
95 119 47
94 118 43
96 121 49
88 115 34
89 118 36
87 117 36
103 125 60
128 139 82
130 141 88
118 138 82
102 131 67
103 131 66
92 122 42
86 117 30
80 112 28
87 116 40
91 117 54
87 116 45
90 120 41
89 119 37
87 114 54
91 119 36
89 135 93
56 145 164
26 57 138
8 34 125
19 29 121
0 28 115
0 24 116
12 15 116
4 4 113
0 0 113
0 0 113
0 0 113
0 0 113
0 0 113
0 0 113
0 0 113
0 0 113
0 0 113
0 0 113
0 0 113
0 0 113
1 1 113
4 4 113
0 0 113
0 0 114
0 0 115
10 10 116
13 14 116
5 20 116
0 20 116
0 20 116
0 16 115
157 168 199
221 235 255
221 235 255
221 235 255
221 235 255
221 235 255
221 235 255
221 235 255
221 235 255
221 235 255
221 235 255
221 235 255
221 235 255
221 235 255
221 235 255
221 235 255
221 235 255
221 235 255
221 235 255
221 235 255
221 235 255
221 235 255
221 235 255
221 235 255
221 235 255
221 235 255
221 235 255
221 235 255
221 235 255
221 235 255
221 235 255
221 235 255
221 235 255
221 235 255
221 235 255
221 235 255
221 235 255
221 235 255
221 235 255
221 235 255
221 235 255
221 235 255
221 235 255
221 235 255
221 235 255
221 235 255
221 235 255
221 235 255
221 235 255
221 235 255
221 235 255
221 235 255
221 235 255
221 235 255
221 235 255
221 235 255
221 235 255
221 235 255
221 235 255
221 235 255
221 235 255
221 235 255
221 235 255
221 235 255
221 235 255
221 235 255
221 235 255
221 235 255
221 235 255
221 235 255
221 235 255
221 235 255
221 235 255
221 235 255
221 235 255
221 235 255
221 235 255
221 235 255
221 235 255
221 235 255
221 235 255
221 235 255
221 235 255
221 235 255
221 235 255
221 235 255
221 235 255
221 235 255
221 235 255
221 235 255
221 235 255
221 235 255
221 235 255
221 235 255
221 235 255
221 235 255
221 235 255
221 235 255
221 235 255
221 235 255
221 235 255
221 235 255
221 235 255
221 235 255
221 235 255
221 235 255
221 235 255
221 235 255
221 235 255
221 235 255
221 235 255
221 235 255
221 235 255
221 235 255
221 235 255
221 235 255
221 235 255
221 235 255
221 235 255
221 235 255
221 235 255
221 235 255
221 235 255
221 235 255
221 235 255
221 235 255
221 235 255
221 235 255
221 235 255
221 235 255
221 235 255
221 235 255
221 235 255
221 235 255
221 235 255
221 235 255
221 235 255
221 235 255
221 235 255
221 235 255
221 235 255
221 235 255
221 235 255
221 235 255
221 235 255
221 235 255
221 235 255
221 235 255
221 235 255
221 235 255
221 235 255
221 235 255
221 235 255
221 235 255
221 235 255
221 235 255
221 235 255
221 235 255
221 235 255
221 235 255
221 235 255
221 235 255
221 235 255
221 235 255
221 235 255
221 235 255
221 235 255
221 235 255
221 235 255
221 235 255
221 235 255
221 235 255
221 235 255
221 235 255
221 235 255
221 235 255
221 235 255
221 235 255
221 235 255
221 235 255
221 235 255
221 235 255
221 235 255
221 235 255
221 235 255
156 167 198
0 20 116
0 20 116
0 20 116
0 20 116
0 18 116
0 17 115
0 20 116
0 20 116
0 20 116
0 20 116
0 20 116
0 20 116
0 20 116
0 20 116
0 20 116
0 20 116
0 20 116
0 20 116
0 20 116
0 20 116
0 20 116
0 20 116
0 20 116
0 20 116
0 20 116
0 20 116
0 20 116
0 20 116
0 20 116
0 20 116
0 20 116
0 20 116
0 20 116
0 20 116
0 20 116
0 17 116
0 0 115
0 0 115
0 11 115
0 0 115
0 0 115
0 0 115
0 0 115
0 15 116
0 19 116
0 19 116
0 19 116
0 19 116
3 12 116
5 5 115
4 5 115
13 14 116
13 14 116
10 17 116
0 20 116
0 20 116
0 20 116
0 20 116
0 20 116
0 20 116
0 20 116
0 20 116
0 20 116
0 20 116
0 20 116
0 20 116
0 20 116
0 20 116
0 20 116
0 20 116
0 20 116
0 20 116
0 20 116
0 20 116
0 20 116
0 20 116
0 20 116
0 20 116
0 20 116
0 20 116
0 20 116
0 20 116
0 20 116
0 20 116
0 18 116
0 14 115
0 20 116
0 21 116
0 20 116
0 20 116
0 20 116
0 20 116
0 20 116
0 20 116
0 18 116
0 19 116
1 20 116
6 23 117
5 26 120
3 26 120
9 30 122
0 27 122
0 27 121
8 26 120
13 22 119
14 24 117
18 26 118
0 20 116
0 20 116
0 20 116
0 20 116
0 20 116
0 20 116
0 21 117
0 22 117
0 22 118
0 23 120
0 28 121
0 30 123
0 30 123
6 34 124
7 35 125
0 31 123
0 28 121
11 23 120
7 19 119
0 22 119
0 21 118
0 20 118
0 23 119
0 25 119
0 24 121
10 16 118
8 42 130
57 101 150
115 143 116
120 143 73
122 137 103
122 137 86
123 139 86
127 143 104
128 146 99
123 145 82
120 142 82
122 138 79
122 139 80
120 138 77
109 132 57
98 126 38
99 127 52
100 126 53
101 127 61
96 122 49
94 118 46
99 121 54
94 118 41
87 113 26
92 118 46
94 119 47
88 112 44
96 121 56
92 118 38
92 118 39
93 120 36
94 123 39
97 124 44
118 135 78
134 144 94
140 148 104
131 143 96
106 126 60
105 132 70
98 125 55
88 117 37
80 111 19
87 114 38
88 115 51
91 120 22
86 116 14
88 116 40
89 117 46
98 118 44
94 116 57
69 134 123
26 78 149
17 63 140
27 40 129
18 17 115
0 20 114
9 15 116
2 2 113
0 0 113
0 0 113
0 0 113
0 0 113
0 0 113
0 0 113
0 0 113
0 0 113
0 0 113
0 0 113
0 0 114
0 0 115
8 9 116
12 13 116
2 2 115
0 0 115
0 0 115
9 10 116
13 14 116
5 19 116
0 20 116
0 20 116
0 16 115
162 173 203
221 235 255
221 235 255
221 235 255
221 235 255
221 235 255
221 235 255
221 235 255
221 235 255
221 235 255
221 235 255
221 235 255
221 235 255
221 235 255
221 235 255
221 235 255
221 235 255
221 235 255
221 235 255
221 235 255
221 235 255
221 235 255
221 235 255
221 235 255
221 235 255
221 235 255
221 235 255
221 235 255
221 235 255
221 235 255
221 235 255
221 235 255
221 235 255
221 235 255
221 235 255
221 235 255
221 235 255
221 235 255
221 235 255
221 235 255
221 235 255
221 235 255
221 235 255
221 235 255
221 235 255
221 235 255
221 235 255
221 235 255
221 235 255
221 235 255
221 235 255
221 235 255
221 235 255
221 235 255
221 235 255
221 235 255
221 235 255
221 235 255
221 235 255
221 235 255
221 235 255
221 235 255
221 235 255
221 235 255
221 235 255
221 235 255
221 235 255
221 235 255
221 235 255
221 235 255
221 235 255
221 235 255
221 235 255
221 235 255
221 235 255
221 235 255
221 235 255
221 235 255
221 235 255
221 235 255
221 235 255
221 235 255
221 235 255
221 235 255
221 235 255
221 235 255
221 235 255
221 235 255
221 235 255
221 235 255
221 235 255
221 235 255
221 235 255
221 235 255
221 235 255
221 235 255
221 235 255
221 235 255
221 235 255
221 235 255
221 235 255
221 235 255
221 235 255
221 235 255
221 235 255
221 235 255
221 235 255
221 235 255
221 235 255
221 235 255
221 235 255
221 235 255
221 235 255
221 235 255
221 235 255
221 235 255
221 235 255
221 235 255
221 235 255
221 235 255
221 235 255
221 235 255
221 235 255
221 235 255
221 235 255
221 235 255
221 235 255
221 235 255
221 235 255
221 235 255
221 235 255
221 235 255
221 235 255
221 235 255
221 235 255
221 235 255
221 235 255
221 235 255
221 235 255
221 235 255
221 235 255
221 235 255
221 235 255
221 235 255
221 235 255
221 235 255
221 235 255
221 235 255
221 235 255
221 235 255
221 235 255
221 235 255
221 235 255
221 235 255
221 235 255
221 235 255
221 235 255
221 235 255
221 235 255
221 235 255
221 235 255
221 235 255
221 235 255
221 235 255
221 235 255
221 235 255
221 235 255
221 235 255
221 235 255
221 235 255
221 235 255
221 235 255
221 235 255
221 235 255
221 235 255
221 235 255
221 235 255
221 235 255
221 235 255
221 235 255
221 235 255
221 235 255
221 235 255
221 235 255
221 235 255
139 149 185
0 20 116
0 20 116
0 20 116
0 20 116
0 18 116
0 19 116
0 20 116
0 20 116
0 20 116
0 20 116
0 20 116
0 20 116
0 20 116
0 20 116
0 20 116
0 20 116
0 20 116
0 20 116
0 20 116
0 20 116
0 20 116
0 20 116
0 20 116
0 20 116
0 20 116
0 17 115
0 4 113
6 7 113
12 13 114
11 16 115
0 20 116
0 19 116
0 20 116
0 20 116
0 20 116
0 16 116
0 0 115
0 2 115
0 11 114
0 0 113
0 0 113
0 0 113
0 0 113
0 0 114
0 0 115
0 0 115
0 0 115
0 0 115
0 0 115
0 0 115
3 3 115
13 14 116
13 14 116
10 17 116
0 20 116
0 20 116
0 20 116
0 20 116
0 20 116
0 20 116
0 20 116
0 20 116
0 20 116
0 20 116
0 20 116
0 20 116
0 20 116
0 20 116
0 20 116
0 20 116
0 20 116
0 20 116
0 20 116
0 20 116
0 20 116
0 20 116
0 20 116
0 20 116
0 20 116
0 20 116
0 21 116
0 20 116
0 20 116
0 20 116
0 19 116
0 18 116
0 20 116
0 20 116
0 20 116
0 20 116
0 20 116
0 20 116
0 20 116
0 20 116
0 18 116
0 17 115
5 21 116
10 26 119
12 28 120
5 31 123
4 33 124
9 37 125
7 34 124
13 29 121
12 21 118
14 20 117
16 17 117
0 20 116
0 20 116
0 20 116
0 20 116
0 20 116
0 20 116
8 25 119
9 28 120
0 30 122
0 33 124
9 38 125
8 39 126
0 37 127
8 41 128
12 43 128
0 40 126
11 36 125
17 31 124
14 23 121
0 25 119
0 24 119
0 23 119
0 24 119
0 25 119
0 27 119
10 30 125
31 60 146
87 125 121
120 147 105
111 136 69
123 135 99
123 138 91
129 143 97
122 139 96
106 132 70
114 140 71
121 140 80
117 138 78
113 137 79
107 132 62
96 122 34
97 122 40
104 126 54
99 123 52
100 125 60
94 120 50
96 121 56
99 124 59
92 118 27
91 117 32
90 118 42
88 116 43
81 107 23
93 119 50
94 120 52
96 121 55
93 119 40
94 123 41
98 127 35
115 137 65
142 151 108
142 149 112
121 135 82
103 128 64
104 129 68
99 125 59
95 121 48
83 111 23
89 115 38
88 113 44
93 118 48
95 121 47
90 116 43
86 116 51
94 115 55
99 119 34
90 145 139
42 143 185
38 125 174
10 66 139
22 20 118
15 18 115
2 9 115
0 0 113
0 0 113
0 0 113
0 0 113
0 0 113
0 0 113
0 0 113
0 0 113
0 0 113
0 0 113
0 0 113
0 7 114
0 12 115
6 16 116
12 15 116
8 9 116
0 0 115
0 0 115
10 10 116
14 14 116
7 19 116
0 20 116
0 20 116
0 15 115
138 147 182
221 235 255
221 235 255
221 235 255
221 235 255
221 235 255
221 235 255
221 235 255
221 235 255
221 235 255
221 235 255
221 235 255
221 235 255
221 235 255
221 235 255
221 235 255
221 235 255
221 235 255
221 235 255
221 235 255
221 235 255
221 235 255
221 235 255
221 235 255
221 235 255
221 235 255
221 235 255
221 235 255
221 235 255
221 235 255
221 235 255
221 235 255
221 235 255
221 235 255
221 235 255
221 235 255
221 235 255
221 235 255
221 235 255
221 235 255
221 235 255
221 235 255
221 235 255
221 235 255
221 235 255
221 235 255
221 235 255
221 235 255
221 235 255
221 235 255
221 235 255
221 235 255
221 235 255
221 235 255
221 235 255
221 235 255
221 235 255
221 235 255
221 235 255
221 235 255
221 235 255
221 235 255
221 235 255
221 235 255
221 235 255
221 235 255
221 235 255
221 235 255
221 235 255
221 235 255
221 235 255
221 235 255
221 235 255
221 235 255
221 235 255
221 235 255
221 235 255
221 235 255
221 235 255
221 235 255
221 235 255
221 235 255
221 235 255
221 235 255
221 235 255
221 235 255
221 235 255
221 235 255
221 235 255
221 235 255
221 235 255
221 235 255
221 235 255
221 235 255
221 235 255
221 235 255
221 235 255
221 235 255
221 235 255
221 235 255
221 235 255
221 235 255
221 235 255
221 235 255
221 235 255
221 235 255
221 235 255
221 235 255
221 235 255
221 235 255
221 235 255
221 235 255
221 235 255
221 235 255
221 235 255
221 235 255
221 235 255
221 235 255
221 235 255
221 235 255
221 235 255
221 235 255
221 235 255
221 235 255
221 235 255
221 235 255
221 235 255
221 235 255
221 235 255
221 235 255
221 235 255
221 235 255
221 235 255
221 235 255
221 235 255
221 235 255
221 235 255
221 235 255
221 235 255
221 235 255
221 235 255
221 235 255
221 235 255
221 235 255
221 235 255
221 235 255
221 235 255
221 235 255
221 235 255
221 235 255
221 235 255
221 235 255
221 235 255
221 235 255
221 235 255
221 235 255
221 235 255
221 235 255
221 235 255
221 235 255
221 235 255
221 235 255
221 235 255
221 235 255
221 235 255
221 235 255
221 235 255
221 235 255
221 235 255
221 235 255
221 235 255
221 235 255
221 235 255
221 235 255
221 235 255
221 235 255
221 235 255
221 235 255
221 235 255
221 235 255
221 235 255
221 235 255
221 235 255
221 235 255
221 235 255
121 130 170
0 20 116
2 20 116
4 21 116
7 22 117
8 22 117
0 20 116
0 20 116
0 20 116
0 20 116
0 20 116
0 20 116
0 20 116
0 20 116
0 20 116
0 20 116
6 19 116
7 17 116
0 16 116
0 19 116
0 20 116
0 20 116
3 20 116
8 17 116
0 15 116
0 13 116
0 12 115
0 0 113
0 0 113
6 6 113
10 13 114
9 17 116
9 15 116
8 16 116
0 14 116
0 15 115
0 11 114
0 0 114
0 2 115
0 6 114
0 0 114
0 0 114
0 0 114
0 0 114
7 8 115
10 10 116
10 11 116
10 11 116
10 11 116
6 7 115
0 0 115
3 3 115
7 8 115
13 13 116
9 18 116
0 20 116
0 20 116
0 20 116
0 20 116
0 20 116
0 20 116
0 20 116
0 20 116
0 20 116
0 20 116
0 20 116
0 20 116
0 20 116
0 20 116
0 20 116
0 20 116
0 20 116
0 20 116
0 20 116
0 20 116
0 20 116
0 20 116
0 20 116
0 20 116
0 20 116
0 20 116
0 20 116
0 20 116
0 20 116
0 20 116
0 20 116
0 20 116
0 20 116
0 20 116
0 20 116
0 20 116
0 20 116
0 20 116
0 20 116
0 20 116
0 20 115
0 19 116
10 20 118
10 23 120
6 26 120
3 27 120
8 33 122
16 43 127
14 40 126
6 29 122
6 24 119
5 23 117
5 20 116
0 20 116
0 20 116
0 18 116
0 17 115
0 20 116
0 20 116
7 21 119
12 30 122
0 32 124
8 35 125
14 41 127
16 43 127
8 40 127
14 43 128
21 46 129
18 44 128
12 39 126
11 38 126
18 40 125
14 35 124
15 33 126
19 26 126
19 23 122
31 21 134
31 41 120
64 92 133
90 127 135
114 143 107
113 135 69
108 127 68
129 141 95
124 141 105
122 139 96
105 128 72
97 125 48
101 127 44
102 127 51
108 133 64
105 131 56
100 127 49
99 125 42
97 122 43
100 124 49
98 122 45
96 121 46
97 122 51
96 122 49
93 120 42
89 118 30
92 119 33
88 117 29
88 115 30
81 109 17
86 114 38
94 120 56
97 121 59
97 120 44
95 122 43
96 127 40
108 135 55
131 149 97
123 135 80
126 141 89
117 135 80
100 125 61
98 123 56
92 117 37
89 115 32
87 111 27
90 113 39
91 115 49
93 120 52
91 117 42
90 118 41
96 120 53
92 121 29
84 134 97
52 168 193
57 174 204
26 116 163
19 49 133
6 15 116
0 13 114
5 6 113
7 7 114
0 3 113
0 0 113
0 0 113
0 0 113
0 0 113
0 0 113
0 0 112
0 0 113
0 0 113
0 8 114
0 12 115
0 17 115
10 14 115
8 9 115
0 0 115
0 0 115
8 8 115
13 14 116
6 17 116
1 20 116
2 20 116
0 7 115
127 135 174
221 235 255
221 235 255
221 235 255
221 235 255
221 235 255
221 235 255
221 235 255
221 235 255
221 235 255
221 235 255
221 235 255
221 235 255
221 235 255
221 235 255
221 235 255
221 235 255
221 235 255
221 235 255
221 235 255
221 235 255
221 235 255
221 235 255
221 235 255
221 235 255
221 235 255
221 235 255
221 235 255
221 235 255
221 235 255
221 235 255
221 235 255
221 235 255
221 235 255
221 235 255
221 235 255
221 235 255
221 235 255
221 235 255
221 235 255
221 235 255
221 235 255
221 235 255
221 235 255
221 235 255
221 235 255
221 235 255
221 235 255
221 235 255
221 235 255
221 235 255
221 235 255
221 235 255
221 235 255
221 235 255
221 235 255
221 235 255
221 235 255
221 235 255
221 235 255
221 235 255
221 235 255
221 235 255
221 235 255
221 235 255
221 235 255
221 235 255
221 235 255
221 235 255
221 235 255
221 235 255
221 235 255
221 235 255
221 235 255
221 235 255
221 235 255
221 235 255
221 235 255
221 235 255
221 235 255
221 235 255
221 235 255
221 235 255
221 235 255
221 235 255
221 235 255
221 235 255
221 235 255
221 235 255
221 235 255
221 235 255
221 235 255
221 235 255
221 235 255
221 235 255
221 235 255
221 235 255
221 235 255
221 235 255
221 235 255
221 235 255
221 235 255
221 235 255
221 235 255
221 235 255
221 235 255
221 235 255
221 235 255
221 235 255
221 235 255
221 235 255
221 235 255
221 235 255
221 235 255
221 235 255
221 235 255
221 235 255
221 235 255
221 235 255
221 235 255
221 235 255
221 235 255
221 235 255
221 235 255
221 235 255
221 235 255
221 235 255
221 235 255
221 235 255
221 235 255
221 235 255
221 235 255
221 235 255
221 235 255
221 235 255
221 235 255
221 235 255
221 235 255
221 235 255
221 235 255
221 235 255
221 235 255
221 235 255
221 235 255
221 235 255
221 235 255
221 235 255
221 235 255
221 235 255
221 235 255
221 235 255
221 235 255
221 235 255
221 235 255
221 235 255
221 235 255
221 235 255
221 235 255
221 235 255
221 235 255
221 235 255
221 235 255
221 235 255
221 235 255
221 235 255
221 235 255
221 235 255
221 235 255
221 235 255
221 235 255
221 235 255
221 235 255
221 235 255
221 235 255
221 235 255
221 235 255
221 235 255
221 235 255
221 235 255
221 235 255
221 235 255
221 235 255
221 235 255
221 235 255
221 235 255
121 130 170
0 20 116
0 20 116
0 20 116
0 20 116
0 20 116
0 20 116
0 20 116
0 20 116
0 20 116
0 20 116
0 20 116
0 20 116
0 20 116
0 20 116
0 20 116
12 15 116
11 12 116
0 0 115
0 16 116
0 20 116
0 20 116
5 20 116
13 14 116
11 11 116
5 5 115
7 8 115
12 12 114
11 12 114
11 12 114
12 13 115
12 13 116
7 7 115
7 8 115
0 0 115
0 0 113
0 0 113
0 0 115
0 0 115
8 9 115
11 13 116
11 13 116
12 13 116
11 13 116
13 14 116
13 15 116
13 15 116
13 15 116
13 15 116
8 11 116
11 14 116
11 15 116
12 14 116
12 15 116
9 18 116
0 20 116
0 20 116
0 20 116
0 20 116
0 20 116
0 20 116
0 20 116
0 20 116
0 20 116
0 20 116
0 20 116
0 20 116
0 20 116
0 20 116
0 20 116
0 20 116
0 20 116
0 20 116
0 20 116
0 20 116
0 20 116
0 20 116
0 20 116
0 20 116
0 20 116
0 20 116
0 20 116
0 20 116
0 20 116
0 20 116
0 20 116
0 20 116
0 20 116
0 20 116
0 20 116
0 20 116
0 20 116
0 20 116
0 20 116
0 20 116
0 20 115
0 20 116
13 21 119
10 23 120
4 25 120
5 26 119
5 26 119
4 29 123
9 32 124
9 32 121
12 28 120
11 28 120
0 18 116
10 21 119
0 18 119
0 19 119
1 17 119
8 18 119
13 22 120
6 26 122
17 34 124
11 35 125
3 37 125
13 41 127
17 43 127
12 40 128
16 41 129
17 41 130
13 40 129
1 36 128
2 37 128
12 43 125
12 45 128
14 43 124
15 47 126
17 49 119
5 44 119
54 73 133
122 153 139
127 160 113
111 139 106
110 128 60
127 138 103
124 141 98
122 140 101
119 139 91
113 136 75
106 131 59
105 131 61
99 125 45
106 131 56
100 126 42
96 123 28
94 121 21
94 120 32
97 122 47
91 117 34
87 114 19
93 119 42
96 122 50
95 122 49
96 123 52
87 115 30
89 116 31
87 115 33
84 111 21
83 111 25
88 114 38
93 117 47
96 122 49
94 121 40
97 125 41
99 127 38
107 132 59
106 128 54
124 139 83
113 130 68
105 128 67
99 123 56
90 115 25
91 115 28
88 111 25
95 117 48
92 118 40
92 119 45
91 118 42
90 121 51
92 120 42
90 119 61
93 122 59
73 166 177
83 201 214
50 155 191
9 75 144
15 23 122
0 12 114
10 12 111
11 12 113
0 6 113
0 0 113
0 0 113
0 0 113
0 0 113
0 0 113
0 0 113
0 0 113
0 0 113
0 0 113
0 0 113
0 0 113
0 0 113
0 0 113
0 0 113
0 0 113
0 0 113
0 0 113
0 0 113
5 5 113
13 14 113
0 0 115
106 113 158
221 235 255
221 235 255
221 235 255
221 235 255
221 235 255
221 235 255
221 235 255
221 235 255
221 235 255
221 235 255
221 235 255
221 235 255
221 235 255
221 235 255
221 235 255
221 235 255
221 235 255
221 235 255
221 235 255
221 235 255
221 235 255
221 235 255
221 235 255
221 235 255
221 235 255
221 235 255
221 235 255
221 235 255
221 235 255
221 235 255
221 235 255
221 235 255
221 235 255
221 235 255
221 235 255
221 235 255
221 235 255
221 235 255
221 235 255
221 235 255
221 235 255
221 235 255
221 235 255
221 235 255
221 235 255
221 235 255
221 235 255
221 235 255
221 235 255
221 235 255
221 235 255
221 235 255
221 235 255
221 235 255
221 235 255
221 235 255
221 235 255
221 235 255
221 235 255
221 235 255
221 235 255
221 235 255
221 235 255
221 235 255
221 235 255
221 235 255
221 235 255
221 235 255
221 235 255
221 235 255
221 235 255
221 235 255
221 235 255
221 235 255
221 235 255
221 235 255
221 235 255
221 235 255
221 235 255
221 235 255
221 235 255
221 235 255
221 235 255
221 235 255
221 235 255
221 235 255
221 235 255
221 235 255
221 235 255
221 235 255
221 235 255
221 235 255
221 235 255
221 235 255
221 235 255
221 235 255
221 235 255
221 235 255
221 235 255
221 235 255
221 235 255
221 235 255
221 235 255
221 235 255
221 235 255
221 235 255
221 235 255
221 235 255
221 235 255
221 235 255
221 235 255
221 235 255
221 235 255
221 235 255
221 235 255
221 235 255
221 235 255
221 235 255
221 235 255
221 235 255
221 235 255
221 235 255
221 235 255
221 235 255
221 235 255
221 235 255
221 235 255
221 235 255
221 235 255
221 235 255
221 235 255
221 235 255
221 235 255
221 235 255
221 235 255
221 235 255
221 235 255
221 235 255
221 235 255
221 235 255
221 235 255
221 235 255
221 235 255
221 235 255
221 235 255
221 235 255
221 235 255
221 235 255
221 235 255
221 235 255
221 235 255
221 235 255
221 235 255
221 235 255
221 235 255
221 235 255
221 235 255
221 235 255
221 235 255
221 235 255
221 235 255
221 235 255
221 235 255
221 235 255
221 235 255
221 235 255
221 235 255
221 235 255
221 235 255
221 235 255
221 235 255
221 235 255
221 235 255
221 235 255
221 235 255
221 235 255
221 235 255
221 235 255
221 235 255
221 235 255
221 235 255
221 235 255
221 235 255
221 235 255
112 121 164
0 20 116
0 20 116
0 20 116
0 20 116
0 20 116
0 20 116
0 20 116
0 20 116
0 20 116
0 20 116
0 20 116
0 20 116
0 20 116
0 20 116
0 20 116
4 20 116
3 20 116
0 15 115
0 18 116
0 20 116
0 20 116
0 20 116
2 20 116
3 20 116
0 20 116
0 20 116
2 20 116
1 20 116
3 20 116
1 15 116
0 0 115
0 0 115
0 0 115
0 0 114
0 0 112
0 0 113
4 4 115
7 7 115
3 15 116
0 20 116
0 20 116
0 20 116
0 20 116
0 21 116
0 20 116
0 20 116
0 20 116
0 20 116
0 20 116
0 20 116
0 20 116
0 20 116
0 20 116
0 20 116
0 20 116
0 20 116
0 20 116
0 20 116
0 20 116
0 20 116
0 20 116
0 20 116
0 20 116
0 21 116
0 20 116
0 21 116
0 20 116
0 20 116
0 20 116
0 21 116
0 20 116
0 20 116
0 20 116
0 20 116
0 20 116
0 20 116
0 20 116
0 20 116
0 20 116
0 21 116
0 20 116
0 20 116
0 20 116
0 20 116
0 20 116
0 20 116
0 20 116
0 20 116
0 19 117
0 18 117
0 18 117
0 17 117
0 18 117
0 18 117
5 20 117
9 22 117
9 23 119
8 27 120
13 29 121
13 29 121
11 27 120
9 26 121
18 32 123
20 33 122
20 33 123
14 32 122
4 26 121
7 26 120
0 25 119
6 26 120
9 27 120
14 30 121
16 31 121
12 34 124
18 38 126
18 39 127
6 36 125
8 41 127
0 43 128
0 43 129
0 44 130
0 42 129
6 43 129
10 45 130
9 45 130
20 45 130
25 40 136
28 43 134
19 49 131
14 45 133
0 46 135
83 111 149
123 154 131
123 149 109
114 137 94
122 136 83
131 142 107
117 136 88
118 138 92
112 135 80
114 139 78
105 131 60
101 127 50
94 120 28
101 127 42
98 125 37
97 124 33
94 121 24
95 121 37
99 124 50
89 116 26
86 113 13
87 114 28
95 122 46
97 124 55
99 125 63
91 118 45
83 111 16
88 114 29
91 117 42
96 120 54
94 120 50
90 120 41
92 122 40
89 118 19
95 122 37
95 122 37
95 124 37
93 122 38
97 123 46
99 122 44
96 121 57
94 119 51
89 115 33
91 116 38
100 122 52
106 128 64
92 118 28
90 117 32
90 116 42
94 120 52
94 120 39
89 117 48
92 116 39
97 133 99
58 172 189
71 199 214
25 120 173
23 52 130
9 15 118
18 8 112
7 4 113
0 1 113
0 0 113
0 0 113
0 0 113
0 0 113
0 0 113
0 0 113
0 0 113
0 0 113
0 0 113
0 0 113
0 0 113
0 0 113
0 0 113
0 0 113
0 0 113
0 0 113
0 0 113
0 0 113
3 3 113
8 8 113
0 0 113
96 102 150
221 235 255
221 235 255
221 235 255
221 235 255
221 235 255
221 235 255
221 235 255
221 235 255
221 235 255
221 235 255
221 235 255
221 235 255
221 235 255
221 235 255
221 235 255
221 235 255
221 235 255
221 235 255
221 235 255
221 235 255
221 235 255
221 235 255
221 235 255
221 235 255
221 235 255
221 235 255
221 235 255
221 235 255
221 235 255
221 235 255
221 235 255
221 235 255
221 235 255
221 235 255
221 235 255
221 235 255
221 235 255
221 235 255
221 235 255
221 235 255
221 235 255
221 235 255
221 235 255
221 235 255
221 235 255
221 235 255
221 235 255
221 235 255
221 235 255
221 235 255
221 235 255
221 235 255
221 235 255
221 235 255
221 235 255
221 235 255
221 235 255
221 235 255
221 235 255
221 235 255
221 235 255
221 235 255
221 235 255
221 235 255
221 235 255
221 235 255
221 235 255
221 235 255
221 235 255
221 235 255
221 235 255
221 235 255
221 235 255
221 235 255
221 235 255
221 235 255
221 235 255
221 235 255
221 235 255
221 235 255
221 235 255
221 235 255
221 235 255
221 235 255
221 235 255
221 235 255
221 235 255
221 235 255
221 235 255
221 235 255
221 235 255
221 235 255
221 235 255
221 235 255
221 235 255
221 235 255
221 235 255
221 235 255
221 235 255
221 235 255
221 235 255
221 235 255
221 235 255
221 235 255
221 235 255
221 235 255
221 235 255
221 235 255
221 235 255
221 235 255
221 235 255
221 235 255
221 235 255
221 235 255
221 235 255
221 235 255
221 235 255
221 235 255
221 235 255
221 235 255
221 235 255
221 235 255
221 235 255
221 235 255
221 235 255
221 235 255
221 235 255
221 235 255
221 235 255
221 235 255
221 235 255
221 235 255
221 235 255
221 235 255
221 235 255
221 235 255
221 235 255
221 235 255
221 235 255
221 235 255
221 235 255
221 235 255
221 235 255
221 235 255
221 235 255
221 235 255
221 235 255
221 235 255
221 235 255
221 235 255
221 235 255
221 235 255
221 235 255
221 235 255
221 235 255
221 235 255
221 235 255
221 235 255
221 235 255
221 235 255
221 235 255
221 235 255
221 235 255
221 235 255
221 235 255
221 235 255
221 235 255
221 235 255
221 235 255
221 235 255
221 235 255
221 235 255
221 235 255
221 235 255
221 235 255
221 235 255
221 235 255
221 235 255
221 235 255
221 235 255
221 235 255
221 235 255
221 235 255
221 235 255
103 112 158
0 20 116
0 20 116
0 20 116
0 20 116
0 20 116
0 20 116
0 20 116
0 20 116
0 20 116
0 20 116
0 20 116
0 20 116
0 20 116
0 20 116
0 20 116
0 20 116
0 20 116
0 18 116
0 20 116
0 20 116
0 20 116
0 20 116
0 20 116
0 20 116
0 20 116
0 20 116
0 20 116
0 20 116
0 20 116
5 17 116
9 10 115
7 8 115
0 0 115
0 4 115
0 10 114
0 13 115
4 15 116
9 18 116
6 19 116
0 20 116
0 20 116
0 20 116
0 20 116
0 20 116
0 20 116
0 20 116
0 20 116
0 20 116
0 20 116
0 20 116
0 20 116
0 20 116
0 18 116
0 19 116
0 20 116
0 20 116
0 20 116
0 20 116
0 20 116
0 20 116
0 21 116
0 21 116
0 20 116
0 20 116
0 20 116
0 20 116
0 20 116
0 21 116
0 20 116
0 20 116
0 20 116
0 20 116
0 20 116
0 20 116
0 20 116
0 20 116
0 20 116
0 20 116
0 20 116
0 20 116
0 20 116
0 20 116
0 20 116
0 20 116
0 20 116
0 20 116
0 20 116
0 20 116
0 16 118
0 14 118
0 14 118
0 14 118
0 14 118
0 14 118
6 20 119
7 25 119
10 28 120
12 28 120
13 29 121
11 30 122
10 30 122
16 30 121
19 32 123
13 33 124
14 33 124
8 31 123
0 31 123
7 29 122
0 28 122
7 29 122
7 29 122
9 30 122
12 33 123
15 36 125
21 43 128
16 41 127
0 38 126
0 41 128
0 44 130
0 45 130
0 46 130
4 47 130
11 48 131
13 49 131
8 47 130
11 46 128
19 58 134
9 50 134
22 65 142
20 75 146
38 83 149
114 150 147
126 156 105
119 143 84
127 140 96
133 145 112
120 135 94
118 137 90
117 138 85
111 135 78
105 131 61
103 129 50
98 123 37
95 120 25
98 123 38
100 126 45
102 128 47
95 122 36
94 120 35
92 119 30
86 114 16
90 117 24
90 117 25
89 119 29
93 121 42
95 121 60
89 116 51
82 109 25
88 113 35
90 116 44
91 115 42
89 115 30
89 120 36
91 122 43
91 120 27
94 119 36
95 118 31
91 119 30
89 118 30
86 117 26
87 116 24
92 117 39
93 118 48
92 117 44
89 115 37
95 119 42
102 124 49
93 119 27
90 116 25
90 116 39
92 115 31
96 116 32
91 117 17
89 118 47
94 120 53
71 155 152
56 179 204
51 152 188
22 83 150
7 32 123
18 12 116
8 0 112
5 0 113
0 0 113
0 0 113
0 0 113
0 0 112
0 0 113
0 0 113
0 0 113
0 0 113
0 0 113
0 0 113
0 0 113
0 0 113
0 0 113
0 0 113
0 0 113
0 0 113
0 0 113
0 0 113
0 0 113
0 0 113
0 0 113
103 110 156
221 235 255
221 235 255
221 235 255
221 235 255
221 235 255
221 235 255
221 235 255
221 235 255
221 235 255
221 235 255
221 235 255
221 235 255
221 235 255
221 235 255
221 235 255
221 235 255
221 235 255
221 235 255
221 235 255
221 235 255
221 235 255
221 235 255
221 235 255
221 235 255
221 235 255
221 235 255
221 235 255
221 235 255
221 235 255
221 235 255
221 235 255
221 235 255
221 235 255
221 235 255
221 235 255
221 235 255
221 235 255
221 235 255
221 235 255
221 235 255
221 235 255
221 235 255
221 235 255
221 235 255
221 235 255
221 235 255
221 235 255
221 235 255
221 235 255
221 235 255
221 235 255
221 235 255
221 235 255
221 235 255
221 235 255
221 235 255
221 235 255
221 235 255
221 235 255
221 235 255
221 235 255
221 235 255
221 235 255
221 235 255
221 235 255
221 235 255
221 235 255
221 235 255
221 235 255
221 235 255
221 235 255
221 235 255
221 235 255
221 235 255
221 235 255
221 235 255
221 235 255
221 235 255
221 235 255
221 235 255
221 235 255
221 235 255
221 235 255
221 235 255
221 235 255
221 235 255
221 235 255
221 235 255
221 235 255
221 235 255
221 235 255
221 235 255
221 235 255
221 235 255
221 235 255
221 235 255
221 235 255
221 235 255
221 235 255
221 235 255
221 235 255
221 235 255
221 235 255
221 235 255
221 235 255
221 235 255
221 235 255
221 235 255
221 235 255
221 235 255
221 235 255
221 235 255
221 235 255
221 235 255
221 235 255
221 235 255
221 235 255
221 235 255
221 235 255
221 235 255
221 235 255
221 235 255
221 235 255
221 235 255
221 235 255
221 235 255
221 235 255
221 235 255
221 235 255
221 235 255
221 235 255
221 235 255
221 235 255
221 235 255
221 235 255
221 235 255
221 235 255
221 235 255
221 235 255
221 235 255
221 235 255
221 235 255
221 235 255
221 235 255
221 235 255
221 235 255
221 235 255
221 235 255
221 235 255
221 235 255
221 235 255
221 235 255
221 235 255
221 235 255
221 235 255
221 235 255
221 235 255
221 235 255
221 235 255
221 235 255
221 235 255
221 235 255
221 235 255
221 235 255
221 235 255
221 235 255
221 235 255
221 235 255
221 235 255
221 235 255
221 235 255
221 235 255
221 235 255
221 235 255
221 235 255
221 235 255
221 235 255
221 235 255
221 235 255
221 235 255
221 235 255
221 235 255
221 235 255
221 235 255
88 96 148
0 20 116
0 20 116
0 20 116
0 20 116
0 20 116
0 20 116
0 20 116
0 20 116
0 20 116
0 20 116
0 20 116
0 20 116
0 20 116
0 20 116
0 20 116
0 20 116
0 20 116
0 20 116
0 20 116
0 20 116
0 20 116
0 19 116
0 13 117
0 16 118
0 16 118
0 18 117
0 21 116
0 20 116
0 20 116
8 18 116
14 14 116
13 14 116
12 12 116
11 13 116
0 19 116
0 20 116
0 20 116
0 17 118
0 16 118
0 16 118
0 16 118
0 16 118
0 16 118
0 16 118
0 15 118
0 16 118
0 16 118
0 16 118
0 16 118
0 16 118
0 15 118
0 16 118
0 14 118
0 17 118
0 21 118
0 21 118
0 21 118
0 21 118
0 21 118
0 25 119
0 24 119
0 24 119
0 24 119
0 24 119
0 23 118
0 21 118
0 20 118
0 20 118
0 21 118
0 21 118
0 21 118
0 21 118
0 20 118
0 20 118
0 21 118
0 21 118
0 21 118
0 21 118
0 21 118
0 21 118
0 20 118
0 21 118
3 21 117
3 21 116
3 21 116
3 21 116
2 21 116
3 21 116
0 23 118
0 24 119
0 24 119
0 23 119
0 24 119
0 23 119
9 26 120
12 28 120
13 29 121
13 29 121
9 33 121
2 33 123
5 35 124
6 37 124
8 36 124
12 35 124
4 33 124
0 30 123
2 32 123
0 29 123
0 29 123
0 29 123
0 29 123
0 30 123
0 33 124
6 37 125
19 44 128
14 42 127
0 41 128
0 43 129
0 46 130
0 48 130
10 50 131
13 51 132
10 49 131
3 46 130
0 42 128
5 48 131
7 63 145
39 78 155
47 82 151
111 145 160
101 142 115
114 154 109
119 142 100
121 141 85
145 153 126
141 156 117
105 130 62
101 121 60
111 133 80
106 130 65
106 131 65
95 122 36
95 120 37
91 116 18
96 120 36
99 123 40
98 123 40
96 122 40
93 120 38
86 115 17
84 113 10
90 119 27
85 115 17
81 112 8
84 115 15
86 115 47
81 109 31
86 113 42
91 117 54
85 112 31
82 110 12
82 110 7
83 115 25
86 115 30
83 111 12
89 112 28
96 117 39
91 116 28
91 118 36
91 119 39
89 116 31
89 115 35
91 117 41
89 115 38
86 112 24
87 112 11
94 118 27
90 117 26
88 116 29
87 113 32
88 114 44
81 112 21
86 116 46
101 119 41
99 125 53
59 149 168
47 161 194
52 165 193
12 98 160
3 48 132
10 22 120
12 10 115
10 0 113
0 0 113
0 0 113
0 0 113
0 0 113
0 0 113
0 0 113
0 0 113
0 0 113
0 0 113
0 0 113
0 0 113
0 0 113
0 0 113
0 0 113
0 0 113
0 0 113
0 0 113
0 0 113
0 0 113
0 0 113
0 0 114
94 100 150
221 235 255
221 235 255
221 235 255
221 235 255
221 235 255
221 235 255
221 235 255
221 235 255
221 235 255
221 235 255
221 235 255
221 235 255
221 235 255
221 235 255
221 235 255
221 235 255
221 235 255
221 235 255
221 235 255
221 235 255
221 235 255
221 235 255
221 235 255
221 235 255
221 235 255
221 235 255
221 235 255
221 235 255
221 235 255
221 235 255
221 235 255
221 235 255
221 235 255
221 235 255
221 235 255
221 235 255
221 235 255
221 235 255
221 235 255
221 235 255
221 235 255
221 235 255
221 235 255
221 235 255
221 235 255
221 235 255
221 235 255
221 235 255
221 235 255
221 235 255
221 235 255
221 235 255
221 235 255
221 235 255
221 235 255
221 235 255
221 235 255
221 235 255
221 235 255
221 235 255
221 235 255
221 235 255
221 235 255
221 235 255
221 235 255
221 235 255
221 235 255
221 235 255
221 235 255
221 235 255
221 235 255
221 235 255
221 235 255
221 235 255
221 235 255
221 235 255
221 235 255
221 235 255
221 235 255
221 235 255
221 235 255
221 235 255
221 235 255
221 235 255
221 235 255
221 235 255
221 235 255
221 235 255
221 235 255
221 235 255
221 235 255
221 235 255
221 235 255
221 235 255
221 235 255
221 235 255
221 235 255
221 235 255
221 235 255
221 235 255
221 235 255
221 235 255
221 235 255
221 235 255
221 235 255
221 235 255
221 235 255
221 235 255
221 235 255
221 235 255
221 235 255
221 235 255
221 235 255
221 235 255
221 235 255
221 235 255
221 235 255
221 235 255
221 235 255
221 235 255
221 235 255
221 235 255
221 235 255
221 235 255
221 235 255
221 235 255
221 235 255
221 235 255
221 235 255
221 235 255
221 235 255
221 235 255
221 235 255
221 235 255
221 235 255
221 235 255
221 235 255
221 235 255
221 235 255
221 235 255
221 235 255
221 235 255
221 235 255
221 235 255
221 235 255
221 235 255
221 235 255
221 235 255
221 235 255
221 235 255
221 235 255
221 235 255
221 235 255
221 235 255
221 235 255
221 235 255
221 235 255
221 235 255
221 235 255
221 235 255
221 235 255
221 235 255
221 235 255
221 235 255
221 235 255
221 235 255
221 235 255
221 235 255
221 235 255
221 235 255
221 235 255
221 235 255
221 235 255
221 235 255
221 235 255
221 235 255
221 235 255
221 235 255
221 235 255
221 235 255
221 235 255
221 235 255
221 235 255
221 235 255
70 77 137
0 20 116
0 20 116
0 20 116
0 20 116
0 20 116
0 20 116
0 20 116
0 20 116
0 20 116
0 20 116
0 20 116
0 20 116
0 20 116
0 20 116
0 20 116
0 20 116
0 20 116
0 20 116
0 20 116
0 20 116
0 20 116
0 19 117
0 14 118
3 15 118
6 16 119
4 18 117
0 20 116
0 20 116
0 20 116
8 18 116
13 14 116
13 14 116
13 14 116
13 16 116
6 21 116
0 20 116
0 18 117
0 14 118
4 15 119
6 16 119
7 16 119
7 16 119
6 16 119
3 15 118
0 14 118
0 14 118
0 14 118
0 14 118
0 14 118
0 14 118
4 15 118
7 16 119
8 17 119
4 21 119
0 25 119
0 25 119
0 25 119
0 25 119
0 25 119
7 26 120
7 26 120
6 26 120
6 26 120
7 26 120
7 26 120
6 26 120
7 26 120
7 26 120
7 26 120
7 26 120
3 25 120
0 25 119
0 25 119
0 25 119
0 25 119
0 25 119
0 25 119
0 25 119
0 25 119
0 25 119
0 25 119
0 25 119
12 25 118
13 25 117
13 25 117
13 25 117
13 25 117
13 25 117
8 25 119
0 25 119
0 25 119
0 25 119
0 25 119
0 25 119
10 28 121
14 29 121
13 29 121
10 30 121
0 35 121
7 34 124
12 37 126
0 42 127
0 43 127
19 45 128
17 44 127
9 39 123
14 39 123
7 33 124
0 31 123
0 30 123
0 31 123
0 33 124
0 32 124
0 34 124
12 41 127
0 43 128
0 42 129
0 46 130
0 48 130
0 47 130
0 48 131
10 49 132
0 46 131
0 45 130
12 48 131
22 59 136
18 67 145
21 65 142
81 101 160
157 180 188
149 175 139
117 141 100
108 127 77
132 141 106
153 163 147
119 138 100
103 128 63
91 116 47
99 120 53
98 123 54
90 116 30
99 126 49
90 117 34
90 116 36
93 117 30
90 115 18
91 117 31
90 117 29
91 118 43
88 115 40
82 111 24
80 111 23
77 108 10
77 108 19
78 110 27
77 109 25
80 110 33
78 108 35
82 111 46
80 108 29
76 107 0
79 110 19
81 107 14
82 106 16
82 106 21
87 111 34
89 113 30
85 112 22
85 113 19
85 113 22
85 113 19
86 112 20
86 112 18
84 110 12
86 112 18
83 109 20
88 114 36
83 112 17
89 117 32
86 114 29
84 113 40
79 110 27
85 115 51
108 123 45
90 137 112
66 143 167
37 145 190
73 193 206
43 151 194
4 73 146
11 43 128
13 19 117
15 0 114
0 0 113
0 0 113
0 0 113
0 0 113
0 0 113
0 0 113
0 0 113
0 0 113
0 0 113
0 0 113
0 0 113
0 0 113
0 0 113
0 0 113
0 0 113
0 0 112
0 0 113
0 0 113
0 0 113
0 0 113
0 17 116
85 92 146
221 235 255
221 235 255
221 235 255
221 235 255
221 235 255
221 235 255
221 235 255
221 235 255
221 235 255
221 235 255
221 235 255
221 235 255
221 235 255
221 235 255
221 235 255
221 235 255
221 235 255
221 235 255
221 235 255
221 235 255
221 235 255
221 235 255
221 235 255
221 235 255
221 235 255
221 235 255
221 235 255
221 235 255
221 235 255
221 235 255
221 235 255
221 235 255
221 235 255
221 235 255
221 235 255
221 235 255
221 235 255
221 235 255
221 235 255
221 235 255
221 235 255
221 235 255
221 235 255
221 235 255
221 235 255
221 235 255
221 235 255
221 235 255
221 235 255
221 235 255
221 235 255
221 235 255
221 235 255
221 235 255
221 235 255
221 235 255
221 235 255
221 235 255
221 235 255
221 235 255
221 235 255
221 235 255
221 235 255
221 235 255
221 235 255
221 235 255
221 235 255
221 235 255
221 235 255
221 235 255
221 235 255
221 235 255
221 235 255
221 235 255
221 235 255
221 235 255
221 235 255
221 235 255
221 235 255
221 235 255
221 235 255
221 235 255
221 235 255
221 235 255
221 235 255
221 235 255
221 235 255
221 235 255
221 235 255
221 235 255
221 235 255
221 235 255
221 236 255
221 236 255
221 236 255
221 236 255
221 236 255
221 236 255
221 236 255
221 236 255
221 236 255
221 236 255
221 236 255
221 236 255
221 236 255
221 236 255
221 236 255
221 236 255
221 236 255
221 236 255
221 236 255
221 236 255
221 236 255
221 236 255
221 236 255
221 236 255
221 236 255
221 236 255
221 236 255
221 236 255
221 236 255
221 236 255
221 236 255
221 236 255
221 236 255
221 236 255
221 236 255
221 236 255
221 236 255
221 236 255
221 236 255
221 236 255
221 236 255
221 236 255
221 236 255
221 236 255
221 236 255
221 236 255
221 236 255
221 236 255
221 236 255
221 236 255
221 236 255
221 236 255
221 236 255
221 236 255
221 236 255
221 236 255
221 236 255
221 236 255
221 236 255
221 236 255
221 236 255
221 236 255
221 236 255
221 236 255
221 236 255
221 236 255
221 236 255
221 236 255
221 236 255
221 236 255
221 236 255
221 236 255
221 236 255
221 236 255
221 236 255
221 236 255
221 236 255
221 236 255
221 236 255
221 236 255
221 236 255
221 236 255
221 236 255
221 236 255
221 236 255
221 236 255
221 236 255
221 236 255
221 236 255
221 236 255
221 236 255
221 236 255
99 107 154
9 22 117
3 20 116
0 20 116
0 20 116
0 20 116
9 22 117
9 23 117
4 21 116
0 20 116
0 20 116
0 20 116
0 20 116
0 20 116
0 20 116
0 20 116
0 18 117
0 17 117
0 17 117
8 20 118
9 20 118
9 21 118
8 19 118
0 14 118
8 17 119
13 20 119
10 19 118
0 18 117
0 18 117
0 17 117
6 18 117
9 18 116
9 18 116
10 17 116
9 19 116
9 23 117
0 20 116
0 18 117
0 18 117
11 19 119
13 20 119
13 20 119
13 20 119
13 20 119
6 21 119
0 20 119
0 19 119
0 16 118
0 14 118
0 16 118
0 17 117
3 18 117
9 21 118
8 20 118
6 22 119
0 23 119
0 23 119
0 25 119
0 25 119
4 25 120
13 29 121
13 29 121
13 29 121
13 29 121
13 29 121
13 29 121
13 29 121
13 29 121
14 29 121
13 29 121
13 29 121
7 26 120
0 25 119
0 25 119
0 25 119
0 25 119
0 25 119
0 25 119
0 25 119
0 25 119
0 25 119
0 25 119
0 25 119
7 25 120
9 25 120
10 25 119
9 25 120
9 25 119
9 25 119
9 26 120
9 27 120
9 27 120
9 27 120
9 27 120
9 27 120
15 30 121
17 31 121
16 31 122
13 31 122
0 34 123
9 34 124
13 38 125
7 41 126
17 48 129
40 62 121
49 67 120
39 53 126
18 39 126
14 37 124
12 36 124
6 32 124
0 32 124
0 31 124
8 33 125
7 35 125
8 40 126
0 41 127
0 43 128
0 47 130
0 48 131
8 46 131
10 46 132
1 45 131
6 45 133
11 48 134
24 57 140
28 62 145
22 72 154
31 77 151
88 110 134
140 164 147
159 186 164
105 130 61
119 132 87
134 144 106
123 143 89
105 128 64
107 131 62
89 117 46
97 121 52
99 123 54
94 121 44
92 119 32
87 114 19
87 114 26
91 116 35
87 112 23
87 113 26
84 111 25
84 112 33
82 111 38
76 107 26
73 105 16
74 106 9
81 112 36
83 113 50
79 112 32
83 114 39
73 105 21
73 104 17
77 108 28
78 109 28
79 110 27
79 105 29
86 108 34
87 111 23
86 111 20
87 114 24
86 113 32
85 114 16
85 114 8
85 112 23
83 109 17
86 111 18
87 113 22
87 113 26
82 109 13
84 112 33
81 112 25
88 118 42
87 115 34
87 113 32
89 110 34
89 117 40
97 130 80
78 132 119
90 145 124
69 157 170
70 165 183
60 169 201
13 92 158
16 51 133
11 29 118
10 17 112
15 9 115
2 19 111
15 0 115
11 0 114
14 9 113
11 9 113
0 0 113
0 0 113
0 0 113
0 0 113
0 0 113
0 0 113
0 0 113
0 0 113
0 0 113
0 0 113
0 0 113
0 0 113
0 0 113
0 0 113
0 9 116
106 113 159
221 236 255
221 236 255
221 236 255
221 236 255
221 236 255
221 236 255
221 236 255
221 236 255
221 236 255
221 236 255
221 236 255
221 236 255
221 236 255
221 236 255
221 236 255
221 236 255
221 236 255
221 236 255
221 236 255
221 236 255
221 236 255
221 236 255
221 236 255
221 236 255
221 236 255
221 236 255
221 236 255
221 236 255
221 236 255
221 236 255
221 236 255
221 236 255
221 236 255
221 236 255
221 236 255
221 236 255
221 236 255
221 236 255
221 236 255
221 236 255
221 236 255
221 236 255
221 236 255
221 236 255
221 236 255
221 236 255
221 236 255
221 236 255
221 236 255
221 236 255
221 236 255
221 236 255
221 236 255
221 236 255
221 236 255
221 236 255
221 236 255
221 236 255
221 236 255
221 236 255
221 236 255
221 236 255
221 236 255
221 236 255
221 236 255
221 236 255
221 236 255
221 236 255
221 236 255
221 236 255
221 236 255
221 236 255
221 236 255
221 236 255
221 236 255
221 236 255
221 236 255
221 236 255
221 236 255
221 236 255
221 236 255
221 236 255
221 236 255
221 236 255
221 236 255
221 236 255
221 236 255
221 236 255
221 236 255
221 236 255
221 236 255
221 236 255
221 236 255
221 236 255
221 236 255
221 236 255
221 236 255
221 236 255
221 236 255
221 236 255
221 236 255
221 236 255
221 236 255
221 236 255
221 236 255
221 236 255
221 236 255
221 236 255
221 236 255
221 236 255
221 236 255
221 236 255
221 236 255
221 236 255
221 236 255
221 236 255
221 236 255
221 236 255
221 236 255
221 236 255
221 236 255
221 236 255
221 236 255
221 236 255
221 236 255
221 236 255
221 236 255
221 236 255
221 236 255
221 236 255
221 236 255
221 236 255
221 236 255
221 236 255
221 236 255
221 236 255
221 236 255
221 236 255
221 236 255
221 236 255
221 236 255
221 236 255
221 236 255
221 236 255
221 236 255
221 236 255
221 236 255
221 236 255
221 236 255
221 236 255
221 236 255
221 236 255
221 236 255
221 236 255
221 236 255
221 236 255
221 236 255
221 236 255
221 236 255
221 236 255
221 236 255
221 236 255
221 236 255
221 236 255
221 236 255
221 236 255
221 236 255
221 236 255
221 236 255
221 236 255
221 236 255
221 236 255
221 236 255
221 236 255
221 236 255
221 236 255
221 236 255
221 236 255
221 236 255
221 236 255
221 236 255
221 236 255
221 236 255
221 236 255
91 99 149
5 21 116
3 21 116
0 20 116
0 20 116
0 20 116
5 21 116
6 22 116
3 20 116
0 20 116
0 20 116
0 20 116
0 20 116
0 20 116
0 20 116
0 20 116
0 19 117
0 19 117
0 19 117
6 17 118
5 15 119
6 16 119
6 16 119
0 14 118
8 17 119
13 20 119
9 18 119
0 14 118
0 14 118
0 14 118
0 17 117
0 20 116
0 20 116
0 20 116
0 20 116
0 21 116
0 20 116
0 20 116
0 20 116
5 18 118
7 16 119
6 16 119
6 16 119
6 16 119
2 24 119
0 25 119
0 23 119
0 16 118
0 14 118
0 19 117
0 20 116
0 20 116
0 20 116
0 20 116
0 20 117
0 20 118
0 20 118
0 25 119
0 25 119
3 25 120
13 29 121
14 29 121
13 29 121
13 29 121
13 29 121
13 29 121
14 29 121
13 29 121
13 29 121
14 29 121
14 29 121
5 26 120
0 25 119
0 25 119
0 25 119
0 25 119
0 25 119
0 25 119
0 25 119
0 25 119
0 25 119
6 26 120
12 28 120
6 26 120
0 25 120
0 25 120
0 25 120
0 25 120
0 25 119
11 28 120
14 29 121
13 29 121
13 29 121
13 29 121
14 29 121
16 31 121
16 31 121
15 30 123
13 31 123
0 33 124
3 33 124
15 37 125
17 42 124
17 45 130
42 61 118
75 90 107
63 74 124
54 73 119
23 43 125
30 47 127
15 36 125
3 33 124
11 34 125
11 35 126
11 36 125
1 38 125
0 39 126
0 41 127
0 46 129
0 48 131
6 49 131
7 47 130
0 46 130
4 48 133
9 53 137
16 60 142
13 63 143
15 78 151
25 73 156
127 153 129
142 166 149
155 184 179
97 119 62
127 135 100
128 143 104
110 134 75
99 124 47
99 125 48
98 124 45
97 123 50
94 120 45
96 121 43
96 121 43
97 122 41
93 119 37
89 114 29
85 111 20
84 110 20
86 111 29
80 108 23
81 110 17
80 111 30
81 112 35
79 111 20
80 112 27
81 113 49
81 113 35
80 112 34
79 111 33
75 106 11
76 107 29
80 109 31
81 109 25
79 106 27
84 109 31
86 112 29
91 118 37
88 116 29
87 114 34
87 115 17
89 117 23
84 111 27
81 107 18
83 110 16
83 111 20
82 110 19
81 107 7
85 110 22
86 113 29
91 118 42
94 118 42
86 114 30
95 119 50
97 126 44
94 131 76
88 126 78
88 124 66
107 133 80
104 160 148
86 187 189
36 134 174
28 82 155
29 32 123
31 18 121
17 10 112
9 14 113
21 8 114
11 9 115
12 9 113
7 7 112
0 0 113
0 0 113
0 0 113
0 0 113
0 0 113
0 0 113
0 0 113
0 0 113
0 0 113
0 0 113
0 0 113
0 0 113
0 0 113
0 0 113
0 0 113
85 91 144
221 236 255
221 236 255
221 236 255
221 236 255
221 236 255
221 236 255
221 236 255
221 236 255
221 236 255
221 236 255
221 236 255
221 236 255
221 236 255
221 236 255
221 236 255
221 236 255
221 236 255
221 236 255
221 236 255
221 236 255
221 236 255
221 236 255
221 236 255
221 236 255
221 236 255
221 236 255
221 236 255
221 236 255
221 236 255
221 236 255
221 236 255
221 236 255
221 236 255
221 236 255
221 236 255
221 236 255
221 236 255
221 236 255
221 236 255
221 236 255
221 236 255
221 236 255
221 236 255
221 236 255
221 236 255
221 236 255
221 236 255
221 236 255
221 236 255
221 236 255
221 236 255
221 236 255
221 236 255
221 236 255
221 236 255
221 236 255
221 236 255
221 236 255
221 236 255
221 236 255
221 236 255
221 236 255
221 236 255
221 236 255
221 236 255
221 236 255
221 236 255
221 236 255
221 236 255
221 236 255
221 236 255
221 236 255
221 236 255
221 236 255
221 236 255
221 236 255
221 236 255
221 236 255
221 236 255
221 236 255
221 236 255
221 236 255
221 236 255
221 236 255
221 236 255
221 236 255
221 236 255
221 236 255
221 236 255
221 236 255
221 236 255
221 236 255
221 236 255
221 236 255
221 236 255
221 236 255
221 236 255
221 236 255
221 236 255
221 236 255
221 236 255
221 236 255
221 236 255
221 236 255
221 236 255
221 236 255
221 236 255
221 236 255
221 236 255
221 236 255
221 236 255
221 236 255
221 236 255
221 236 255
221 236 255
221 236 255
221 236 255
221 236 255
221 236 255
221 236 255
221 236 255
221 236 255
221 236 255
221 236 255
221 236 255
221 236 255
221 236 255
221 236 255
221 236 255
221 236 255
221 236 255
221 236 255
221 236 255
221 236 255
221 236 255
221 236 255
221 236 255
221 236 255
221 236 255
221 236 255
221 236 255
221 236 255
221 236 255
221 236 255
221 236 255
221 236 255
221 236 255
221 236 255
221 236 255
221 236 255
221 236 255
221 236 255
221 236 255
221 236 255
221 236 255
221 236 255
221 236 255
221 236 255
221 236 255
221 236 255
221 236 255
221 236 255
221 236 255
221 236 255
221 236 255
221 236 255
221 236 255
221 236 255
221 236 255
221 236 255
221 236 255
221 236 255
221 236 255
221 236 255
221 236 255
221 236 255
221 236 255
221 236 255
221 236 255
221 236 255
221 236 255
221 236 255
221 236 255
221 236 255
85 93 146
0 18 116
0 20 116
0 20 116
0 20 116
0 20 116
0 19 116
0 18 116
0 16 115
0 19 116
0 20 116
0 20 116
0 20 116
0 20 116
0 20 116
0 20 116
0 20 116
0 20 116
0 20 116
0 18 117
0 16 118
0 16 118
0 17 118
0 20 116
0 20 116
8 22 117
8 22 117
0 20 116
0 20 116
0 20 116
0 20 116
0 20 116
0 20 116
0 20 116
0 21 116
0 20 116
0 20 116
0 20 116
0 20 116
0 18 117
0 16 118
0 16 118
0 16 118
0 16 118
0 23 119
0 24 119
0 19 118
0 16 118
0 16 118
0 19 117
0 20 116
0 20 116
0 20 116
0 20 116
0 20 117
0 19 118
0 20 118
1 22 119
5 24 119
6 24 119
6 25 120
7 24 119
6 25 120
6 24 119
6 24 120
4 25 119
1 25 119
3 25 120
3 26 120
3 25 120
3 25 120
10 28 120
12 28 120
12 28 120
11 28 120
12 28 120
12 28 120
5 26 120
0 25 119
0 25 119
3 25 120
12 28 120
12 28 120
5 26 120
0 25 119
0 25 119
0 25 119
0 25 119
0 25 119
10 27 120
12 28 120
13 29 120
12 28 120
12 28 120
12 28 120
13 29 120
12 28 120
12 29 121
13 29 122
10 31 123
1 32 124
4 29 126
11 32 127
23 45 129
46 63 121
74 91 106
56 68 119
44 63 115
25 45 125
34 51 128
18 37 124
6 30 123
21 40 127
13 34 125
4 33 122
7 33 123
10 37 125
10 40 126
7 44 128
0 48 129
0 48 130
0 48 130
4 50 131
5 53 133
3 56 137
1 61 140
9 64 141
21 77 145
87 112 151
123 140 98
139 152 141
159 181 182
120 136 88
134 142 112
115 131 83
96 121 46
93 118 27
97 120 34
99 124 47
96 121 41
94 120 35
98 123 51
101 126 57
99 124 52
94 119 39
89 116 23
87 113 25
86 112 21
88 115 37
85 113 25
79 109 4
82 113 26
86 115 38
82 114 22
76 109 11
73 106 26
71 105 15
75 108 28
78 110 29
76 107 14
78 109 28
81 110 22
83 112 17
87 115 30
85 112 29
81 108 33
82 109 37
88 115 30
88 116 5
83 111 20
85 112 39
83 111 28
79 108 16
84 112 21
83 112 27
79 107 4
86 113 30
85 113 6
87 115 19
87 115 0
91 118 19
87 118 25
93 118 40
99 124 29
94 124 29
89 122 47
82 121 27
110 130 42
84 161 149
99 129 54
97 134 69
80 149 150
40 108 158
22 57 128
37 23 108
34 14 124
17 16 110
7 19 114
0 17 113
7 19 113
0 0 113
0 0 113
0 0 113
0 0 113
0 0 113
0 0 113
0 0 113
0 0 113
0 0 113
0 0 113
0 0 113
0 0 113
0 0 113
0 0 113
0 0 113
94 100 150
221 236 255
221 236 255
221 236 255
221 236 255
221 236 255
221 236 255
221 236 255
221 236 255
221 236 255
221 236 255
221 236 255
221 236 255
221 236 255
221 236 255
221 236 255
221 236 255
221 236 255
221 236 255
221 236 255
221 236 255
221 236 255
221 236 255
221 236 255
221 236 255
221 236 255
221 236 255
221 236 255
221 236 255
221 236 255
221 236 255
221 236 255
221 236 255
221 236 255
221 236 255
221 236 255
221 236 255
221 236 255
221 236 255
221 236 255
221 236 255
221 236 255
221 236 255
221 236 255
221 236 255
221 236 255
221 236 255
221 236 255
221 236 255
221 236 255
221 236 255
221 236 255
221 236 255
221 236 255
221 236 255
221 236 255
221 236 255
221 236 255
221 236 255
221 236 255
221 236 255
221 236 255
221 236 255
221 236 255
221 236 255
221 236 255
221 236 255
221 236 255
221 236 255
221 236 255
221 236 255
221 236 255
221 236 255
221 236 255
221 236 255
221 236 255
221 236 255
221 236 255
221 236 255
221 236 255
221 236 255
221 236 255
221 236 255
221 236 255
221 236 255
221 236 255
221 236 255
221 236 255
221 236 255
221 236 255
221 236 255
221 236 255
221 236 255
221 236 255
221 236 255
221 236 255
221 236 255
221 236 255
221 236 255
221 236 255
221 236 255
221 236 255
221 236 255
221 236 255
221 236 255
221 236 255
221 236 255
221 236 255
221 236 255
221 236 255
221 236 255
221 236 255
221 236 255
221 236 255
221 236 255
221 236 255
221 236 255
221 236 255
221 236 255
221 236 255
221 236 255
221 236 255
221 236 255
221 236 255
221 236 255
221 236 255
221 236 255
221 236 255
221 236 255
221 236 255
221 236 255
221 236 255
221 236 255
221 236 255
221 236 255
221 236 255
221 236 255
221 236 255
221 236 255
221 236 255
221 236 255
221 236 255
221 236 255
221 236 255
221 236 255
221 236 255
221 236 255
221 236 255
221 236 255
221 236 255
221 236 255
221 236 255
221 236 255
221 236 255
221 236 255
221 236 255
221 236 255
221 236 255
221 236 255
221 236 255
221 236 255
221 236 255
221 236 255
221 236 255
221 236 255
221 236 255
221 236 255
221 236 255
221 236 255
221 236 255
221 236 255
221 236 255
221 236 255
221 236 255
221 236 255
221 236 255
221 236 255
221 236 255
221 236 255
221 236 255
221 236 255
221 236 255
221 236 255
221 236 255
221 236 255
101 109 156
4 9 114
0 19 116
11 16 116
9 14 116
0 11 115
0 9 114
0 8 114
0 8 114
8 14 114
11 16 115
11 17 116
10 17 116
6 13 115
0 12 114
0 13 114
0 13 114
0 12 114
0 14 114
0 18 116
0 20 116
0 20 116
0 20 116
0 20 116
0 21 116
0 20 116
0 18 116
0 15 116
0 13 116
0 13 116
0 17 116
0 20 116
0 20 116
0 21 116
0 20 116
0 20 116
0 20 116
0 20 116
0 20 116
0 20 116
0 20 116
0 20 116
0 20 116
0 20 116
0 20 116
0 21 116
0 21 116
0 20 116
0 20 116
0 20 116
0 20 116
0 20 116
0 20 116
0 20 116
0 17 117
0 14 118
0 14 118
3 15 118
10 18 119
10 18 119
10 18 119
10 18 119
11 19 119
11 18 119
10 18 119
8 20 119
0 23 119
0 24 119
0 23 119
0 23 119
0 24 119
0 25 119
0 25 119
0 25 119
0 25 119
0 25 119
0 25 119
0 24 119
0 24 119
0 24 119
0 23 119
0 24 119
0 25 119
0 25 119
0 25 119
0 25 119
0 25 119
0 25 119
0 25 119
0 25 119
0 25 119
0 25 119
0 25 119
0 25 119
0 25 119
0 23 119
0 22 119
0 24 119
7 26 120
13 29 122
9 31 123
15 33 123
20 38 119
15 38 127
15 31 131
43 52 123
28 36 124
10 32 124
11 35 122
20 39 123
10 31 120
8 29 122
11 33 123
10 32 123
13 29 121
11 29 120
9 34 122
9 37 125
13 41 126
7 43 127
0 46 129
0 47 130
13 49 131
15 50 134
7 55 137
0 59 140
18 67 147
42 90 162
104 130 141
121 135 73
159 173 163
172 189 185
119 134 82
133 142 108
111 128 75
95 120 44
97 122 39
95 119 28
95 120 27
93 121 35
91 119 27
94 121 43
93 120 46
88 116 35
88 115 19
93 119 33
92 118 39
87 114 27
89 117 39
88 116 37
85 115 19
86 117 20
81 112 18
82 113 21
82 114 27
73 106 17
68 101 14
73 106 24
75 107 18
76 107 0
80 110 20
78 108 17
79 108 5
82 111 19
86 114 30
79 108 27
74 104 15
82 110 16
88 116 8
81 109 25
69 98 12
80 108 8
79 110 9
85 114 20
84 112 25
82 110 12
85 113 30
91 121 30
88 119 21
89 119 22
96 125 40
90 117 18
96 119 34
99 124 43
89 119 17
85 117 32
84 121 35
95 137 96
94 149 112
107 134 46
105 132 35
101 129 42
88 142 126
50 107 145
22 26 123
18 20 118
20 14 116
17 9 112
14 5 113
14 8 112
0 0 113
0 0 113
0 0 113
0 0 113
0 0 113
0 0 113
0 0 113
0 0 113
0 0 113
0 0 113
0 0 113
0 0 113
0 0 113
0 0 113
0 0 113
119 127 168
221 236 255
221 236 255
221 236 255
221 236 255
221 236 255
221 236 255
221 236 255
221 236 255
221 236 255
221 236 255
221 236 255
221 236 255
221 236 255
221 236 255
221 236 255
221 236 255
221 236 255
221 236 255
221 236 255
221 236 255
221 236 255
221 236 255
221 236 255
221 236 255
221 236 255
221 236 255
221 236 255
221 236 255
221 236 255
221 236 255
221 236 255
221 236 255
221 236 255
221 236 255
221 236 255
221 236 255
221 236 255
221 236 255
221 236 255
221 236 255
221 236 255
221 236 255
221 236 255
221 236 255
221 236 255
221 236 255
221 236 255
221 236 255
221 236 255
221 236 255
221 236 255
221 236 255
221 236 255
221 236 255
221 236 255
221 236 255
221 236 255
221 236 255
221 236 255
221 236 255
221 236 255
221 236 255
221 236 255
221 236 255
221 236 255
221 236 255
221 236 255
221 236 255
221 236 255
221 236 255
221 236 255
221 236 255
221 236 255
221 236 255
221 236 255
221 236 255
221 236 255
221 236 255
221 236 255
221 236 255
221 236 255
221 236 255
221 236 255
221 236 255
221 236 255
221 236 255
221 236 255
221 236 255
221 236 255
221 236 255
221 236 255
221 236 255
221 236 255
221 236 255
221 236 255
221 236 255
221 236 255
221 236 255
221 236 255
221 236 255
221 236 255
221 236 255
221 236 255
221 236 255
221 236 255
221 236 255
221 236 255
221 236 255
221 236 255
221 236 255
221 236 255
221 236 255
221 236 255
221 236 255
221 236 255
221 236 255
221 236 255
221 236 255
221 236 255
221 236 255
221 236 255
221 236 255
221 236 255
221 236 255
221 236 255
221 236 255
221 236 255
221 236 255
221 236 255
221 236 255
221 236 255
221 236 255
221 236 255
221 236 255
221 236 255
221 236 255
221 236 255
221 236 255
221 236 255
221 236 255
221 236 255
221 236 255
221 236 255
221 236 255
221 236 255
221 236 255
221 236 255
221 236 255
221 236 255
221 236 255
221 236 255
221 236 255
221 236 255
221 236 255
221 236 255
221 236 255
221 236 255
221 236 255
221 236 255
221 236 255
221 236 255
221 236 255
221 236 255
221 236 255
221 236 255
221 236 255
221 236 255
221 236 255
221 236 255
221 236 255
221 236 255
221 236 255
221 236 255
221 236 255
221 236 255
221 236 255
221 236 255
221 236 255
221 236 255
221 236 255
221 236 255
221 236 255
221 236 255
221 236 255
104 111 157
0 0 113
7 18 116
0 3 114
1 1 115
0 0 115
0 0 113
0 0 113
0 0 113
1 2 113
9 10 114
4 4 115
4 5 115
3 3 113
0 0 113
0 0 113
0 0 113
0 0 113
0 0 113
0 13 115
0 15 115
0 15 115
1 16 115
3 20 114
1 19 114
0 15 114
0 12 114
0 0 113
0 0 113
0 0 113
0 12 114
0 20 116
0 20 116
0 20 116
0 20 116
0 20 116
0 20 116
0 21 116
0 20 116
0 20 116
0 20 116
0 20 116
0 21 116
0 20 116
0 20 116
0 20 116
0 21 116
0 21 116
0 20 116
0 21 116
0 21 116
0 21 116
0 20 116
0 21 116
0 19 117
0 19 117
0 19 117
0 19 117
0 19 117
0 19 117
0 18 117
0 19 117
0 18 117
0 19 117
0 18 117
0 19 117
0 20 117
0 21 117
0 20 117
0 20 117
0 20 117
0 22 118
0 22 118
0 23 118
0 23 118
0 23 117
0 22 117
0 21 117
0 20 117
0 20 117
0 21 117
0 21 117
0 22 117
10 22 119
11 22 119
10 23 119
9 23 119
10 23 119
11 22 119
6 22 118
0 23 118
0 23 118
0 23 118
0 22 117
0 23 118
0 19 118
0 14 118
0 18 119
0 25 119
6 26 120
13 29 122
18 31 122
17 26 120
0 34 121
15 35 123
0 20 119
19 30 118
11 19 129
10 27 120
6 23 119
0 19 118
15 29 120
0 21 119
10 24 119
14 23 120
6 26 120
10 31 122
10 35 124
9 39 125
8 40 126
0 43 129
0 44 131
14 47 132
17 50 135
8 56 138
0 64 144
0 72 146
21 91 160
115 141 147
116 139 79
165 184 178
180 196 204
117 131 80
127 138 100
101 120 56
88 115 27
91 117 27
91 116 11
91 117 20
94 121 27
90 119 28
91 118 29
89 116 28
85 113 16
86 114 18
94 120 33
93 120 41
84 112 11
86 114 26
89 116 28
91 120 28
92 121 32
81 112 21
80 112 16
84 115 31
81 112 34
71 104 24
75 108 30
77 110 19
79 111 15
80 111 16
77 107 16
77 107 25
77 108 19
79 110 21
83 113 28
79 110 24
79 109 10
84 114 16
84 113 36
69 100 13
79 109 20
79 110 10
84 112 21
88 114 31
87 112 28
93 115 31
104 124 52
101 120 40
105 124 49
107 127 55
102 123 44
102 124 50
95 120 44
82 114 20
88 121 61
81 131 74
83 142 107
97 127 49
99 130 34
105 134 45
102 135 49
96 129 54
89 132 114
25 69 140
33 26 122
20 19 113
10 9 114
12 1 116
23 16 114
0 0 113
0 0 113
0 0 113
0 0 113
0 0 113
0 0 113
0 0 113
0 0 113
0 0 113
0 0 113
0 0 113
0 0 113
0 0 113
0 0 113
0 0 113
123 131 171
221 236 255
221 236 255
221 236 255
221 236 255
221 236 255
221 236 255
221 236 255
221 236 255
221 236 255
221 236 255
221 236 255
221 236 255
221 236 255
221 236 255
221 236 255
221 236 255
221 236 255
221 236 255
221 236 255
221 236 255
221 236 255
221 236 255
221 236 255
221 236 255
221 236 255
221 236 255
221 236 255
221 236 255
221 236 255
221 236 255
221 236 255
221 236 255
221 236 255
221 236 255
221 236 255
221 236 255
221 236 255
221 236 255
221 236 255
221 236 255
221 236 255
221 236 255
221 236 255
221 236 255
221 236 255
221 236 255
221 236 255
221 236 255
221 236 255
221 236 255
221 236 255
221 236 255
221 236 255
221 236 255
221 236 255
221 236 255
221 236 255
221 236 255
221 236 255
221 236 255
221 236 255
221 236 255
221 236 255
221 236 255
221 236 255
221 236 255
221 236 255
221 236 255
221 236 255
221 236 255
221 236 255
221 236 255
221 236 255
221 236 255
221 236 255
221 236 255
221 236 255
221 236 255
221 236 255
221 236 255
221 236 255
221 236 255
221 236 255
221 236 255
221 236 255
221 236 255
221 236 255
221 236 255
221 236 255
221 236 255
221 236 255
221 236 255
221 236 255
221 236 255
221 236 255
221 236 255
221 236 255
221 236 255
221 236 255
221 236 255
221 236 255
221 236 255
221 236 255
221 236 255
221 236 255
221 236 255
221 236 255
221 236 255
221 236 255
221 236 255
221 236 255
221 236 255
221 236 255
221 236 255
221 236 255
221 236 255
221 236 255
221 236 255
221 236 255
221 236 255
221 236 255
221 236 255
221 236 255
221 236 255
221 236 255
221 236 255
221 236 255
221 236 255
221 236 255
221 236 255
221 236 255
221 236 255
221 236 255
221 236 255
221 236 255
221 236 255
221 236 255
221 236 255
221 236 255
221 236 255
221 236 255
221 236 255
221 236 255
221 236 255
221 236 255
221 236 255
221 236 255
221 236 255
221 236 255
221 236 255
221 236 255
221 236 255
221 236 255
221 236 255
221 236 255
221 236 255
221 236 255
221 236 255
221 236 255
221 236 255
221 236 255
221 236 255
221 236 255
221 236 255
221 236 255
221 236 255
221 236 255
221 236 255
221 236 255
221 236 255
221 236 255
221 236 255
221 236 255
221 236 255
221 236 255
221 236 255
221 236 255
221 236 255
221 236 255
221 236 255
221 236 255
221 236 255
221 236 255
221 236 255
115 123 165
0 0 113
11 12 116
0 0 113
0 0 112
0 0 113
0 0 113
0 0 113
0 0 113
0 0 113
0 0 113
0 0 113
0 0 113
0 0 113
0 0 113
0 0 113
0 8 112
0 8 112
0 8 113
0 5 113
0 0 113
0 0 113
4 5 113
13 13 114
6 6 113
0 0 113
0 0 113
0 0 113
0 0 113
0 0 112
0 0 113
0 0 113
0 2 113
0 0 113
0 4 113
0 15 115
0 14 115
0 15 115
0 14 115
8 14 116
12 13 116
11 13 116
11 13 116
12 14 116
12 14 116
13 15 116
5 20 116
0 20 116
0 20 116
0 20 116
0 20 116
0 20 116
0 20 116
0 20 116
0 20 116
0 20 116
0 21 116
0 20 116
0 20 116
0 20 116
0 20 116
0 20 116
0 21 116
0 20 116
0 20 116
0 20 116
0 20 116
0 21 116
0 20 116
0 20 116
0 20 116
0 20 116
0 20 116
0 21 116
0 21 116
0 20 116
0 20 116
0 20 116
0 21 116
0 20 116
0 21 116
0 21 116
2 21 116
5 17 118
4 15 118
5 16 118
5 16 118
5 15 118
6 16 119
2 19 117
0 21 116
0 20 116
0 20 116
0 20 116
0 21 116
8 22 117
12 23 118
12 20 119
10 23 119
0 25 119
12 29 121
16 28 121
16 23 117
1 32 117
8 29 125
3 18 119
19 34 110
14 30 116
13 22 120
9 16 118
0 9 117
17 28 118
10 21 116
9 20 117
9 25 119
12 28 120
9 31 123
5 36 125
3 38 125
0 39 126
0 45 131
0 49 135
8 50 135
11 55 137
4 64 142
5 78 150
15 84 156
49 103 171
124 148 166
119 142 92
157 182 170
199 210 216
120 130 99
122 134 92
104 125 66
88 118 35
89 117 25
86 114 11
93 120 32
90 119 18
94 121 27
91 119 26
91 119 29
90 118 27
88 116 18
95 122 34
92 119 35
83 111 0
83 111 14
86 116 25
88 117 17
90 118 32
82 111 25
77 108 5
79 111 11
80 110 19
75 108 33
78 110 31
82 114 29
88 118 38
89 119 40
81 112 19
81 112 26
78 109 34
74 106 22
77 109 19
79 111 19
82 112 34
75 107 17
84 114 34
83 113 14
81 111 34
81 109 20
85 112 24
91 116 39
98 119 46
97 118 45
102 122 50
96 116 33
107 126 59
98 119 33
94 120 47
95 121 28
88 118 17
90 120 40
91 118 36
94 122 43
100 120 31
96 128 55
104 130 32
97 129 49
99 129 47
104 131 36
95 132 83
69 136 148
89 117 135
45 58 124
14 30 118
23 34 124
7 16 114
0 0 113
0 0 113
0 0 113
0 0 113
0 0 113
0 0 113
0 0 113
0 0 113
0 0 113
0 0 113
0 0 113
0 0 113
0 0 113
0 0 113
0 0 113
119 127 168
221 236 255
221 236 255
221 236 255
221 236 255
221 236 255
221 236 255
221 236 255
221 236 255
221 236 255
221 236 255
221 236 255
221 236 255
221 236 255
221 236 255
221 236 255
221 236 255
221 236 255
221 236 255
221 236 255
221 236 255
221 236 255
221 236 255
221 236 255
221 236 255
221 236 255
221 236 255
221 236 255
221 236 255
221 236 255
221 236 255
221 236 255
221 236 255
221 236 255
221 236 255
221 236 255
221 236 255
221 236 255
221 236 255
221 236 255
221 236 255
221 236 255
221 236 255
221 236 255
221 236 255
221 236 255
221 236 255
221 236 255
221 236 255
221 236 255
221 236 255
221 236 255
221 236 255
221 236 255
221 236 255
221 236 255
221 236 255
221 236 255
221 236 255
221 236 255
221 236 255
221 236 255
221 236 255
221 236 255
221 236 255
221 236 255
221 236 255
221 236 255
221 236 255
221 236 255
221 236 255
221 236 255
221 236 255
221 236 255
221 236 255
221 236 255
221 236 255
221 236 255
221 236 255
221 236 255
221 236 255
221 236 255
221 236 255
221 236 255
221 236 255
221 236 255
221 236 255
221 236 255
221 236 255
221 236 255
221 236 255
221 236 255
221 236 255
222 236 255
222 236 255
222 236 255
222 236 255
222 236 255
222 236 255
222 236 255
222 236 255
222 236 255
222 236 255
222 236 255
222 236 255
222 236 255
222 236 255
222 236 255
222 236 255
222 236 255
222 236 255
222 236 255
222 236 255
222 236 255
222 236 255
222 236 255
222 236 255
222 236 255
222 236 255
222 236 255
222 236 255
222 236 255
222 236 255
222 236 255
222 236 255
222 236 255
222 236 255
222 236 255
222 236 255
222 236 255
222 236 255
222 236 255
222 236 255
222 236 255
222 236 255
222 236 255
222 236 255
222 236 255
222 236 255
222 236 255
222 236 255
222 236 255
222 236 255
222 236 255
222 236 255
222 236 255
222 236 255
222 236 255
222 236 255
222 236 255
222 236 255
222 236 255
222 236 255
222 236 255
222 236 255
222 236 255
222 236 255
222 236 255
222 236 255
222 236 255
222 236 255
222 236 255
222 236 255
222 236 255
222 236 255
222 236 255
222 236 255
222 236 255
222 236 255
222 236 255
222 236 255
222 236 255
222 236 255
222 236 255
222 236 255
222 236 255
222 236 255
222 236 255
222 236 255
222 236 255
222 236 255
222 236 255
222 236 255
222 236 255
222 236 255
115 122 165
0 0 115
2 2 114
0 0 113
0 0 113
0 0 113
0 0 112
0 0 113
0 0 113
0 0 113
0 0 113
0 0 113
0 0 113
0 0 113
0 0 113
0 0 113
0 7 113
0 7 113
0 8 112
0 4 113
0 0 113
0 0 113
4 4 113
8 8 113
0 0 113
0 0 113
0 0 113
0 0 113
0 0 113
0 0 113
0 0 113
0 0 113
0 0 113
0 0 113
0 2 113
0 11 115
0 10 115
0 11 115
0 11 115
0 7 115
0 0 115
0 0 115
0 0 115
0 0 115
1 1 115
10 11 116
4 15 116
0 16 116
0 17 116
0 15 116
0 16 116
0 17 116
0 17 116
0 17 116
0 16 116
0 16 116
0 16 116
0 16 116
0 16 116
0 16 116
0 16 116
0 16 116
4 17 116
6 19 116
7 19 116
7 20 116
6 22 116
0 20 116
0 21 116
3 20 116
6 19 116
4 20 116
0 20 116
0 20 116
0 21 116
0 20 116
0 20 116
0 20 116
0 21 116
0 20 116
0 20 116
6 22 116
11 24 117
5 21 116
0 20 116
0 20 116
0 21 116
0 20 116
0 21 116
0 20 116
0 21 116
0 21 116
0 20 116
0 20 117
0 21 117
9 23 117
11 25 118
13 23 120
10 24 120
6 26 120
2 25 119
11 25 121
9 20 122
9 26 114
9 20 121
20 31 120
17 23 119
2 7 125
7 15 118
14 24 119
0 15 115
4 19 116
15 25 118
8 21 117
9 26 120
11 29 122
10 34 124
8 37 125
11 41 126
4 45 129
5 52 134
0 59 138
5 60 139
7 63 142
4 75 148
14 87 157
28 97 163
24 98 160
54 92 157
101 143 162
148 182 193
136 150 127
125 139 90
118 133 86
101 124 59
82 113 16
88 117 32
93 121 38
90 118 23
94 120 32
90 118 20
82 111 0
87 116 15
92 119 29
90 118 23
91 119 23
87 116 28
83 112 10
82 112 19
84 115 20
86 116 18
88 116 29
83 112 28
86 115 25
86 116 30
81 111 13
83 115 41
82 114 36
86 117 31
90 120 40
92 121 50
87 117 37
84 114 13
73 105 12
70 102 19
73 105 24
78 110 22
83 111 41
75 105 24
81 111 12
88 116 28
86 113 28
82 110 24
86 114 32
92 117 38
91 116 39
92 119 36
87 118 34
90 118 34
97 125 49
87 117 12
88 116 39
101 129 54
96 125 33
93 120 20
89 119 22
87 120 20
99 125 41
96 127 37
100 126 51
95 123 45
100 123 40
108 132 57
99 133 86
98 131 79
116 134 84
96 118 101
86 106 109
91 112 103
68 78 119
9 12 110
14 18 110
0 15 112
1 14 111
11 16 114
9 6 112
0 0 113
0 0 113
0 0 113
0 0 112
0 0 113
0 0 113
0 0 113
0 0 113
0 0 113
108 115 159
222 236 255
222 236 255
222 236 255
222 236 255
222 236 255
222 236 255
222 236 255
222 236 255
222 236 255
222 236 255
222 236 255
222 236 255
222 236 255
222 236 255
222 236 255
222 236 255
222 236 255
222 236 255
222 236 255
222 236 255
222 236 255
222 236 255
222 236 255
222 236 255
222 236 255
222 236 255
222 236 255
222 236 255
222 236 255
222 236 255
222 236 255
222 236 255
222 236 255
222 236 255
222 236 255
222 236 255
222 236 255
222 236 255
222 236 255
222 236 255
222 236 255
222 236 255
222 236 255
222 236 255
222 236 255
222 236 255
222 236 255
222 236 255
222 236 255
222 236 255
222 236 255
222 236 255
222 236 255
222 236 255
222 236 255
222 236 255
222 236 255
222 236 255
222 236 255
222 236 255
222 236 255
222 236 255
222 236 255
222 236 255
222 236 255
222 236 255
222 236 255
222 236 255
222 236 255
222 236 255
222 236 255
222 236 255
222 236 255
222 236 255
222 236 255
222 236 255
222 236 255
222 236 255
222 236 255
222 236 255
222 236 255
222 236 255
222 236 255
222 236 255
222 236 255
222 236 255
222 236 255
222 236 255
222 236 255
222 236 255
222 236 255
222 236 255
222 236 255
222 236 255
222 236 255
222 236 255
222 236 255
222 236 255
222 236 255
222 236 255
222 236 255
222 236 255
222 236 255
222 236 255
222 236 255
222 236 255
222 236 255
222 236 255
222 236 255
222 236 255
222 236 255
222 236 255
222 236 255
222 236 255
222 236 255
222 236 255
222 236 255
222 236 255
222 236 255
222 236 255
222 236 255
222 236 255
222 236 255
222 236 255
222 236 255
222 236 255
222 236 255
222 236 255
222 236 255
222 236 255
222 236 255
222 236 255
222 236 255
222 236 255
222 236 255
222 236 255
222 236 255
222 236 255
222 236 255
222 236 255
222 236 255
222 236 255
222 236 255
222 236 255
222 236 255
222 236 255
222 236 255
222 236 255
222 236 255
222 236 255
222 236 255
222 236 255
222 236 255
222 236 255
222 236 255
222 236 255
222 236 255
222 236 255
222 236 255
222 236 255
222 236 255
222 236 255
222 236 255
222 236 255
222 236 255
222 236 255
222 236 255
222 236 255
222 236 255
222 236 255
222 236 255
222 236 255
222 236 255
222 236 255
222 236 255
222 236 255
222 236 255
222 236 255
222 236 255
222 236 255
222 236 255
222 236 255
222 236 255
222 236 255
133 141 179
0 0 115
0 0 114
0 0 113
0 0 113
0 0 113
0 0 113
0 0 113
0 0 113
0 0 113
0 0 113
0 0 113
0 0 113
0 0 113
0 0 113
0 0 113
0 0 113
0 0 113
0 0 113
0 0 113
0 0 113
0 0 113
0 0 113
0 0 113
0 0 113
0 0 113
0 0 113
0 0 113
0 0 113
0 0 113
0 0 113
0 0 113
0 0 113
0 0 113
0 0 113
0 0 115
0 0 115
0 0 115
0 0 115
0 0 115
0 0 115
0 0 115
0 0 115
0 0 115
0 0 115
0 0 115
0 0 115
0 0 115
0 0 115
0 0 115
0 0 115
0 0 115
0 0 115
0 0 115
0 0 115
0 0 115
0 0 115
0 0 115
0 0 115
0 0 115
0 0 115
0 0 115
6 7 115
13 14 116
13 14 116
13 19 117
11 24 117
0 21 116
0 20 116
2 20 116
14 14 116
8 18 116
0 21 116
0 20 116
0 20 116
0 20 116
0 21 116
0 21 116
0 20 116
0 21 116
0 21 116
0 21 116
0 20 116
0 20 116
0 21 116
0 21 116
0 20 116
0 21 116
0 20 116
0 21 116
0 20 116
0 20 116
0 20 116
0 21 118
0 20 118
6 24 119
10 27 120
14 29 121
16 31 121
15 30 121
10 27 120
9 26 120
10 23 119
9 21 119
10 22 119
12 25 120
9 22 119
5 16 118
0 25 119
0 23 118
0 20 116
0 17 116
0 18 117
0 18 118
0 25 117
5 26 120
10 31 122
0 37 125
0 44 128
5 53 133
7 61 137
0 60 138
10 63 141
16 67 145
5 73 149
15 84 154
20 88 158
17 87 157
30 92 161
99 158 187
151 182 181
127 137 92
124 134 97
107 127 66
99 121 40
86 113 9
87 115 29
87 115 25
91 119 20
92 118 21
89 115 22
81 111 18
81 112 23
87 115 28
87 116 24
87 117 21
85 116 24
80 112 16
83 114 19
83 114 19
80 111 20
81 111 12
84 115 22
92 121 39
91 121 43
89 119 28
77 110 11
79 111 0
82 113 9
83 114 18
85 115 32
85 115 33
84 115 25
79 110 21
72 104 25
74 105 20
80 111 22
83 112 35
78 106 28
87 111 36
94 119 49
88 113 26
87 114 32
88 116 37
84 112 34
84 115 29
83 114 14
85 116 20
88 116 23
91 119 17
89 117 15
95 121 51
108 134 63
102 129 42
98 126 40
90 119 30
96 124 45
100 126 46
91 121 24
100 126 49
97 124 54
99 126 46
105 130 50
98 130 66
96 122 45
105 126 54
101 125 46
109 134 56
111 136 62
117 137 86
58 67 118
15 17 114
19 13 114
13 11 115
8 12 116
5 11 112
0 0 113
0 0 113
0 0 113
0 0 113
0 0 113
0 0 113
0 0 113
0 0 113
0 0 113
125 133 172
222 236 255
222 236 255
222 236 255
222 236 255
222 236 255
222 236 255
222 236 255
222 236 255
222 236 255
222 236 255
222 236 255
222 236 255
222 236 255
222 236 255
222 236 255
222 236 255
222 236 255
222 236 255
222 236 255
222 236 255
222 236 255
222 236 255
222 236 255
222 236 255
222 236 255
222 236 255
222 236 255
222 236 255
222 236 255
222 236 255
222 236 255
222 236 255
222 236 255
222 236 255
222 236 255
222 236 255
222 236 255
222 236 255
222 236 255
222 236 255
222 236 255
222 236 255
222 236 255
222 236 255
222 236 255
222 236 255
222 236 255
222 236 255
222 236 255
222 236 255
222 236 255
222 236 255
222 236 255
222 236 255
222 236 255
222 236 255
222 236 255
222 236 255
222 236 255
222 236 255
222 236 255
222 236 255
222 236 255
222 236 255
222 236 255
222 236 255
222 236 255
222 236 255
222 236 255
222 236 255
222 236 255
222 236 255
222 236 255
222 236 255
222 236 255
222 236 255
222 236 255
222 236 255
222 236 255
222 236 255
222 236 255
222 236 255
222 236 255
222 236 255
222 236 255
222 236 255
222 236 255
222 236 255
222 236 255
222 236 255
222 236 255
222 236 255
222 236 255
222 236 255
222 236 255
222 236 255
222 236 255
222 236 255
222 236 255
222 236 255
222 236 255
222 236 255
222 236 255
222 236 255
222 236 255
222 236 255
222 236 255
222 236 255
222 236 255
222 236 255
222 236 255
222 236 255
222 236 255
222 236 255
222 236 255
222 236 255
222 236 255
222 236 255
222 236 255
222 236 255
222 236 255
222 236 255
222 236 255
222 236 255
222 236 255
222 236 255
222 236 255
222 236 255
222 236 255
222 236 255
222 236 255
222 236 255
222 236 255
222 236 255
222 236 255
222 236 255
222 236 255
222 236 255
222 236 255
222 236 255
222 236 255
222 236 255
222 236 255
222 236 255
222 236 255
222 236 255
222 236 255
222 236 255
222 236 255
222 236 255
222 236 255
222 236 255
222 236 255
222 236 255
222 236 255
222 236 255
222 236 255
222 236 255
222 236 255
222 236 255
222 236 255
222 236 255
222 236 255
222 236 255
222 236 255
222 236 255
222 236 255
222 236 255
222 236 255
222 236 255
222 236 255
222 236 255
222 236 255
222 236 255
222 236 255
222 236 255
222 236 255
222 236 255
222 236 255
222 236 255
222 236 255
222 236 255
222 236 255
222 236 255
157 167 198
0 0 115
0 0 115
0 0 113
0 0 113
0 0 113
0 0 113
0 0 113
0 0 113
0 0 113
0 0 113
0 0 113
0 0 113
0 0 113
0 0 113
0 0 112
0 0 113
0 0 113
0 0 113
0 0 113
0 0 113
0 0 113
0 0 113
0 0 113
0 0 113
0 0 113
0 0 113
0 0 113
0 0 113
0 0 113
0 0 113
0 0 113
0 0 113
0 0 113
0 0 113
0 0 115
0 0 115
0 0 115
0 0 115
0 0 115
0 0 115
0 0 115
0 0 115
0 0 115
0 0 115
0 0 115
0 0 115
0 0 115
0 0 115
0 0 115
0 0 115
0 0 115
0 0 115
0 0 115
0 0 115
0 0 115
0 0 115
0 0 115
0 0 115
0 0 115
0 0 115
0 0 115
6 6 115
13 14 116
13 14 116
12 18 116
3 21 116
0 21 116
0 21 116
3 20 116
13 14 116
6 20 116
0 21 116
0 20 116
0 20 116
0 20 116
0 20 116
0 21 116
0 20 116
0 20 116
0 20 116
0 21 116
0 21 116
0 20 116
0 20 116
0 21 116
0 20 116
0 20 116
0 20 116
0 20 116
0 20 116
0 21 116
0 21 116
0 21 118
0 20 118
5 25 120
8 31 122
8 32 123
11 32 123
9 32 123
8 29 122
7 28 121
0 25 119
0 22 119
0 22 119
0 25 119
0 23 119
0 16 118
0 24 119
0 21 118
0 20 116
0 21 116
0 20 117
0 20 118
0 24 118
10 29 121
5 34 124
0 39 127
0 46 131
0 55 136
8 57 138
11 57 139
24 57 140
12 61 143
0 68 148
0 80 154
10 82 153
32 82 155
83 119 143
126 155 147
137 151 124
119 132 88
109 133 79
100 122 55
97 121 43
86 115 24
83 112 22
84 115 21
85 116 6
86 116 10
83 114 12
80 112 20
74 106 10
76 107 6
85 114 28
84 114 21
80 111 13
80 111 12
84 114 27
83 115 26
78 109 9
82 112 24
84 115 30
86 117 32
83 114 23
80 111 15
78 111 8
83 115 21
85 116 27
82 113 14
80 111 9
80 111 22
85 115 37
86 115 41
80 110 40
82 112 39
84 114 33
83 113 31
82 113 33
87 114 37
87 114 31
86 113 36
86 113 31
86 114 24
81 111 11
82 113 17
84 115 17
83 114 11
87 116 21
92 120 28
96 123 43
92 120 34
93 121 31
93 121 18
96 125 41
95 125 38
95 121 56
101 127 57
92 120 23
96 123 42
92 118 33
100 126 45
110 133 62
96 124 45
97 122 37
101 124 44
105 127 62
107 129 70
113 136 82
115 138 69
103 120 90
31 32 115
18 20 110
17 20 112
7 14 114
0 7 113
0 0 113
0 0 113
0 0 113
0 0 113
0 0 113
0 0 113
0 0 113
0 0 113
0 0 113
147 156 189
222 236 255
222 236 255
222 236 255
222 236 255
222 236 255
222 236 255
222 236 255
222 236 255
222 236 255
222 236 255
222 236 255
222 236 255
222 236 255
222 236 255
222 236 255
222 236 255
222 236 255
222 236 255
222 236 255
222 236 255
222 236 255
222 236 255
222 236 255
222 236 255
222 236 255
222 236 255
222 236 255
222 236 255
222 236 255
222 236 255
222 236 255
222 236 255
222 236 255
222 236 255
222 236 255
222 236 255
222 236 255
222 236 255
222 236 255
222 236 255
222 236 255
222 236 255
222 236 255
222 236 255
222 236 255
222 236 255
222 236 255
222 236 255
222 236 255
222 236 255
222 236 255
222 236 255
222 236 255
222 236 255
222 236 255
222 236 255
222 236 255
222 236 255
222 236 255
222 236 255
222 236 255
222 236 255
222 236 255
222 236 255
222 236 255
222 236 255
222 236 255
222 236 255
222 236 255
222 236 255
222 236 255
222 236 255
222 236 255
222 236 255
222 236 255
222 236 255
222 236 255
222 236 255
222 236 255
222 236 255
222 236 255
222 236 255
222 236 255
222 236 255
222 236 255
222 236 255
222 236 255
222 236 255
222 236 255
222 236 255
222 236 255
222 236 255
222 236 255
222 236 255
222 236 255
222 236 255
222 236 255
222 236 255
222 236 255
222 236 255
222 236 255
222 236 255
222 236 255
222 236 255
222 236 255
222 236 255
222 236 255
222 236 255
222 236 255
222 236 255
222 236 255
222 236 255
222 236 255
222 236 255
222 236 255
222 236 255
222 236 255
222 236 255
222 236 255
222 236 255
222 236 255
222 236 255
222 236 255
222 236 255
222 236 255
222 236 255
222 236 255
222 236 255
222 236 255
222 236 255
222 236 255
222 236 255
222 236 255
222 236 255
222 236 255
222 236 255
222 236 255
222 236 255
222 236 255
222 236 255
222 236 255
222 236 255
222 236 255
222 236 255
222 236 255
222 236 255
222 236 255
222 236 255
222 236 255
222 236 255
222 236 255
222 236 255
222 236 255
222 236 255
222 236 255
222 236 255
222 236 255
222 236 255
222 236 255
222 236 255
222 236 255
222 236 255
222 236 255
222 236 255
222 236 255
222 236 255
222 236 255
222 236 255
222 236 255
222 236 255
222 236 255
222 236 255
222 236 255
222 236 255
222 236 255
222 236 255
222 236 255
222 236 255
222 236 255
222 236 255
222 236 255
222 236 255
222 236 255
222 236 255
177 189 216
0 0 115
0 0 115
0 0 113
0 0 113
0 0 113
0 0 113
0 0 113
0 0 113
0 0 113
0 0 113
0 0 113
0 0 113
0 0 113
0 0 113
0 0 113
0 0 113
0 0 113
0 0 113
0 0 113
0 0 113
0 0 113
0 0 113
0 0 113
0 0 113
0 0 113
0 0 113
0 0 113
0 0 113
0 0 113
0 0 113
0 0 113
0 0 113
0 0 113
0 0 113
0 0 115
0 0 115
0 0 115
0 0 115
0 0 115
0 0 115
0 0 115
0 0 115
0 0 115
0 0 115
0 0 114
0 0 114
0 0 114
0 0 114
0 0 115
0 0 115
0 0 115
0 0 115
0 0 115
0 0 115
0 0 115
0 0 115
0 0 115
0 0 115
0 0 115
0 0 115
0 0 115
7 7 115
14 14 116
14 14 116
11 17 116
0 21 116
0 20 116
0 21 116
1 20 116
13 14 116
8 16 116
0 18 116
0 19 116
0 19 116
0 20 116
0 19 116
0 19 116
0 20 116
0 21 116
0 20 116
0 21 116
0 21 116
0 20 116
0 21 116
0 21 116
0 21 116
0 21 116
0 21 116
0 21 116
0 21 116
0 21 116
0 21 116
0 20 118
0 25 119
2 29 121
1 33 124
0 33 124
0 33 124
0 31 123
0 30 123
7 29 122
11 28 120
3 25 119
4 25 119
8 27 120
11 28 120
4 21 119
0 21 119
0 20 117
0 21 116
0 21 116
0 21 117
0 23 119
3 25 118
12 30 121
4 36 125
3 42 127
0 49 132
0 56 137
13 58 139
22 57 140
23 57 140
9 60 142
16 72 149
21 89 159
15 83 158
98 115 148
118 139 105
104 128 43
104 132 51
120 127 88
105 122 58
99 123 56
101 127 61
93 122 46
81 114 29
84 116 33
81 116 8
81 117 10
76 113 7
78 114 18
74 107 13
80 110 25
86 114 41
79 110 18
76 108 8
77 108 11
83 113 30
83 113 29
84 114 35
88 117 45
82 113 35
78 109 12
80 110 20
77 108 14
79 112 16
86 116 34
87 117 32
83 114 28
82 112 15
76 108 14
78 110 23
77 109 18
77 108 29
80 111 27
82 114 18
80 113 20
79 111 17
78 109 13
79 110 21
79 108 20
79 107 3
84 114 18
83 113 22
85 115 27
91 120 36
87 118 24
92 120 26
90 118 24
89 117 29
91 119 16
92 120 21
91 121 18
94 124 29
96 126 40
85 112 47
100 125 57
95 122 43
105 129 55
100 125 53
107 131 60
109 133 70
103 128 57
97 122 40
96 120 35
107 129 57
112 131 76
115 136 81
113 135 82
116 136 81
59 67 117
10 15 115
8 18 117
14 15 112
9 0 115
0 0 113
0 0 113
0 0 113
0 0 113
0 0 113
0 0 113
0 0 113
0 0 113
0 0 113
169 179 208
222 236 255
222 236 255
222 236 255
222 236 255
222 236 255
222 236 255
222 236 255
222 236 255
222 236 255
222 236 255
222 236 255
222 236 255
222 236 255
222 236 255
222 236 255
222 236 255
222 236 255
222 236 255
222 236 255
222 236 255
222 236 255
222 236 255
222 236 255
222 236 255
222 236 255
222 236 255
222 236 255
222 236 255
222 236 255
222 236 255
222 236 255
222 236 255
222 236 255
222 236 255
222 236 255
222 236 255
222 236 255
222 236 255
222 236 255
222 236 255
222 236 255
222 236 255
222 236 255
222 236 255
222 236 255
222 236 255
222 236 255
222 236 255
222 236 255
222 236 255
222 236 255
222 236 255
222 236 255
222 236 255
222 236 255
222 236 255
222 236 255
222 236 255
222 236 255
222 236 255
222 236 255
222 236 255
222 236 255
222 236 255
222 236 255
222 236 255
222 236 255
222 236 255
222 236 255
222 236 255
222 236 255
222 236 255
222 236 255
222 236 255
222 236 255
222 236 255
222 236 255
222 236 255
222 236 255
222 236 255
222 236 255
222 236 255
222 236 255
222 236 255
222 236 255
222 236 255
222 236 255
222 236 255
222 236 255
222 236 255
222 236 255
222 236 255
222 236 255
222 236 255
222 236 255
222 236 255
222 236 255
222 236 255
222 236 255
222 236 255
222 236 255
222 236 255
222 236 255
222 236 255
222 236 255
222 236 255
222 236 255
222 236 255
222 236 255
222 236 255
222 236 255
222 236 255
222 236 255
222 236 255
222 236 255
222 236 255
222 236 255
222 236 255
222 236 255
222 236 255
222 236 255
222 236 255
222 236 255
222 236 255
222 236 255
222 236 255
222 236 255
222 236 255
222 236 255
222 236 255
222 236 255
222 236 255
222 236 255
222 236 255
222 236 255
222 236 255
222 236 255
222 236 255
222 236 255
222 236 255
222 236 255
222 236 255
222 236 255
222 236 255
222 236 255
222 236 255
222 236 255
222 236 255
222 236 255
222 236 255
222 236 255
222 236 255
222 236 255
222 236 255
222 236 255
222 236 255
222 236 255
222 236 255
222 236 255
222 236 255
222 236 255
222 236 255
222 236 255
222 236 255
222 236 255
222 236 255
222 236 255
222 236 255
222 236 255
222 236 255
222 236 255
222 236 255
222 236 255
222 236 255
222 236 255
222 236 255
222 236 255
222 236 255
222 236 255
222 236 255
222 236 255
222 236 255
222 236 255
222 236 255
161 172 202
0 0 115
0 0 115
0 0 113
0 0 113
0 0 113
0 0 113
0 0 113
0 0 113
0 0 113
0 0 113
0 0 113
0 0 113
0 0 113
0 0 113
0 0 113
0 0 113
0 0 113
0 0 113
0 0 112
0 0 113
0 0 113
0 0 113
0 0 113
0 0 113
0 0 113
0 0 113
0 0 113
0 0 113
0 0 113
0 0 113
0 0 113
0 0 113
0 0 113
0 0 113
0 0 115
0 0 115
0 0 115
0 0 115
0 0 115
0 0 115
0 0 115
0 0 115
0 0 115
0 0 114
0 0 113
0 0 113
0 0 113
0 0 113
0 0 114
0 0 115
0 0 115
0 0 115
0 0 115
0 0 115
0 0 115
0 0 115
0 0 115
0 0 115
0 0 115
0 0 115
0 0 115
5 5 115
13 14 116
13 14 116
11 17 116
0 20 116
0 21 116
0 21 116
2 19 116
8 8 115
0 0 115
0 0 115
0 0 115
0 0 115
0 0 115
0 0 115
0 12 115
0 15 115
0 20 116
0 21 116
0 21 116
0 21 116
0 21 116
0 20 116
0 20 116
0 21 116
0 20 116
0 21 116
0 21 116
0 20 116
0 20 116
0 21 116
0 22 118
0 25 119
11 31 122
11 35 125
8 34 125
6 33 125
0 33 124
0 33 124
11 33 124
19 32 122
15 30 121
14 29 121
17 31 121
17 32 121
14 30 121
0 25 119
0 22 118
0 21 116
0 21 116
0 22 117
0 25 119
9 20 119
12 30 121
9 37 125
8 43 128
0 47 132
0 52 135
0 54 136
10 57 137
9 57 137
0 58 139
0 74 148
21 95 161
49 111 164
128 152 153
145 153 105
121 142 94
114 132 73
113 126 77
100 120 47
97 121 53
100 126 58
87 117 39
80 112 27
84 116 32
82 116 16
81 116 17
78 115 14
79 115 26
81 114 31
83 113 32
85 113 32
79 110 17
77 108 11
76 107 12
78 109 21
77 108 18
77 108 20
80 111 29
77 108 19
76 108 10
81 112 27
81 111 20
80 113 16
84 114 27
80 111 19
82 112 20
82 113 14
79 111 28
77 110 21
74 108 3
75 108 22
78 111 22
75 109 0
77 111 0
76 110 0
78 111 19
79 110 28
74 106 17
80 110 15
83 115 21
83 113 27
84 115 31
89 119 39
86 117 23
91 119 17
88 116 13
85 113 6
91 119 15
89 118 10
87 119 8
88 119 14
92 122 22
91 117 49
103 128 57
103 128 54
115 138 70
107 130 65
96 122 38
106 128 63
99 123 46
101 126 55
103 125 59
113 130 76
108 124 81
118 134 81
120 137 80
126 141 88
123 135 119
72 76 121
47 52 114
18 12 113
3 0 113
0 0 113
0 0 113
0 0 113
0 0 113
0 0 113
0 0 113
0 0 113
0 0 113
0 0 113
176 187 214
222 236 255
222 236 255
222 236 255
222 236 255
222 236 255
222 236 255
222 236 255
222 236 255
222 236 255
222 236 255
222 236 255
222 236 255
222 236 255
222 236 255
222 236 255
222 236 255
222 236 255
222 236 255
222 236 255
222 236 255
222 236 255
222 236 255
222 236 255
222 236 255
222 236 255
222 236 255
222 236 255
222 236 255
222 236 255
222 236 255
222 236 255
222 236 255
222 236 255
222 236 255
222 236 255
222 236 255
222 236 255
222 236 255
222 236 255
222 236 255
222 236 255
222 236 255
222 236 255
222 236 255
222 236 255
222 236 255
222 236 255
222 236 255
222 236 255
222 236 255
222 236 255
222 236 255
222 236 255
222 236 255
222 236 255
222 236 255
222 236 255
222 236 255
222 236 255
222 236 255
222 236 255
222 236 255
222 236 255
222 236 255
222 236 255
222 236 255
222 236 255
222 236 255
222 236 255
222 236 255
222 236 255
222 236 255
222 236 255
222 236 255
222 236 255
222 236 255
222 236 255
222 236 255
222 236 255
222 236 255
222 236 255
222 236 255
222 236 255
222 236 255
222 236 255
222 236 255
222 236 255
222 236 255
222 236 255
222 236 255
222 236 255
222 236 255
222 236 255
222 236 255
222 236 255
222 236 255
222 236 255
222 236 255
222 236 255
222 236 255
222 236 255
222 236 255
222 236 255
222 236 255
222 236 255
222 236 255
222 236 255
222 236 255
222 236 255
222 236 255
222 236 255
222 236 255
222 236 255
222 236 255
222 236 255
222 236 255
222 236 255
222 236 255
222 236 255
222 236 255
222 236 255
222 236 255
222 236 255
222 236 255
222 236 255
222 236 255
222 236 255
222 236 255
222 236 255
222 236 255
222 236 255
222 236 255
222 236 255
222 236 255
222 236 255
222 236 255
222 236 255
222 236 255
222 236 255
222 236 255
222 236 255
222 236 255
222 236 255
222 236 255
222 236 255
222 236 255
222 236 255
222 236 255
222 236 255
222 236 255
222 236 255
222 236 255
222 236 255
222 236 255
222 236 255
222 236 255
222 236 255
222 236 255
222 236 255
222 236 255
222 236 255
222 236 255
222 236 255
222 236 255
222 236 255
222 236 255
222 236 255
222 236 255
222 236 255
222 236 255
222 236 255
222 236 255
222 236 255
222 236 255
222 236 255
222 236 255
222 236 255
222 236 255
222 236 255
222 236 255
222 236 255
222 236 255
222 236 255
222 236 255
179 190 217
0 0 115
0 0 115
0 0 113
0 0 113
0 0 113
0 0 113
0 0 113
0 0 113
0 0 113
0 0 113
0 0 113
0 0 113
0 0 113
0 0 113
0 0 113
0 0 113
0 0 113
0 0 113
0 0 113
0 0 113
0 0 113
0 0 113
0 0 113
0 0 113
0 0 113
0 0 113
0 0 113
0 0 113
0 0 113
0 0 113
0 0 113
0 0 113
0 0 113
0 0 113
0 0 115
0 0 115
0 0 115
0 0 115
0 0 115
0 0 113
0 0 113
0 0 113
0 0 113
0 0 113
0 0 113
0 0 113
0 0 113
0 0 113
0 0 114
0 0 115
0 0 115
0 0 115
0 0 115
0 0 115
0 0 115
0 0 115
0 0 115
0 0 115
0 0 115
0 0 115
0 0 115
4 5 115
14 14 116
14 14 116
10 17 116
0 21 116
0 20 116
0 21 116
0 17 115
0 0 115
0 0 114
0 0 114
0 0 114
0 0 114
0 0 114
0 0 114
0 7 115
0 8 115
0 11 115
9 16 116
10 17 116
11 17 116
6 19 116
0 21 116
0 20 116
0 21 116
0 20 116
0 20 116
0 20 116
0 21 116
0 21 116
0 21 116
0 24 119
5 26 120
13 32 122
14 36 125
9 35 124
7 33 124
0 31 123
0 31 123
10 33 123
20 33 122
11 28 120
10 28 120
16 31 121
16 31 121
14 29 121
0 25 119
6 24 118
5 21 116
0 20 116
0 21 117
0 22 119
0 17 120
12 30 122
6 37 124
4 41 127
0 43 128
8 43 131
10 50 133
3 54 133
17 55 135
14 55 136
0 68 144
21 92 158
39 113 172
133 157 160
176 175 134
135 149 107
116 132 81
107 128 79
109 126 67
97 121 52
95 120 45
83 113 20
78 110 22
81 113 25
84 116 28
84 117 30
76 112 11
77 113 14
83 116 30
83 114 27
79 111 14
77 110 5
75 108 0
74 107 0
75 108 23
75 108 17
73 106 0
72 105 10
73 106 16
78 109 19
80 112 19
81 113 16
83 115 25
83 114 24
80 110 4
81 112 22
83 114 15
79 111 29
77 110 10
75 109 5
78 110 29
79 112 27
81 113 19
83 113 25
81 112 17
81 111 19
78 109 23
74 106 17
84 115 22
84 115 13
79 110 17
81 113 25
81 112 17
83 114 15
91 119 12
89 117 18
90 117 22
88 116 10
83 114 3
91 121 22
89 120 26
93 123 41
103 129 51
107 131 67
107 132 59
115 136 67
100 124 55
97 123 44
104 127 64
102 127 60
100 125 56
109 127 69
115 132 77
115 130 81
124 137 87
126 139 89
138 147 102
139 146 114
140 146 124
94 99 106
19 22 114
0 0 113
0 0 113
0 0 113
0 0 113
0 0 113
0 0 113
0 0 113
0 0 113
0 0 112
5 5 113
188 200 225
222 236 255
222 236 255
222 236 255
222 236 255
222 236 255
222 236 255
222 236 255
222 236 255
222 236 255
222 236 255
222 236 255
222 236 255
222 236 255
222 236 255
222 236 255
222 236 255
222 236 255
222 236 255
222 236 255
222 236 255
222 236 255
222 236 255
222 236 255
222 236 255
222 236 255
222 236 255
222 236 255
222 236 255
222 236 255
222 236 255
222 236 255
222 236 255
222 236 255
222 236 255
222 236 255
222 236 255
222 236 255
222 236 255
222 236 255
222 236 255
222 236 255
222 236 255
222 236 255
222 236 255
222 236 255
222 236 255
222 236 255
222 236 255
222 236 255
222 236 255
222 236 255
222 236 255
222 236 255
222 236 255
222 236 255
222 236 255
222 236 255
222 236 255
222 236 255
222 236 255
222 236 255
222 236 255
222 236 255
222 236 255
222 236 255
222 236 255
222 236 255
222 236 255
222 236 255
222 236 255
222 236 255
222 236 255
222 236 255
222 236 255
222 236 255
222 236 255
222 236 255
222 236 255
222 236 255
222 236 255
222 236 255
222 236 255
222 236 255
222 236 255
222 236 255
222 236 255
222 236 255
222 236 255
222 236 255
222 236 255
222 236 255
222 236 255
222 236 255
222 236 255
222 236 255
222 236 255
222 236 255
222 236 255
222 236 255
222 236 255
222 236 255
222 236 255
222 236 255
222 236 255
222 236 255
222 236 255
222 236 255
222 236 255
222 236 255
222 236 255
222 236 255
222 236 255
222 236 255
222 236 255
222 236 255
222 236 255
222 236 255
222 236 255
222 236 255
222 236 255
222 236 255
222 236 255
222 236 255
222 236 255
222 236 255
222 236 255
222 236 255
222 236 255
222 236 255
222 236 255
222 236 255
222 236 255
222 236 255
222 236 255
222 236 255
222 236 255
222 236 255
222 236 255
222 236 255
222 236 255
222 236 255
222 236 255
222 236 255
222 236 255
222 236 255
222 236 255
222 236 255
222 236 255
222 236 255
222 236 255
222 236 255
222 236 255
222 236 255
222 236 255
222 236 255
222 236 255
222 236 255
222 236 255
222 236 255
222 236 255
222 236 255
222 236 255
222 236 255
222 236 255
222 236 255
222 236 255
222 236 255
222 236 255
222 236 255
222 236 255
222 236 255
222 236 255
222 236 255
222 236 255
222 236 255
222 236 255
222 236 255
222 236 255
222 236 255
222 236 255
222 236 255
222 236 255
222 236 255
222 236 255
207 220 241
0 0 115
0 0 114
0 0 113
0 0 113
0 0 113
0 0 113
0 0 113
0 0 113
0 0 113
0 0 113
0 0 113
0 0 113
0 0 113
0 0 113
0 0 113
0 0 113
0 0 113
0 0 113
0 0 113
0 0 113
0 0 112
0 0 113
0 0 113
0 0 113
0 0 113
0 0 113
0 0 113
0 0 113
0 0 113
0 0 113
0 0 113
0 0 113
0 0 113
0 0 113
0 0 114
0 0 114
0 0 114
0 0 114
0 0 114
0 0 113
0 0 113
0 0 113
0 0 113
0 0 113
0 0 113
0 0 113
0 0 113
0 0 113
0 0 114
0 0 115
0 0 114
0 0 115
0 0 114
0 0 115
0 0 115
0 0 115
0 0 115
0 0 115
0 0 115
0 0 115
0 0 115
5 6 115
13 14 116
13 13 116
11 15 116
0 19 116
0 20 116
3 18 116
0 15 115
0 9 115
0 5 114
0 0 113
0 0 113
0 0 113
0 0 113
0 0 113
0 4 115
0 6 115
0 5 115
11 13 116
13 15 116
13 15 116
7 19 116
0 20 116
0 21 116
0 21 116
0 20 116
0 21 116
0 20 116
0 21 116
2 21 116
2 21 116
0 24 119
6 26 120
12 31 122
6 32 123
1 30 123
0 26 122
0 26 122
0 26 122
5 28 122
7 32 121
3 30 120
3 26 119
5 29 120
5 29 120
6 29 120
10 28 120
9 25 118
8 22 117
0 21 116
0 21 117
0 21 118
0 16 119
5 28 122
0 36 124
1 39 125
5 39 125
18 39 127
13 46 130
12 48 131
30 50 133
23 51 134
0 57 137
10 82 154
19 88 161
91 130 165
185 187 166
153 158 123
120 134 78
116 128 73
110 136 78
106 128 69
96 121 48
84 112 29
83 112 36
80 111 19
85 116 28
80 112 16
79 112 9
85 119 32
86 118 33
82 114 12
79 112 3
78 112 4
77 110 7
75 108 8
74 107 19
72 105 16
71 105 3
72 105 10
71 105 18
75 108 15
79 111 15
85 117 24
82 114 15
78 110 9
76 108 9
82 112 23
81 113 18
78 111 24
78 111 24
81 113 25
78 110 32
79 111 25
82 113 23
86 115 30
80 111 16
81 112 15
78 110 23
79 110 13
84 114 9
83 113 14
76 108 10
78 111 13
80 112 7
84 115 12
87 116 15
84 114 13
85 115 7
87 116 11
83 114 7
89 120 18
87 118 16
93 122 55
103 130 47
106 133 68
110 132 60
112 131 66
109 130 66
105 124 56
106 122 62
101 125 60
99 125 55
109 126 62
116 130 70
118 135 89
130 140 94
122 139 87
131 143 104
147 151 127
141 145 116
99 108 103
8 11 113
0 0 113
0 0 112
0 0 113
0 0 113
0 0 113
0 0 113
0 0 113
0 0 113
0 0 113
4 4 113
197 210 233
222 236 255
222 236 255
222 236 255
222 236 255
222 236 255
222 236 255
222 236 255
222 236 255
222 236 255
222 236 255
222 236 255
222 236 255
222 236 255
222 236 255
222 236 255
222 236 255
222 236 255
222 236 255
222 236 255
222 236 255
222 236 255
222 236 255
222 236 255
222 236 255
222 236 255
222 236 255
222 236 255
222 236 255
222 236 255
222 236 255
222 236 255
222 236 255
222 236 255
222 236 255
222 236 255
222 236 255
222 236 255
222 236 255
222 236 255
222 236 255
222 236 255
222 236 255
222 236 255
222 236 255
222 236 255
222 236 255
222 236 255
222 236 255
222 236 255
222 236 255
222 236 255
222 236 255
222 236 255
222 236 255
222 236 255
222 236 255
222 236 255
222 236 255
222 236 255
222 236 255
222 236 255
222 236 255
222 236 255
222 236 255
222 236 255
222 236 255
222 236 255
222 236 255
222 236 255
222 236 255
222 236 255
222 236 255
222 236 255
222 236 255
222 236 255
222 236 255
222 236 255
222 236 255
222 236 255
222 236 255
222 236 255
222 236 255
222 236 255
222 236 255
222 236 255
222 236 255
222 236 255
222 236 255
222 236 255
222 236 255
222 236 255
222 236 255
222 236 255
222 236 255
222 236 255
222 236 255
222 236 255
222 236 255
222 236 255
222 236 255
222 236 255
222 236 255
222 236 255
222 236 255
222 236 255
222 236 255
222 236 255
222 236 255
222 236 255
222 236 255
222 236 255
222 236 255
222 236 255
222 236 255
222 236 255
222 236 255
222 236 255
222 236 255
222 236 255
222 236 255
222 236 255
222 236 255
222 236 255
222 236 255
222 236 255
222 236 255
222 236 255
222 236 255
222 236 255
222 236 255
222 236 255
222 236 255
222 236 255
222 236 255
222 236 255
222 236 255
222 236 255
222 236 255
222 236 255
222 236 255
222 236 255
222 236 255
222 236 255
222 236 255
222 236 255
222 236 255
222 236 255
222 236 255
222 236 255
222 236 255
222 236 255
222 236 255
222 236 255
222 236 255
222 236 255
222 236 255
222 236 255
222 236 255
222 236 255
222 236 255
222 236 255
222 236 255
222 236 255
222 236 255
222 236 255
222 236 255
222 236 255
222 236 255
222 236 255
222 236 255
222 236 255
222 236 255
222 236 255
222 236 255
222 236 255
222 236 255
222 236 255
222 236 255
222 236 255
222 236 255
222 236 255
222 236 255
222 236 255
222 236 255
217 231 251
0 0 115
0 0 114
0 0 113
0 0 113
0 0 113
0 0 113
0 0 113
0 0 113
0 0 113
0 0 113
0 0 113
0 0 113
0 0 113
0 0 113
0 0 113
0 0 113
0 0 113
0 0 113
0 0 113
0 0 113
0 0 113
0 0 113
0 0 113
0 0 113
0 0 113
0 0 113
0 0 113
0 0 113
0 0 113
0 0 113
0 0 113
0 0 112
0 0 113
0 0 113
0 0 113
0 0 113
0 0 113
0 0 113
0 0 113
0 0 113
0 0 113
0 0 113
0 0 113
0 0 113
0 0 113
0 0 113
0 0 113
0 0 113
0 0 113
0 0 113
0 0 113
0 0 113
0 0 113
0 0 113
0 0 113
0 0 113
0 0 113
0 0 113
0 0 115
0 0 115
4 4 115
12 13 116
12 13 116
5 6 115
4 4 115
7 7 115
8 9 116
11 17 116
0 20 116
0 20 116
5 16 116
8 9 116
8 9 116
7 7 115
8 9 116
7 8 115
4 17 116
0 21 116
0 21 116
0 21 116
0 21 116
0 20 116
0 21 116
0 21 116
0 20 116
0 20 116
0 21 116
0 20 116
0 20 116
1 20 116
12 24 117
12 24 117
13 25 117
13 25 117
11 24 117
0 21 116
0 21 116
0 21 116
0 21 116
0 17 116
6 16 116
13 20 119
13 20 119
4 25 119
0 25 119
0 25 121
0 25 122
13 29 122
9 27 119
0 22 117
0 21 115
0 21 116
8 23 117
5 25 118
0 30 120
9 37 122
13 37 124
13 36 125
11 36 125
12 39 127
25 45 131
15 48 132
0 51 134
10 65 143
14 75 149
9 66 148
105 125 166
204 214 213
179 183 158
135 143 108
121 132 79
125 140 90
122 138 93
103 121 64
95 116 53
98 120 55
82 113 23
88 121 33
83 116 22
86 119 27
91 123 40
84 117 21
79 111 0
78 111 7
80 112 18
78 111 8
76 110 0
74 108 0
74 108 14
73 106 12
73 106 15
71 104 4
73 105 5
81 112 20
86 116 29
80 111 0
75 106 4
76 108 13
81 112 19
78 111 19
77 111 15
79 111 26
79 111 30
79 111 26
81 113 16
87 116 26
88 116 21
84 114 5
80 112 7
78 111 14
81 112 5
85 113 10
79 109 14
75 108 7
77 110 0
81 112 0
84 115 3
84 114 17
83 113 17
88 119 18
87 119 25
90 120 34
95 124 44
87 117 31
90 118 41
112 137 66
110 138 71
113 132 65
115 130 69
114 132 73
114 128 73
118 128 77
101 120 52
105 123 57
111 126 68
115 128 75
122 133 92
129 137 96
129 140 93
138 145 110
151 151 126
141 144 109
109 121 95
10 11 114
0 0 113
0 0 113
0 0 113
0 0 113
0 0 113
0 0 113
0 0 113
0 0 113
0 0 113
0 0 113
217 231 251
222 236 255
222 236 255
222 236 255
222 236 255
222 236 255
222 236 255
222 236 255
222 236 255
222 236 255
222 236 255
222 236 255
222 236 255
222 236 255
222 236 255
222 236 255
222 236 255
222 236 255
222 236 255
222 236 255
222 236 255
222 236 255
222 236 255
222 236 255
222 236 255
222 236 255
222 236 255
222 236 255
222 236 255
222 236 255
222 236 255
222 236 255
222 236 255
222 236 255
222 236 255
222 236 255
222 236 255
222 236 255
222 236 255
222 236 255
222 236 255
222 236 255
222 236 255
222 236 255
222 236 255
222 236 255
222 236 255
222 236 255
222 236 255
222 236 255
222 236 255
222 236 255
222 236 255
222 236 255
222 236 255
222 236 255
222 236 255
222 236 255
222 236 255
222 236 255
222 236 255
222 236 255
222 236 255
222 236 255
222 236 255
222 236 255
222 236 255
222 236 255
222 236 255
222 236 255
222 236 255
222 236 255
222 236 255
222 236 255
222 236 255
222 236 255
222 236 255
222 236 255
222 236 255
222 236 255
222 236 255
222 236 255
222 236 255
222 236 255
222 236 255
222 236 255
222 236 255
222 236 255
222 236 255
222 236 255
222 236 255
222 236 255
222 236 255
222 236 255
222 236 255
222 236 255
222 236 255
222 236 255
222 236 255
222 236 255
222 236 255
222 236 255
222 236 255
222 236 255
222 236 255
222 236 255
222 236 255
222 236 255
222 236 255
222 236 255
222 236 255
222 236 255
222 236 255
222 236 255
222 236 255
222 236 255
222 236 255
222 236 255
222 236 255
222 236 255
222 236 255
222 236 255
222 236 255
222 236 255
222 236 255
222 236 255
222 236 255
222 236 255
222 236 255
222 236 255
222 236 255
222 236 255
222 236 255
222 236 255
222 236 255
222 236 255
222 236 255
222 236 255
222 236 255
222 236 255
222 236 255
222 236 255
222 236 255
222 236 255
222 236 255
222 236 255
222 236 255
222 236 255
222 236 255
222 236 255
222 236 255
222 236 255
222 236 255
222 236 255
222 236 255
222 236 255
222 236 255
222 236 255
222 236 255
222 236 255
222 236 255
222 236 255
222 236 255
222 236 255
222 236 255
222 236 255
222 236 255
222 236 255
222 236 255
222 236 255
222 236 255
222 236 255
222 236 255
222 236 255
222 236 255
222 236 255
222 236 255
222 236 255
222 236 255
222 236 255
222 236 255
222 236 255
222 236 255
222 236 255
222 236 255
222 236 255
54 57 126
0 0 113
0 0 113
0 0 113
0 0 113
0 0 113
0 0 114
0 0 113
0 0 113
0 0 113
0 0 113
0 0 113
0 0 113
0 0 113
0 0 113
0 0 113
0 0 113
0 0 113
0 0 113
0 0 113
0 0 113
0 0 113
0 0 113
0 0 113
0 0 113
0 0 113
0 0 113
0 0 113
0 0 113
0 0 113
0 0 113
0 0 113
0 0 113
0 0 113
0 0 113
0 0 113
0 0 113
0 0 113
0 0 113
0 0 113
0 0 113
0 0 113
0 0 113
0 0 113
0 0 113
0 0 113
0 0 113
0 0 113
0 0 113
0 0 113
0 0 113
0 0 113
0 0 113
0 0 113
0 0 113
0 0 113
0 0 113
0 0 113
0 0 115
0 11 115
5 18 116
7 19 116
8 19 116
5 18 116
4 13 115
13 14 116
13 14 116
11 17 116
0 21 116
0 20 116
9 18 116
14 14 116
14 14 116
14 14 116
14 14 116
13 14 116
8 18 116
0 21 116
0 20 116
0 21 116
0 21 116
0 21 116
0 21 116
0 21 116
0 21 116
0 21 116
0 21 116
0 21 116
0 21 116
0 21 116
0 20 116
0 21 116
8 22 117
10 23 117
8 22 117
0 21 116
0 20 116
0 21 116
0 21 116
0 21 116
5 18 116
11 21 118
10 19 118
4 21 119
0 25 119
0 25 120
0 25 121
12 28 121
5 26 119
6 23 117
0 21 115
0 21 116
0 19 117
0 24 119
0 26 120
6 31 120
10 34 122
9 34 124
8 34 124
11 37 126
18 43 130
17 46 131
6 50 134
0 63 142
15 81 152
16 80 150
84 103 161
156 172 204
188 197 188
147 156 117
111 131 81
126 134 84
122 132 86
110 126 77
92 114 42
92 117 46
95 124 50
87 118 28
84 115 22
85 116 23
84 115 19
80 113 9
81 113 15
79 111 10
78 110 19
78 110 8
78 109 10
77 109 16
76 108 15
77 110 18
78 111 22
74 107 9
77 108 13
82 112 22
79 109 12
76 107 0
73 104 18
78 109 22
82 113 21
79 112 12
78 111 18
75 108 16
74 107 11
77 109 21
82 113 25
84 114 19
83 113 5
80 111 0
81 112 4
76 108 4
84 113 19
83 112 18
80 111 20
76 109 8
78 111 10
81 113 8
86 117 14
84 115 10
84 115 16
86 117 8
85 117 9
98 128 46
107 136 67
98 127 50
108 134 63
113 139 67
112 138 65
115 133 74
117 131 74
119 132 76
120 131 81
118 128 77
112 126 66
118 128 75
121 132 84
120 130 86
133 136 102
135 139 105
131 139 99
143 147 115
152 152 127
142 146 111
100 116 89
6 7 115
0 0 113
0 0 113
0 0 113
0 0 113
0 0 113
0 0 113
0 0 113
0 0 113
0 0 113
58 62 128
222 236 255
222 236 255
222 236 255
222 236 255
222 236 255
222 236 255
222 236 255
222 236 255
222 236 255
222 236 255
222 236 255
222 236 255
222 236 255
222 236 255
222 236 255
222 236 255
222 236 255
222 236 255
222 236 255
222 236 255
222 236 255
222 236 255
222 236 255
222 236 255
222 236 255
222 236 255
222 236 255
222 236 255
222 236 255
222 236 255
222 236 255
222 236 255
222 236 255
222 236 255
222 236 255
222 236 255
222 236 255
222 236 255
222 236 255
222 236 255
222 236 255
222 236 255
222 236 255
222 236 255
222 236 255
222 236 255
222 236 255
222 236 255
222 236 255
222 236 255
222 236 255
222 236 255
222 236 255
222 236 255
222 236 255
222 236 255
222 236 255
222 236 255
222 236 255
222 236 255
222 236 255
222 236 255
222 236 255
222 236 255
222 236 255
222 236 255
222 236 255
222 236 255
222 236 255
222 236 255
222 236 255
222 236 255
222 236 255
222 236 255
222 236 255
222 236 255
222 236 255
222 236 255
222 236 255
222 236 255
222 236 255
222 236 255
222 236 255
222 236 255
222 236 255
222 236 255
222 236 255
222 236 255
222 236 255
222 236 255
222 236 255
222 236 255
222 236 255
222 236 255
222 236 255
222 236 255
222 236 255
222 236 255
222 236 255
222 236 255
222 236 255
222 236 255
222 236 255
222 236 255
222 236 255
222 236 255
222 236 255
222 236 255
222 236 255
222 236 255
222 236 255
222 236 255
222 236 255
222 236 255
222 236 255
222 236 255
222 236 255
222 236 255
222 236 255
222 236 255
222 236 255
222 236 255
222 236 255
222 236 255
222 236 255
222 236 255
222 236 255
222 236 255
222 236 255
222 236 255
222 236 255
222 236 255
222 236 255
222 236 255
222 236 255
222 236 255
222 236 255
222 236 255
222 236 255
222 236 255
222 236 255
222 236 255
222 236 255
222 236 255
222 236 255
222 236 255
222 236 255
222 236 255
222 236 255
222 236 255
222 236 255
222 236 255
222 236 255
222 236 255
222 236 255
222 236 255
222 236 255
222 236 255
222 236 255
222 236 255
222 236 255
222 236 255
222 236 255
222 236 255
222 236 255
222 236 255
222 236 255
222 236 255
222 236 255
222 236 255
222 236 255
222 236 255
222 236 255
222 236 255
222 236 255
222 236 255
222 236 255
222 236 255
222 236 255
222 236 255
222 236 255
222 236 255
222 236 255
222 236 255
222 236 255
222 236 255
91 97 147
0 0 113
0 0 113
0 0 113
0 0 113
0 0 113
0 0 115
0 0 115
0 0 115
0 0 115
0 0 115
0 0 115
0 0 115
0 0 115
0 0 115
0 0 115
0 0 113
0 0 113
0 0 113
0 0 113
0 0 113
0 0 113
0 0 113
0 0 113
0 0 113
0 0 113
0 0 113
0 0 113
0 0 113
0 0 113
0 0 113
0 0 112
0 0 113
0 0 113
0 0 113
0 0 113
0 0 113
0 0 113
0 0 113
0 0 113
0 0 113
0 0 113
0 0 113
0 0 113
0 0 113
0 0 113
0 0 113
0 0 113
0 0 113
0 0 113
0 0 113
0 0 113
0 0 113
0 0 113
0 0 113
0 0 112
0 0 113
0 0 113
0 0 115
0 16 116
0 21 116
0 20 116
0 21 116
0 21 116
4 20 116
13 15 116
13 15 116
11 17 116
3 20 116
1 20 116
8 18 116
13 14 116
13 14 116
13 14 116
13 14 116
14 14 116
9 18 116
0 21 116
0 21 116
0 20 116
0 20 116
0 21 116
0 20 116
0 21 116
0 20 116
0 21 116
0 21 116
0 21 116
0 21 116
0 21 116
0 21 116
0 21 116
0 20 116
0 20 116
0 21 116
0 20 116
0 20 116
0 21 116
0 21 116
0 21 116
0 20 116
0 20 116
0 19 117
3 16 118
9 23 119
0 25 119
0 25 119
13 23 120
10 22 118
4 21 116
0 21 116
0 21 116
0 17 118
0 23 119
0 25 119
3 24 119
4 27 120
0 32 122
0 31 123
0 34 125
5 39 128
24 45 132
19 50 135
5 62 140
5 82 152
5 81 153
23 64 152
63 80 154
104 121 153
145 158 147
127 131 99
123 132 86
132 137 100
113 122 75
87 106 24
87 114 32
103 131 65
87 116 21
82 112 14
83 114 20
81 112 2
82 113 13
83 113 25
79 110 5
78 109 6
75 106 0
76 108 20
80 111 26
80 110 20
80 112 12
79 112 18
79 110 11
79 110 20
80 111 20
72 104 2
72 103 13
72 103 22
78 109 17
82 114 20
81 114 23
82 114 26
76 110 13
75 108 5
81 111 21
83 113 17
82 114 14
81 112 0
80 111 9
79 110 10
77 108 0
82 112 16
85 115 29
87 116 38
79 110 15
82 114 22
86 116 20
88 119 15
83 114 7
84 115 13
86 118 9
86 118 0
91 122 30
97 126 42
100 129 50
116 141 76
113 137 67
113 137 67
120 134 80
124 137 87
121 134 84
122 132 87
120 129 81
117 127 76
123 129 85
120 130 89
125 133 98
143 143 118
132 134 103
131 137 97
135 141 110
139 145 112
131 141 93
95 112 92
11 12 114
0 0 113
0 0 113
0 0 113
0 0 113
0 0 113
0 0 113
0 0 113
0 0 112
0 0 113
102 108 154
222 236 255
222 236 255
222 236 255
222 236 255
222 236 255
222 236 255
222 236 255
222 236 255
222 236 255
222 236 255
222 236 255
222 236 255
222 236 255
222 236 255
222 236 255
222 236 255
222 236 255
222 236 255
222 236 255
222 236 255
222 236 255
222 236 255
222 236 255
222 236 255
222 236 255
222 236 255
222 236 255
222 236 255
222 236 255
222 236 255
222 236 255
222 236 255
222 236 255
222 236 255
222 236 255
222 236 255
222 236 255
222 236 255
222 236 255
222 236 255
222 236 255
222 236 255
222 236 255
222 236 255
222 236 255
222 236 255
222 236 255
222 236 255
222 236 255
222 236 255
222 236 255
222 236 255
222 236 255
222 236 255
222 236 255
222 236 255
222 236 255
222 236 255
222 236 255
222 236 255
222 236 255
222 236 255
222 236 255
222 236 255
222 236 255
222 236 255
222 236 255
222 236 255
222 236 255
222 236 255
222 236 255
222 236 255
222 236 255
222 236 255
222 236 255
222 236 255
222 236 255
222 236 255
222 236 255
222 236 255
222 236 255
222 236 255
222 236 255
222 236 255
222 236 255
222 236 255
222 236 255
222 236 255
222 236 255
222 236 255
222 236 255
222 236 255
222 236 255
222 236 255
222 236 255
222 236 255
222 236 255
222 236 255
222 236 255
222 236 255
222 236 255
222 236 255
222 236 255
222 236 255
222 236 255
222 236 255
222 236 255
222 236 255
222 236 255
222 236 255
222 236 255
222 236 255
222 236 255
222 236 255
222 236 255
222 236 255
222 236 255
222 236 255
222 236 255
222 236 255
222 236 255
222 236 255
222 236 255
222 236 255
222 236 255
222 236 255
222 236 255
222 236 255
222 236 255
222 236 255
222 236 255
222 236 255
222 236 255
222 236 255
222 236 255
222 236 255
222 236 255
222 236 255
222 236 255
222 236 255
222 236 255
222 236 255
222 236 255
222 236 255
222 236 255
222 236 255
222 236 255
222 236 255
222 236 255
222 236 255
222 236 255
222 236 255
222 236 255
222 236 255
222 236 255
222 236 255
222 236 255
222 236 255
222 236 255
222 236 255
222 236 255
222 236 255
222 236 255
222 236 255
222 236 255
222 236 255
222 236 255
222 236 255
222 236 255
222 236 255
222 236 255
222 236 255
222 236 255
222 236 255
222 236 255
222 236 255
222 236 255
222 236 255
222 236 255
222 236 255
222 236 255
222 236 255
222 236 255
222 236 255
222 236 255
222 236 255
125 133 172
0 0 113
0 0 113
0 0 113
0 0 113
0 0 113
0 0 114
0 0 115
0 16 116
0 18 116
0 17 116
0 16 116
0 17 116
0 16 116
0 16 116
0 14 116
0 0 113
0 0 113
0 0 113
0 0 113
0 0 113
0 0 113
0 0 113
0 0 113
0 0 113
0 0 113
0 0 113
0 0 113
0 0 113
0 0 113
0 0 113
0 0 113
0 0 113
0 0 113
0 0 113
0 0 113
0 0 113
0 0 113
0 0 113
0 0 113
0 0 113
0 0 113
0 0 113
0 0 113
0 0 113
0 0 113
0 0 113
0 0 113
0 0 113
0 0 113
0 0 113
0 0 113
0 0 113
0 0 113
0 0 113
0 0 113
0 0 113
0 0 113
0 0 115
0 17 116
0 21 116
0 20 116
0 19 116
0 21 116
0 21 116
0 20 116
0 20 116
6 19 116
11 12 116
4 5 115
0 0 115
0 0 114
0 0 115
9 9 116
11 12 116
13 14 116
10 18 116
0 20 116
0 20 116
0 21 116
0 21 116
0 20 116
0 21 116
0 21 116
0 21 116
0 21 116
0 21 116
0 21 116
0 21 116
0 21 116
0 20 116
0 20 116
0 21 116
0 21 116
0 21 116
0 21 116
0 21 116
0 21 116
0 21 116
0 20 116
3 20 116
4 20 116
0 20 116
12 24 117
13 21 119
9 23 119
11 28 120
13 21 119
9 23 117
0 21 116
0 21 116
0 19 117
0 15 118
11 24 118
0 20 117
0 19 118
0 21 118
4 27 120
12 29 121
9 35 123
11 43 128
21 46 131
9 49 134
2 61 139
6 80 151
12 78 150
12 70 138
27 63 142
27 73 154
106 122 158
145 149 129
125 132 92
137 140 108
131 134 99
97 112 47
89 116 45
93 122 47
86 114 16
84 114 27
86 117 31
83 114 15
80 112 13
82 113 22
85 115 22
81 111 18
75 107 0
77 108 15
79 110 13
81 111 19
80 111 6
80 111 0
79 110 4
80 111 15
77 107 16
73 104 9
75 105 20
74 105 21
78 109 10
83 115 15
84 116 31
78 111 20
75 109 8
80 111 24
81 112 27
80 110 7
78 110 9
78 109 0
80 111 23
80 110 24
78 109 0
78 110 0
80 110 17
85 115 37
83 114 22
81 112 10
85 115 10
87 118 10
84 115 6
85 116 5
86 118 6
86 118 1
90 121 23
85 117 14
100 129 49
112 136 70
114 136 75
122 143 79
124 136 87
117 130 79
121 132 82
120 130 84
121 127 81
118 129 80
120 129 84
118 128 91
130 137 105
142 142 114
136 137 105
133 137 99
136 142 109
133 143 108
126 141 84
74 90 101
7 9 113
0 0 113
0 0 113
0 0 113
0 0 113
0 0 113
0 0 113
0 0 113
0 0 113
0 0 113
139 147 182
222 236 255
222 236 255
222 236 255
222 236 255
222 236 255
222 236 255
222 236 255
222 236 255
222 236 255
222 236 255
222 236 255
222 236 255
222 236 255
222 236 255
222 236 255
222 236 255
222 236 255
222 236 255
222 236 255
222 236 255
222 236 255
222 236 255
222 236 255
222 236 255
222 236 255
222 236 255
222 236 255
222 236 255
222 236 255
222 236 255
222 236 255
222 236 255
222 236 255
222 236 255
222 236 255
222 236 255
222 236 255
222 236 255
222 236 255
222 236 255
222 236 255
222 236 255
222 236 255
222 236 255
222 236 255
222 236 255
222 236 255
222 236 255
222 236 255
222 236 255
222 236 255
222 236 255
222 236 255
222 236 255
222 236 255
222 236 255
222 236 255
222 236 255
222 236 255
222 236 255
222 236 255
222 236 255
222 236 255
222 236 255
222 236 255
222 236 255
222 236 255
222 236 255
222 236 255
222 236 255
222 236 255
222 236 255
222 236 255
222 236 255
222 236 255
222 236 255
222 236 255
222 236 255
222 236 255
222 236 255
222 236 255
222 236 255
222 236 255
222 236 255
222 236 255
222 236 255
222 236 255
222 236 255
222 236 255
222 236 255
222 236 255
222 236 255
222 236 255
222 236 255
222 236 255
222 236 255
222 236 255
222 236 255
222 236 255
222 236 255
222 236 255
222 236 255
222 236 255
222 236 255
222 236 255
222 236 255
222 236 255
222 236 255
222 236 255
222 236 255
222 236 255
222 236 255
222 236 255
222 236 255
222 236 255
222 236 255
222 236 255
222 236 255
222 236 255
222 236 255
222 236 255
222 236 255
222 236 255
222 236 255
222 236 255
222 236 255
222 236 255
222 236 255
222 236 255
222 236 255
222 236 255
222 236 255
222 236 255
222 236 255
222 236 255
222 236 255
222 236 255
222 236 255
222 236 255
222 236 255
222 236 255
222 236 255
222 236 255
222 236 255
222 236 255
222 236 255
222 236 255
222 236 255
222 236 255
222 236 255
222 236 255
222 236 255
222 236 255
222 236 255
222 236 255
222 236 255
222 236 255
222 236 255
222 236 255
222 236 255
222 236 255
222 236 255
222 236 255
222 236 255
222 236 255
222 236 255
222 236 255
222 236 255
222 236 255
222 236 255
222 236 255
222 236 255
222 236 255
222 236 255
222 236 255
222 236 255
222 236 255
222 236 255
222 236 255
222 236 255
222 236 255
222 236 255
222 236 255
222 236 255
222 236 255
222 236 255
144 153 187
0 0 113
0 0 113
0 0 113
0 0 113
0 0 114
0 0 115
0 0 115
0 14 115
0 20 116
7 22 117
4 21 116
0 21 116
0 20 116
0 20 116
0 20 116
5 10 113
0 2 113
0 0 113
0 0 113
0 0 113
0 0 113
0 0 113
0 0 113
0 0 113
0 0 113
0 0 113
0 0 113
0 0 113
0 0 113
0 0 113
0 0 113
0 0 113
0 0 113
0 0 114
0 0 115
0 0 115
0 0 115
0 0 115
0 0 113
0 0 113
0 0 113
0 0 113
0 0 113
0 0 113
0 0 113
0 0 113
0 0 113
0 0 113
0 0 113
0 0 113
0 0 113
0 0 113
0 0 113
0 0 113
0 0 113
0 0 113
0 0 113
0 0 115
8 13 116
10 16 116
0 12 115
0 9 115
6 15 116
9 18 116
0 20 115
0 19 115
0 15 114
0 0 114
0 0 114
0 0 113
0 0 113
0 0 114
0 0 114
0 0 114
13 14 115
10 15 115
0 15 116
0 15 116
0 16 116
0 16 116
0 16 116
0 16 116
0 16 116
0 16 116
0 15 116
0 17 116
0 15 116
4 17 116
9 18 115
8 18 115
0 17 115
0 16 115
0 16 115
0 17 115
0 20 116
0 21 116
0 20 116
0 21 116
0 21 116
6 19 116
12 16 116
5 20 116
10 24 117
12 23 118
14 22 119
14 21 119
0 19 117
0 21 116
0 20 116
0 21 116
0 21 117
0 21 119
0 21 117
0 21 116
0 19 117
0 18 118
7 23 119
7 26 120
9 38 125
21 48 130
14 47 130
0 48 131
8 62 140
19 75 149
23 70 149
16 65 138
21 68 150
20 70 147
50 93 155
143 162 142
130 136 94
135 138 101
138 138 107
107 114 60
92 114 43
86 115 26
85 114 20
82 113 17
85 115 25
84 115 19
82 113 5
83 114 20
87 117 26
85 116 27
80 110 11
78 109 14
79 110 8
81 112 0
81 111 9
80 110 9
81 111 5
80 110 7
79 107 11
79 108 16
77 108 18
79 109 15
82 113 0
82 114 13
82 113 32
76 110 15
79 111 21
83 113 35
84 114 29
80 111 14
82 111 13
78 108 10
78 109 18
76 109 14
75 109 6
78 109 16
78 109 4
83 114 21
86 116 24
85 115 16
84 115 5
89 120 19
85 116 21
85 116 7
85 117 12
86 117 16
92 122 34
92 122 34
108 135 67
113 134 78
113 136 79
119 139 82
124 134 91
118 131 77
120 131 81
119 129 83
120 128 89
113 128 77
116 128 81
124 134 99
133 139 104
138 140 106
137 136 100
138 138 98
136 141 109
126 138 95
118 140 69
53 67 108
9 8 113
0 0 113
0 0 113
0 0 113
0 0 113
0 0 113
0 0 113
0 0 113
0 0 113
0 0 113
155 165 196
222 236 255
222 236 255
222 236 255
222 236 255
222 236 255
222 236 255
222 236 255
222 236 255
222 236 255
222 236 255
222 236 255
222 236 255
222 236 255
222 236 255
222 236 255
222 236 255
222 236 255
222 236 255
222 236 255
222 236 255
222 236 255
222 236 255
222 236 255
222 236 255
222 236 255
222 236 255
222 236 255
222 236 255
222 236 255
222 236 255
222 236 255
222 236 255
222 236 255
222 236 255
222 236 255
222 236 255
222 236 255
222 236 255
222 236 255
222 236 255
222 236 255
222 236 255
222 236 255
222 236 255
222 236 255
222 236 255
222 236 255
222 236 255
222 236 255
222 236 255
222 236 255
222 236 255
222 236 255
222 236 255
222 236 255
222 236 255
222 236 255
222 236 255
222 236 255
222 236 255
222 236 255
222 236 255
222 236 255
222 236 255
222 236 255
222 236 255
222 236 255
222 236 255
222 236 255
222 236 255
222 236 255
222 236 255
222 236 255
222 236 255
222 236 255
222 236 255
222 236 255
222 236 255
222 236 255
222 236 255
222 236 255
222 236 255
222 236 255
222 236 255
222 236 255
222 236 255
222 236 255
222 236 255
222 236 255
222 236 255
222 236 255
222 236 255
222 236 255
222 236 255
222 236 255
222 236 255
222 236 255
222 236 255
222 236 255
222 236 255
222 236 255
222 236 255
222 236 255
222 236 255
222 236 255
222 236 255
222 236 255
222 236 255
222 236 255
222 236 255
222 236 255
222 236 255
222 236 255
222 236 255
222 236 255
222 236 255
222 236 255
222 236 255
222 236 255
222 236 255
222 236 255
222 236 255
222 236 255
222 236 255
222 236 255
222 236 255
222 236 255
222 236 255
222 236 255
222 236 255
222 236 255
222 236 255
222 236 255
222 236 255
222 236 255
222 236 255
222 236 255
222 236 255
222 236 255
222 236 255
222 236 255
222 236 255
222 236 255
222 236 255
222 236 255
222 236 255
222 236 255
222 236 255
222 236 255
222 236 255
222 236 255
222 236 255
222 236 255
222 236 255
222 236 255
222 236 255
222 236 255
222 236 255
222 236 255
222 236 255
222 236 255
222 236 255
222 236 255
222 236 255
222 236 255
222 236 255
222 236 255
222 236 255
222 236 255
222 236 255
222 236 255
222 236 255
222 236 255
222 236 255
222 236 255
222 236 255
222 236 255
222 236 255
222 236 255
222 236 255
222 236 255
222 236 255
222 236 255
222 236 255
222 236 255
222 236 255
185 196 221
0 0 113
0 0 113
0 0 113
0 0 113
0 0 114
0 0 115
0 0 115
0 9 115
0 18 116
10 23 117
8 23 117
0 20 116
0 20 116
0 20 116
0 20 116
17 25 114
14 20 113
4 3 114
14 7 114
0 0 113
0 0 113
0 0 113
0 0 113
0 0 113
0 0 113
0 0 113
0 0 113
0 0 113
0 0 113
0 0 113
0 0 113
0 0 113
0 0 113
0 0 113
0 0 114
0 0 114
0 0 114
0 0 114
0 0 113
0 0 113
0 0 113
0 0 113
0 0 113
0 0 113
0 0 113
0 0 113
0 0 113
0 0 113
0 0 113
0 0 113
0 0 113
0 0 113
0 0 113
0 0 113
0 0 113
0 0 112
0 0 113
0 0 115
9 10 115
6 7 115
0 0 115
0 0 115
3 3 115
12 12 116
1 20 114
0 17 114
0 13 113
0 0 112
0 0 112
0 0 111
0 0 112
0 0 113
0 0 113
9 10 113
13 14 114
10 11 114
0 0 115
0 0 115
0 0 115
0 0 115
0 0 115
0 0 115
0 0 115
0 0 115
0 0 115
0 0 115
0 0 115
6 6 114
9 10 113
8 9 113
0 0 113
0 0 113
0 0 112
0 9 113
0 15 115
0 20 116
0 21 116
0 21 116
0 20 116
6 19 116
13 14 116
11 16 116
3 20 116
5 21 116
9 20 117
9 17 119
0 20 116
0 20 116
0 21 115
0 20 116
0 21 117
0 21 120
10 18 117
0 21 116
0 21 116
9 19 118
13 21 119
11 22 119
9 24 122
18 44 128
6 47 129
0 52 132
18 65 140
18 66 145
6 63 142
17 60 143
23 64 144
11 80 156
4 100 160
98 122 160
142 150 141
136 139 103
137 132 100
127 129 92
95 115 52
96 123 56
84 113 25
82 113 18
89 119 39
92 122 38
84 115 9
82 113 8
83 114 12
83 114 12
80 111 8
82 113 25
85 115 27
87 117 25
84 114 28
82 112 21
84 114 16
80 109 3
82 110 19
83 112 27
81 112 8
82 112 15
81 112 11
83 113 11
80 111 25
82 112 28
86 115 33
83 112 25
81 111 14
81 110 22
96 121 51
83 111 28
75 106 0
73 106 0
78 111 23
83 113 24
81 112 8
81 113 9
86 117 26
85 116 29
85 117 18
90 121 34
82 115 25
85 117 25
87 120 24
85 117 19
90 120 31
91 119 36
107 134 71
112 131 77
119 136 86
118 136 81
118 130 82
124 132 81
123 132 87
118 130 83
121 130 91
110 125 72
111 124 76
124 130 93
141 137 111
140 140 113
146 144 115
148 148 115
143 145 110
130 147 93
108 132 63
26 36 113
0 7 113
0 0 113
0 0 113
0 0 113
0 0 113
0 0 113
0 0 113
0 0 113
0 0 113
0 0 113
175 186 213
222 236 255
222 236 255
222 236 255
222 236 255
222 236 255
222 236 255
222 236 255
222 236 255
222 236 255
222 236 255
222 236 255
222 236 255
222 236 255
222 236 255
222 236 255
222 236 255
222 236 255
222 236 255
222 236 255
222 236 255
222 236 255
222 236 255
222 236 255
222 236 255
222 236 255
222 236 255
222 236 255
222 236 255
222 236 255
222 236 255
222 236 255
222 236 255
222 236 255
222 236 255
222 236 255
222 236 255
222 236 255
222 236 255
222 236 255
222 236 255
222 236 255
222 236 255
222 236 255
222 236 255
222 236 255
222 236 255
222 236 255
222 236 255
222 236 255
222 236 255
222 236 255
222 236 255
222 236 255
222 236 255
222 236 255
222 236 255
222 236 255
222 236 255
222 236 255
222 236 255
222 236 255
222 236 255
222 236 255
222 236 255
222 236 255
222 236 255
222 236 255
222 236 255
222 236 255
222 236 255
222 236 255
222 236 255
222 236 255
222 236 255
222 236 255
222 236 255
222 236 255
222 236 255
222 236 255
222 236 255
222 236 255
222 236 255
222 236 255
222 236 255
222 236 255
222 236 255
222 236 255
222 236 255
222 236 255
222 236 255
222 236 255
222 236 255
222 236 255
222 236 255
222 236 255
222 236 255
222 236 255
222 236 255
222 236 255
222 236 255
222 236 255
222 236 255
222 236 255
222 236 255
222 236 255
222 236 255
222 236 255
222 236 255
222 236 255
222 236 255
222 236 255
222 236 255
222 236 255
222 236 255
222 236 255
222 236 255
222 236 255
222 236 255
222 236 255
222 236 255
222 236 255
222 236 255
222 236 255
222 236 255
222 236 255
222 236 255
222 236 255
222 236 255
222 236 255
222 236 255
222 236 255
222 236 255
222 236 255
222 236 255
222 236 255
222 236 255
222 236 255
222 236 255
222 236 255
222 236 255
222 236 255
222 236 255
222 236 255
222 236 255
222 236 255
222 236 255
222 236 255
222 236 255
222 236 255
222 236 255
222 236 255
222 236 255
222 236 255
222 236 255
222 236 255
222 236 255
222 236 255
222 236 255
222 236 255
222 236 255
222 236 255
222 236 255
222 236 255
222 236 255
222 236 255
222 236 255
222 236 255
222 236 255
222 236 255
222 236 255
222 236 255
222 236 255
222 236 255
222 236 255
222 236 255
222 236 255
222 236 255
222 236 255
222 236 255
222 236 255
222 236 255
222 236 255
222 236 255
222 236 255
222 236 255
222 236 255
199 211 234
0 0 113
0 0 113
0 0 113
0 0 113
0 0 113
0 0 113
0 0 113
0 7 113
0 17 116
1 21 116
1 20 116
0 21 116
0 20 116
0 20 116
0 21 116
15 26 116
19 25 115
10 10 113
0 0 113
0 0 113
0 0 113
0 0 113
0 0 113
0 0 113
0 0 113
0 0 113
0 0 113
0 0 113
0 0 113
0 0 113
0 0 113
0 0 113
0 0 113
0 0 113
0 0 113
0 0 113
0 0 113
0 0 113
0 0 113
0 0 113
0 0 113
0 0 113
0 0 113
0 0 113
0 0 113
0 0 113
0 0 113
0 0 113
0 0 113
0 0 113
0 0 113
0 0 113
0 0 113
0 0 113
0 0 113
0 0 113
0 0 113
0 0 113
0 0 113
0 0 113
0 0 113
0 0 113
0 0 113
0 0 113
0 0 115
0 0 115
0 0 115
0 0 115
0 0 115
0 0 115
0 0 113
0 0 113
0 0 113
1 2 113
3 3 113
2 2 113
0 0 113
0 0 113
0 0 113
0 0 113
0 0 113
0 0 113
0 0 113
0 0 113
0 0 113
0 0 113
0 0 113
0 0 113
0 0 113
0 0 113
0 0 113
0 0 113
0 0 113
0 13 114
0 20 116
0 20 116
0 21 116
0 21 116
0 21 116
3 20 116
6 19 116
5 20 116
2 20 116
0 21 116
0 20 117
0 19 117
0 21 116
0 21 116
0 21 116
0 21 116
0 21 116
0 20 117
5 11 115
5 18 116
14 25 117
18 25 120
15 24 120
4 22 119
9 23 122
18 40 128
13 41 127
10 50 130
12 56 135
6 59 139
9 59 138
27 58 140
22 62 144
14 82 155
23 100 163
60 102 168
138 149 167
147 150 132
135 131 109
138 137 104
112 117 81
94 123 32
90 118 32
92 118 28
101 124 46
98 126 52
81 117 27
85 116 12
84 114 15
82 113 6
84 114 11
85 115 21
84 113 19
80 110 13
81 112 12
80 110 21
82 112 28
79 110 14
80 111 7
90 118 34
86 114 19
87 114 18
87 114 20
85 113 22
87 115 23
88 116 22
94 120 44
84 112 15
82 110 9
84 111 31
89 115 41
82 110 17
80 110 18
73 106 3
76 109 18
84 116 24
82 115 12
82 115 9
81 113 16
80 114 26
83 118 28
88 120 37
85 117 26
81 117 16
80 115 10
82 115 8
89 119 33
95 122 46
97 124 54
112 128 70
120 134 88
121 136 88
122 132 87
127 133 88
124 131 92
121 128 86
122 132 94
104 118 66
122 131 93
130 133 103
144 142 120
148 143 118
152 145 120
146 145 113
142 157 103
124 148 80
91 112 81
13 14 112
2 1 113
0 0 113
0 0 113
0 0 113
0 0 113
0 0 113
0 0 113
0 0 113
0 0 113
0 0 113
204 216 238
222 236 255
222 236 255
222 236 255
222 236 255
222 236 255
222 236 255
222 236 255
222 236 255
222 236 255
222 236 255
222 236 255
222 236 255
222 236 255
222 236 255
222 236 255
222 236 255
222 236 255
222 236 255
222 236 255
222 236 255
222 236 255
222 236 255
222 236 255
222 236 255
222 236 255
222 236 255
222 236 255
222 236 255
222 236 255
222 236 255
222 236 255
222 236 255
222 236 255
222 236 255
222 236 255
222 236 255
222 236 255
222 236 255
222 236 255
222 236 255
222 236 255
222 236 255
222 236 255
222 236 255
222 236 255
222 236 255
222 236 255
222 236 255
222 236 255
222 236 255
222 236 255
222 236 255
222 236 255
222 236 255
222 236 255
222 236 255
222 236 255
222 236 255
222 236 255
222 236 255
222 236 255
222 236 255
222 236 255
222 236 255
222 236 255
222 236 255
222 236 255
222 236 255
222 236 255
222 236 255
222 236 255
222 236 255
222 236 255
222 236 255
222 236 255
222 236 255
222 236 255
222 236 255
222 236 255
222 236 255
222 236 255
222 236 255
222 236 255
222 236 255
222 236 255
222 236 255
222 236 255
222 236 255
222 236 255
222 236 255
222 236 255
222 236 255
222 236 255
222 236 255
222 236 255
222 236 255
222 236 255
222 236 255
222 236 255
222 236 255
222 236 255
222 236 255
222 236 255
222 236 255
222 236 255
222 236 255
222 236 255
222 236 255
222 236 255
222 236 255
222 236 255
222 236 255
222 236 255
222 236 255
222 236 255
222 236 255
222 236 255
222 236 255
222 236 255
222 236 255
222 236 255
222 236 255
222 236 255
222 236 255
222 236 255
222 236 255
222 236 255
222 236 255
222 236 255
222 236 255
222 236 255
222 236 255
222 236 255
222 236 255
222 236 255
222 236 255
222 236 255
222 236 255
222 236 255
222 236 255
222 236 255
222 236 255
222 236 255
222 236 255
222 236 255
222 236 255
222 236 255
222 236 255
222 236 255
222 236 255
222 236 255
222 236 255
222 236 255
222 236 255
222 236 255
222 236 255
222 236 255
222 236 255
222 236 255
222 236 255
222 236 255
222 236 255
222 236 255
222 236 255
222 236 255
222 236 255
222 236 255
222 236 255
222 236 255
222 236 255
222 236 255
222 236 255
222 236 255
222 236 255
222 236 255
222 236 255
222 236 255
222 236 255
222 236 255
222 236 255
222 236 255
222 236 255
222 236 255
222 236 255
222 236 255
222 236 255
221 235 254
66 71 132
0 0 113
0 0 113
0 0 113
0 0 113
0 0 112
0 0 113
0 4 113
0 9 114
7 16 115
5 20 116
0 20 116
0 21 116
0 21 116
0 21 116
6 20 116
15 25 115
19 22 115
8 14 113
0 0 113
0 0 113
0 0 113
0 0 113
0 0 113
0 0 113
0 0 113
0 0 113
0 0 113
0 0 113
0 0 113
0 0 113
0 0 113
0 0 113
0 0 113
0 0 113
0 0 113
0 0 113
0 0 113
0 0 114
0 0 115
0 0 115
0 0 115
0 0 115
0 0 113
0 0 113
0 0 113
0 0 113
0 0 113
0 0 113
0 0 113
0 0 113
0 0 113
0 0 113
0 0 113
0 0 113
0 0 113
0 0 113
0 0 113
0 0 113
0 0 113
0 0 113
0 0 113
0 0 113
0 0 113
0 0 115
0 0 115
0 0 115
0 0 115
0 0 115
0 0 115
0 0 113
0 0 113
0 0 113
0 0 113
0 0 113
0 0 113
0 0 113
0 0 113
0 0 113
0 0 113
0 0 113
0 0 113
0 0 113
0 0 113
0 0 113
0 0 113
0 0 113
0 0 113
0 0 113
0 0 113
0 0 113
0 0 113
0 0 113
0 11 114
0 21 116
0 21 116
0 21 116
0 21 116
0 21 116
0 21 116
0 21 116
0 20 116
0 21 116
0 21 116
0 20 116
0 21 116
0 21 116
0 21 116
0 21 116
0 21 116
0 21 116
0 21 116
6 22 116
6 22 116
8 22 117
6 17 118
0 17 118
0 19 118
0 32 122
15 46 128
8 49 130
17 56 135
20 56 137
12 52 136
9 55 136
21 63 141
6 67 144
0 90 155
44 118 174
6 103 163
105 137 171
161 163 155
132 132 112
140 142 109
125 129 97
97 118 52
95 123 53
94 120 38
94 119 30
90 120 39
78 113 18
85 115 12
88 115 28
86 114 22
85 113 6
85 113 18
85 113 16
83 111 12
81 112 14
80 111 13
84 114 29
83 114 21
84 115 15
94 122 37
91 118 23
90 118 25
87 114 18
86 114 22
90 117 33
90 117 32
88 115 33
88 115 33
85 112 22
88 115 33
79 109 7
81 111 25
82 113 27
78 109 4
83 113 18
83 114 20
86 116 17
89 119 26
88 118 28
89 120 37
86 117 14
93 122 38
92 122 38
86 118 6
82 115 9
86 118 20
87 117 21
97 125 59
96 121 53
111 127 75
119 133 87
118 131 82
124 133 92
138 143 107
126 132 97
125 131 97
117 129 86
113 124 84
129 135 108
145 146 125
147 148 125
155 149 125
150 147 113
140 146 97
129 152 85
116 143 73
38 45 116
17 12 111
0 0 113
0 0 113
0 0 113
0 0 113
0 0 113
0 0 113
0 0 113
0 0 113
0 0 113
44 47 122
221 235 254
222 236 255
222 236 255
222 236 255
222 236 255
222 236 255
222 236 255
222 236 255
222 236 255
222 236 255
222 236 255
222 236 255
222 236 255
222 236 255
222 236 255
222 236 255
222 236 255
222 236 255
222 236 255
222 236 255
222 236 255
222 236 255
222 236 255
222 236 255
222 236 255
222 236 255
222 236 255
222 236 255
222 236 255
222 236 255
222 236 255
222 236 255
222 236 255
222 236 255
222 236 255
222 236 255
222 236 255
222 236 255
222 236 255
222 236 255
222 236 255
222 236 255
222 236 255
222 236 255
222 236 255
222 236 255
222 236 255
222 236 255
222 236 255
222 236 255
222 236 255
222 236 255
222 236 255
222 236 255
222 236 255
222 236 255
222 236 255
222 236 255
222 236 255
222 236 255
222 236 255
222 236 255
222 236 255
222 236 255
222 236 255
222 236 255
222 236 255
222 236 255
222 236 255
222 236 255
222 236 255
222 236 255
222 236 255
222 236 255
222 236 255
222 236 255
222 236 255
222 236 255
222 236 255
222 236 255
222 236 255
222 236 255
222 236 255
222 236 255
222 236 255
222 236 255
222 236 255
222 236 255
222 236 255
222 236 255
222 236 255
222 236 255
222 236 255
222 236 255
222 236 255
222 236 255
222 236 255
222 236 255
222 236 255
222 236 255
222 236 255
222 236 255
222 236 255
222 236 255
222 236 255
222 236 255
222 236 255
222 236 255
222 236 255
222 236 255
222 236 255
222 236 255
222 236 255
222 236 255
222 236 255
222 236 255
222 236 255
222 236 255
222 236 255
222 236 255
222 236 255
222 236 255
222 236 255
222 236 255
222 236 255
222 236 255
222 236 255
222 236 255
222 236 255
222 236 255
222 236 255
222 236 255
222 236 255
222 236 255
222 236 255
222 236 255
222 236 255
222 236 255
222 236 255
222 236 255
222 236 255
222 236 255
222 236 255
222 236 255
222 236 255
222 236 255
222 236 255
222 236 255
222 236 255
222 236 255
222 236 255
222 236 255
222 236 255
222 236 255
222 236 255
222 236 255
222 236 255
222 236 255
222 236 255
222 236 255
222 236 255
222 236 255
222 236 255
222 236 255
222 236 255
222 236 255
222 236 255
222 236 255
222 236 255
222 236 255
222 236 255
222 236 255
222 236 255
222 236 255
222 236 255
222 236 255
222 236 255
222 236 255
222 236 255
222 236 255
222 236 255
222 236 255
222 236 255
222 236 255
222 236 255
222 236 255
222 236 255
222 236 255
104 111 156
0 0 113
0 0 113
0 0 113
0 0 113
0 0 113
0 0 113
0 0 113
0 0 113
4 4 113
1 14 115
1 20 116
0 20 116
0 21 116
0 21 116
0 20 115
14 26 117
21 26 116
7 13 112
0 0 113
0 0 113
0 0 113
0 0 113
0 0 113
0 0 113
0 0 113
0 0 113
0 0 113
0 0 113
0 0 113
0 0 113
0 0 113
0 0 113
0 0 113
0 0 113
0 0 113
0 0 113
0 0 113
0 0 114
0 0 115
0 0 115
0 0 115
0 0 115
0 0 114
0 0 113
0 0 113
0 0 113
0 0 113
0 0 113
0 0 113
0 0 113
0 0 113
0 0 113
0 0 113
0 0 113
0 0 113
0 0 113
0 0 113
0 0 113
0 0 113
0 0 113
0 0 113
0 0 113
0 0 113
0 0 115
0 0 115
0 0 115
0 0 115
0 0 115
0 0 115
0 0 113
0 0 113
0 0 113
0 0 113
0 0 113
0 0 113
0 0 113
0 0 113
0 0 113
0 0 113
0 0 113
0 0 113
0 0 113
0 0 113
0 0 113
0 0 113
0 0 113
0 0 113
0 0 113
0 0 113
0 0 113
0 0 113
0 0 113
0 13 114
0 21 116
0 21 116
0 21 116
0 21 116
0 20 116
0 21 116
0 21 116
0 21 116
0 21 116
0 20 116
0 21 116
0 21 116
0 21 116
0 21 116
0 21 116
0 21 116
0 21 116
0 21 116
8 22 117
10 22 117
10 19 119
4 20 119
10 26 120
9 25 119
12 33 121
18 48 128
8 55 133
7 58 138
11 54 137
19 47 134
19 48 133
23 53 137
21 58 141
10 74 147
32 107 166
9 105 165
48 109 165
160 165 163
141 141 116
137 138 108
133 137 106
111 122 85
100 123 63
93 119 42
89 117 31
87 118 41
79 111 28
81 110 0
87 114 26
87 114 23
87 114 15
87 115 23
88 115 27
86 114 26
82 112 20
82 113 18
78 110 6
88 118 28
100 129 48
96 124 41
92 120 24
91 119 31
89 116 25
88 115 24
87 115 26
85 113 17
88 116 30
100 126 51
97 123 47
93 120 37
80 111 13
81 112 27
77 108 12
80 110 0
87 115 28
86 116 32
93 122 36
99 128 50
97 127 48
105 132 63
101 127 49
108 132 64
95 123 40
91 120 37
83 115 18
90 118 37
90 118 40
102 128 71
102 122 67
114 130 81
123 135 93
118 130 83
123 132 93
144 147 115
134 137 107
129 135 100
119 130 91
123 128 97
134 137 115
138 137 114
134 136 107
139 138 103
134 140 99
128 141 87
120 144 72
74 92 105
15 20 111
14 14 116
0 0 113
0 0 113
0 0 113
0 0 113
0 0 113
0 0 113
0 0 113
0 0 113
0 0 113
104 111 156
222 236 255
222 236 255
222 236 255
222 236 255
222 236 255
222 236 255
222 236 255
222 236 255
222 236 255
222 236 255
222 236 255
222 236 255
222 236 255
222 236 255
222 236 255
222 236 255
222 236 255
222 236 255
222 236 255
222 236 255
222 236 255
222 236 255
222 236 255
222 236 255
222 236 255
222 236 255
222 236 255
222 236 255
222 236 255
222 236 255
222 236 255
222 236 255
222 236 255
222 236 255
222 236 255
222 236 255
222 236 255
222 236 255
222 236 255
222 236 255
222 236 255
222 236 255
222 236 255
222 236 255
222 236 255
222 236 255
222 236 255
222 236 255
222 236 255
222 236 255
222 236 255
222 236 255
222 236 255
222 236 255
222 236 255
222 236 255
222 236 255
222 236 255
222 236 255
222 236 255
222 236 255
222 236 255
222 236 255
222 236 255
222 236 255
222 236 255
222 236 255
222 236 255
222 236 255
222 236 255
222 236 255
222 236 255
222 236 255
222 236 255
222 236 255
222 236 255
222 236 255
222 236 255
222 236 255
222 236 255
222 236 255
222 236 255
222 236 255
222 236 255
222 236 255
222 236 255
222 236 255
222 236 255
222 236 255
222 236 255
222 236 255
222 236 255
222 236 255
222 236 255
222 236 255
222 236 255
222 236 255
222 236 255
222 236 255
222 236 255
222 236 255
222 236 255
222 236 255
222 236 255
222 236 255
222 236 255
222 236 255
222 236 255
222 236 255
222 236 255
222 236 255
222 236 255
222 236 255
222 236 255
222 236 255
222 236 255
222 236 255
222 236 255
222 236 255
222 236 255
222 236 255
222 236 255
222 236 255
222 236 255
222 236 255
222 236 255
222 236 255
222 236 255
222 236 255
222 236 255
222 236 255
222 236 255
222 236 255
222 236 255
222 236 255
222 236 255
222 236 255
222 236 255
222 236 255
222 236 255
222 236 255
222 236 255
222 236 255
222 236 255
222 236 255
222 236 255
222 236 255
222 236 255
222 236 255
222 236 255
222 236 255
222 236 255
222 236 255
222 236 255
222 236 255
222 236 255
222 236 255
222 236 255
222 236 255
222 236 255
222 236 255
222 236 255
222 236 255
222 236 255
222 236 255
222 236 255
222 236 255
222 236 255
222 236 255
222 236 255
222 236 255
222 236 255
222 236 255
222 236 255
222 236 255
222 236 255
222 236 255
222 236 255
222 236 255
222 236 255
222 236 255
222 236 255
222 236 255
222 236 255
222 236 255
222 236 255
222 236 255
222 236 255
147 157 189
0 0 113
0 0 113
0 0 113
0 0 113
0 0 113
0 0 113
0 0 113
0 0 113
0 0 113
0 0 114
10 11 116
13 15 116
1 21 116
0 21 116
0 20 116
10 23 117
13 23 116
6 10 113
0 0 113
0 0 113
0 0 113
0 0 113
0 0 113
0 0 113
0 0 113
0 0 113
0 0 113
0 0 113
0 0 113
0 0 113
0 0 113
0 0 113
0 0 113
0 0 113
0 0 113
0 0 113
0 0 113
0 0 114
0 0 115
0 0 115
0 0 115
0 0 115
0 0 114
0 0 113
0 0 113
0 0 113
0 0 113
0 0 113
0 0 113
0 0 113
0 0 113
0 0 113
0 0 113
0 0 113
0 0 113
0 0 113
0 0 113
0 0 113
0 0 113
0 0 113
0 0 113
0 0 113
0 0 113
0 0 115
0 0 115
0 0 115
0 0 115
0 0 115
0 0 115
0 0 113
0 0 113
0 0 113
0 0 113
0 0 113
0 0 113
0 0 113
0 0 113
0 0 113
0 0 113
0 0 113
0 0 113
0 0 113
0 0 113
0 0 113
0 0 113
0 0 113
0 0 113
0 0 113
0 0 113
0 0 113
0 0 113
0 0 113
0 5 114
0 7 115
0 10 115
0 10 115
0 9 115
0 10 115
0 13 116
0 21 116
0 21 116
0 21 116
0 21 116
0 21 116
0 21 116
0 21 116
0 21 116
0 20 116
0 21 116
0 21 116
0 21 116
0 17 118
8 18 118
14 24 120
12 28 120
14 29 121
13 29 122
15 23 119
7 30 123
4 43 131
1 59 139
19 61 140
17 52 133
21 52 133
16 45 132
31 54 138
22 63 143
8 81 153
20 97 162
24 94 165
112 138 160
155 150 128
140 136 107
138 139 103
135 137 108
112 125 77
93 117 44
83 113 23
79 111 23
85 114 41
85 113 23
82 110 7
87 115 20
88 115 19
89 116 17
87 114 20
88 115 27
88 115 29
86 114 12
88 116 10
93 121 28
107 132 61
106 132 60
95 122 35
88 116 12
85 113 6
89 116 30
88 117 26
87 117 15
98 125 45
105 131 55
109 133 58
97 124 36
82 113 19
82 112 32
81 111 23
82 112 22
87 117 34
90 119 37
94 123 38
93 122 35
94 124 41
107 133 65
116 140 81
113 136 78
95 122 45
92 121 45
91 119 44
102 126 66
102 124 67
103 123 70
107 123 77
111 128 84
127 136 96
117 128 85
126 135 94
142 142 110
129 133 104
117 128 84
114 124 86
128 130 108
140 139 116
141 137 116
137 136 105
136 141 99
133 141 101
130 144 90
96 117 91
26 35 115
15 20 110
0 9 114
0 0 113
0 0 113
0 0 113
0 0 113
0 0 113
0 0 113
0 0 113
0 0 113
0 0 113
152 162 193
222 236 255
222 236 255
222 236 255
222 236 255
222 236 255
222 236 255
222 236 255
222 236 255
222 236 255
222 236 255
222 236 255
222 236 255
222 236 255
222 236 255
222 236 255
222 236 255
222 236 255
222 236 255
222 236 255
222 236 255
222 236 255
222 236 255
222 236 255
222 236 255
222 236 255
222 236 255
222 236 255
222 236 255
222 236 255
222 236 255
222 236 255
222 236 255
222 236 255
222 236 255
222 236 255
222 236 255
222 236 255
222 236 255
222 236 255
222 236 255
222 236 255
222 236 255
222 236 255
222 236 255
222 236 255
222 236 255
222 236 255
222 236 255
222 236 255
222 236 255
222 236 255
222 236 255
222 236 255
222 236 255
222 236 255
222 236 255
222 236 255
222 236 255
222 236 255
222 236 255
222 236 255
222 236 255
222 236 255
222 236 255
222 236 255
222 236 255
222 236 255
222 236 255
222 236 255
222 236 255
222 236 255
222 236 255
222 236 255
222 236 255
222 236 255
222 236 255
222 236 255
222 236 255
222 236 255
222 236 255
222 236 255
222 236 255
222 236 255
222 236 255
222 236 255
222 236 255
222 236 255
222 236 255
222 236 255
222 236 255
222 236 255
222 236 255
222 236 255
222 236 255
222 236 255
222 236 255
222 236 255
222 236 255
222 236 255
222 236 255
222 236 255
222 236 255
222 236 255
222 236 255
222 236 255
222 236 255
222 236 255
222 236 255
222 236 255
222 236 255
222 236 255
222 236 255
222 236 255
222 236 255
222 236 255
222 236 255
222 236 255
222 236 255
222 236 255
222 236 255
222 236 255
222 236 255
222 236 255
222 236 255
222 236 255
222 236 255
222 236 255
222 236 255
222 236 255
222 236 255
222 236 255
222 236 255
222 236 255
222 236 255
222 236 255
222 236 255
222 236 255
222 236 255
222 236 255
222 236 255
222 236 255
222 236 255
222 236 255
222 236 255
222 236 255
222 236 255
222 236 255
222 236 255
222 236 255
222 236 255
222 236 255
222 236 255
222 236 255
222 236 255
223 236 255
222 236 255
223 236 255
222 236 255
223 236 255
223 236 255
222 236 255
223 236 255
223 236 255
223 236 255
223 236 255
223 236 255
223 236 255
223 236 255
223 236 255
223 236 255
223 236 255
223 236 255
223 236 255
223 236 255
223 236 255
223 236 255
223 236 255
223 236 255
223 236 255
223 236 255
223 236 255
223 236 255
223 236 255
223 236 255
223 236 255
223 236 255
223 236 255
223 236 255
179 190 217
0 0 113
0 0 113
0 0 113
0 0 113
0 0 113
0 0 113
0 0 113
0 0 113
0 0 113
0 0 114
5 5 115
14 14 116
6 19 116
0 21 116
0 21 116
0 16 114
10 18 115
9 20 116
4 7 113
0 0 113
0 0 113
0 0 113
0 0 113
0 0 113
0 0 112
0 0 113
0 0 113
0 0 113
0 0 113
0 0 113
0 0 113
0 0 113
0 0 113
0 0 113
0 0 113
0 0 113
0 0 113
0 0 113
0 0 113
0 0 113
0 0 113
0 0 113
0 0 113
0 0 113
0 0 113
0 0 113
0 0 113
0 0 113
0 0 113
0 0 113
0 0 113
0 0 113
0 0 113
0 0 113
0 0 113
0 0 113
0 0 113
0 0 113
0 0 113
0 0 113
0 0 113
0 0 113
0 0 113
0 0 114
0 0 115
0 0 115
0 0 115
0 0 115
0 0 115
0 0 113
0 0 113
0 0 113
0 0 113
0 0 113
0 0 113
0 0 113
0 0 113
0 0 113
0 0 113
0 0 113
0 0 113
0 0 113
0 0 113
0 0 113
0 0 113
0 0 113
0 0 113
0 0 113
0 0 113
0 0 113
0 0 113
0 0 113
0 0 113
0 0 115
0 0 114
0 0 114
0 0 115
0 0 115
0 8 115
0 21 116
0 21 116
0 21 116
0 21 116
0 20 116
0 21 116
0 21 116
0 21 116
0 21 116
0 21 116
0 21 116
0 21 116
5 19 119
12 24 120
12 29 120
12 29 121
0 25 121
0 21 121
0 25 123
27 48 131
26 58 137
15 60 138
2 51 132
10 51 131
9 52 132
7 56 134
20 63 139
16 64 142
0 74 148
21 93 161
31 96 163
65 115 161
160 160 159
146 142 118
141 143 114
140 139 108
121 127 85
96 116 43
87 116 34
81 110 28
88 114 42
85 113 25
85 112 15
89 116 29
91 118 29
88 116 20
87 114 16
85 112 14
88 114 28
92 119 30
93 119 29
95 122 40
97 123 45
90 118 33
86 114 12
87 114 19
88 115 21
93 120 39
89 117 31
85 115 17
89 118 24
99 125 41
115 139 70
111 136 65
91 119 34
80 110 13
76 107 14
80 112 20
86 117 31
92 121 42
91 121 34
92 121 31
91 120 35
100 126 54
115 138 78
106 130 68
87 115 35
80 110 19
99 124 63
105 126 75
107 124 81
110 124 81
108 122 77
112 128 84
126 133 95
116 130 87
129 138 99
145 144 117
124 131 95
109 124 74
120 127 95
137 137 116
137 137 112
153 143 124
133 136 96
136 143 97
135 143 96
125 139 81
57 72 107
6 12 113
9 12 114
0 5 113
0 0 113
0 0 113
0 0 113
0 0 113
0 0 113
0 0 113
0 0 113
0 0 113
0 0 113
185 196 221
223 236 255
223 236 255
223 236 255
223 236 255
223 236 255
223 236 255
223 236 255
223 236 255
223 236 255
223 236 255
223 236 255
223 236 255
223 236 255
223 236 255
223 236 255
223 236 255
223 236 255
223 236 255
223 236 255
223 236 255
223 236 255
223 236 255
223 236 255
223 236 255
223 236 255
223 236 255
223 236 255
223 236 255
223 236 255
223 236 255
223 236 255
222 236 255
223 236 255
222 236 255
222 236 255
222 236 255
222 236 255
222 236 255
222 236 255
222 236 255
222 236 255
222 236 255
222 236 255
222 236 255
222 236 255
222 236 255
222 236 255
222 236 255
222 236 255
222 236 255
222 236 255
222 236 255
222 236 255
222 236 255
222 236 255
222 236 255
222 236 255
222 236 255
222 236 255
222 236 255
222 236 255
222 236 255
222 236 255
222 236 255
222 236 255
222 236 255
222 236 255
222 236 255
222 236 255
222 236 255
222 236 255
222 236 255
222 236 255
222 236 255
222 236 255
222 236 255
222 236 255
222 236 255
222 236 255
222 236 255
222 236 255
222 236 255
222 236 255
222 236 255
222 236 255
222 236 255
222 236 255
222 236 255
222 236 255
222 236 255
222 236 255
222 236 255
222 236 255
222 236 255
223 236 255
223 236 255
223 236 255
223 236 255
223 236 255
223 236 255
223 236 255
223 236 255
223 236 255
223 236 255
223 236 255
223 236 255
223 236 255
223 236 255
223 236 255
223 236 255
223 236 255
223 236 255
223 236 255
223 236 255
223 236 255
223 236 255
223 236 255
223 236 255
223 236 255
223 236 255
223 236 255
223 236 255
223 236 255
223 236 255
223 236 255
223 236 255
223 236 255
223 236 255
223 236 255
223 236 255
223 236 255
223 236 255
223 236 255
223 236 255
223 236 255
223 236 255
223 236 255
223 236 255
223 236 255
223 236 255
223 236 255
223 236 255
223 236 255
223 236 255
223 236 255
223 236 255
223 236 255
223 236 255
223 236 255
223 236 255
223 236 255
223 236 255
223 236 255
223 236 255
223 236 255
223 236 255
223 236 255
223 236 255
223 236 255
223 236 255
223 236 255
223 236 255
223 236 255
223 236 255
223 236 255
223 236 255
223 236 255
223 236 255
223 236 255
223 236 255
223 236 255
223 236 255
223 236 255
223 236 255
223 236 255
223 236 255
223 236 255
223 236 255
223 236 255
223 236 255
223 236 255
223 236 255
223 236 255
223 236 255
223 236 255
223 236 255
223 236 255
223 236 255
206 219 241
0 0 112
0 0 113
0 0 113
0 0 113
0 0 113
0 0 113
0 0 113
0 0 113
0 0 113
0 0 113
0 0 115
12 13 116
9 18 116
0 21 116
0 21 116
0 9 114
0 0 113
0 0 113
0 0 113
0 0 113
0 0 113
0 0 113
0 0 113
0 0 113
0 0 113
0 0 113
0 0 113
0 0 113
0 0 113
0 0 113
0 0 113
0 0 113
0 0 113
0 0 113
0 0 113
0 0 113
0 0 113
0 0 113
0 0 113
0 0 113
0 0 113
0 0 113
0 0 113
0 0 113
0 0 113
0 0 113
0 0 113
0 0 113
0 0 113
0 0 113
0 0 113
0 0 113
0 0 113
0 0 113
0 0 113
0 0 113
0 0 113
0 0 113
0 0 113
0 0 113
0 0 113
0 0 113
0 0 113
0 0 114
0 0 115
0 0 115
0 0 115
0 0 115
0 0 115
0 0 113
0 0 113
0 0 113
0 0 113
0 0 113
0 0 113
0 0 113
0 0 113
0 0 113
0 0 113
0 0 113
0 0 113
0 0 113
0 0 113
0 0 113
0 0 113
0 0 113
0 0 113
0 0 113
0 0 113
0 0 113
0 0 113
0 0 113
0 0 113
0 0 113
0 0 113
0 0 113
0 0 113
0 0 113
0 7 113
0 21 116
0 21 116
0 21 116
0 21 116
0 21 116
0 21 116
0 21 116
0 21 116
0 21 116
0 21 116
0 21 116
0 21 116
7 26 119
8 27 120
0 25 119
1 26 121
7 28 122
6 30 123
10 54 135
25 58 136
23 52 132
9 48 129
15 40 127
13 37 127
17 38 127
17 50 132
13 57 136
20 62 140
2 69 147
8 85 156
25 101 165
44 100 165
143 153 170
155 152 130
138 142 121
138 141 107
124 129 87
100 117 46
95 122 52
86 112 37
86 111 36
82 111 15
87 113 19
90 116 25
91 117 23
90 116 13
88 114 5
88 114 16
86 112 18
92 118 27
100 125 48
93 119 36
90 115 23
86 113 24
89 116 34
93 119 41
89 116 25
88 116 20
86 114 32
80 110 21
86 114 22
93 119 35
109 133 63
113 137 71
102 128 55
90 117 40
79 110 23
78 110 14
93 123 50
98 126 54
102 128 62
104 130 67
93 122 46
96 121 44
96 122 53
97 124 56
84 114 39
81 111 26
93 118 51
107 128 75
110 127 80
113 129 87
107 124 81
117 130 87
126 135 96
123 134 89
126 134 98
142 142 119
140 141 115
120 128 92
128 130 101
130 131 105
124 129 96
141 136 109
124 136 82
139 143 95
127 139 84
97 113 79
13 22 113
0 0 113
0 0 113
0 0 113
0 0 113
0 0 113
0 0 113
0 0 113
0 0 113
0 0 113
0 0 113
0 0 113
0 0 113
209 222 243
223 236 255
223 236 255
223 236 255
223 236 255
223 236 255
223 236 255
223 236 255
223 236 255
223 236 255
223 236 255
223 236 255
223 236 255
223 236 255
223 236 255
223 236 255
223 236 255
223 236 255
223 236 255
223 236 255
223 236 255
223 236 255
223 236 255
223 236 255
223 236 255
223 236 255
223 236 255
223 236 255
223 236 255
223 236 255
223 236 255
223 236 255
223 236 255
223 236 255
223 236 255
223 236 255
223 236 255
223 236 255
223 236 255
223 236 255
223 236 255
223 236 255
223 236 255
223 236 255
223 236 255
223 236 255
223 236 255
223 236 255
223 236 255
223 236 255
223 236 255
223 236 255
223 236 255
223 236 255
223 236 255
223 236 255
223 236 255
223 236 255
223 236 255
223 236 255
223 236 255
223 236 255
223 236 255
223 236 255
223 236 255
223 236 255
223 236 255
223 236 255
223 236 255
223 236 255
223 236 255
223 236 255
223 236 255
223 236 255
223 236 255
223 236 255
223 236 255
223 236 255
223 236 255
223 236 255
223 236 255
223 236 255
223 236 255
223 236 255
223 236 255
223 236 255
223 236 255
223 236 255
223 236 255
223 236 255
223 236 255
223 236 255
223 236 255
223 236 255
223 236 255
223 236 255
223 236 255
223 236 255
223 236 255
223 236 255
223 236 255
223 236 255
223 236 255
223 236 255
223 236 255
223 236 255
223 236 255
223 236 255
223 236 255
223 236 255
223 236 255
223 236 255
223 236 255
223 236 255
223 236 255
223 236 255
223 236 255
223 236 255
223 236 255
223 236 255
223 236 255
223 236 255
223 236 255
223 236 255
223 236 255
223 236 255
223 236 255
223 236 255
223 236 255
223 236 255
223 236 255
223 236 255
223 236 255
223 236 255
223 236 255
223 236 255
223 236 255
223 236 255
223 236 255
223 236 255
223 236 255
223 236 255
223 236 255
223 236 255
223 236 255
223 236 255
223 236 255
223 236 255
223 236 255
223 236 255
223 236 255
223 236 255
223 236 255
223 236 255
223 236 255
223 236 255
223 236 255
223 236 255
223 236 255
223 236 255
223 236 255
223 236 255
223 236 255
223 236 255
223 236 255
223 236 255
223 236 255
223 236 255
223 236 255
223 236 255
223 236 255
223 236 255
223 236 255
223 236 255
223 236 255
223 236 255
223 236 255
223 236 255
223 236 255
223 236 255
223 236 255
223 236 255
223 236 255
223 236 255
223 236 255
223 236 255
223 236 255
223 236 255
223 236 255
222 235 254
59 62 128
0 0 113
0 0 113
0 0 113
0 0 113
0 0 113
0 0 113
0 0 113
0 0 113
0 0 113
0 0 113
7 7 113
10 17 115
0 21 116
0 21 116
0 12 114
0 0 113
0 0 113
0 0 113
0 0 113
0 0 113
0 0 113
0 0 113
0 0 113
0 0 113
0 0 113
0 0 113
0 0 113
0 0 113
0 0 113
0 0 113
0 0 113
0 0 113
0 0 113
0 0 113
0 0 113
0 0 113
0 0 113
0 0 113
0 0 113
0 0 113
0 0 113
0 0 113
0 0 113
0 0 113
0 0 113
0 0 113
0 0 113
0 0 113
0 0 113
0 0 113
0 0 113
0 0 113
0 0 113
0 0 113
0 0 113
0 0 113
0 0 113
0 0 113
0 0 113
0 0 113
0 0 113
0 0 113
0 0 114
0 0 115
0 0 115
0 0 115
0 0 115
0 0 115
0 0 113
0 0 113
0 0 113
0 0 113
0 0 113
0 0 113
0 0 113
0 0 113
0 0 113
0 0 113
0 0 113
0 0 113
0 0 113
0 0 113
0 0 113
0 0 113
0 0 113
0 0 113
0 0 113
0 0 113
0 0 113
0 0 113
0 0 113
0 6 113
0 12 114
0 12 114
0 12 114
0 12 115
0 12 115
0 14 115
0 21 116
0 20 116
0 21 116
0 21 116
0 20 116
0 21 116
0 21 116
0 21 116
0 21 116
0 21 116
0 21 116
0 21 116
6 26 120
11 27 119
16 28 119
6 24 120
9 35 125
26 54 135
23 58 137
0 49 131
0 39 126
9 38 125
19 33 124
17 28 122
31 29 122
17 41 128
6 52 132
11 63 136
3 65 142
16 78 151
24 106 166
31 96 168
98 134 176
166 168 165
139 144 115
147 144 121
148 145 120
121 123 78
114 128 78
90 115 36
87 116 39
86 114 32
87 115 20
90 116 32
85 111 12
87 112 24
88 114 24
82 111 12
82 113 16
87 116 11
88 116 5
90 116 20
88 115 30
88 115 29
91 118 39
90 116 20
87 115 17
85 115 23
82 111 19
86 113 28
89 115 28
96 120 37
108 129 60
114 137 73
109 134 69
93 119 47
82 110 14
78 109 13
91 121 38
99 127 57
97 122 52
97 123 54
94 120 41
112 128 73
104 127 67
85 114 34
82 112 34
82 112 28
92 118 44
100 122 64
114 129 85
110 126 86
107 122 80
128 138 98
124 134 95
122 134 89
124 133 99
146 146 121
141 143 114
123 131 96
128 130 102
134 133 108
132 131 102
125 129 88
121 132 77
130 141 89
115 136 58
52 62 109
5 8 112
0 0 113
0 0 113
0 0 113
0 0 113
0 0 113
0 0 113
0 0 113
0 0 113
0 0 113
0 0 113
0 0 113
70 74 134
223 236 255
223 236 255
223 236 255
223 236 255
223 236 255
223 236 255
223 236 255
223 236 255
223 236 255
223 236 255
223 236 255
223 236 255
223 236 255
223 236 255
223 236 255
223 236 255
223 236 255
223 236 255
223 236 255
223 236 255
223 236 255
223 236 255
223 236 255
223 236 255
223 236 255
223 236 255
223 236 255
223 236 255
223 236 255
223 236 255
223 236 255
223 236 255
223 236 255
223 236 255
223 236 255
223 236 255
223 236 255
223 236 255
223 236 255
223 236 255
223 236 255
223 236 255
223 236 255
223 236 255
223 236 255
223 236 255
223 236 255
223 236 255
223 236 255
223 236 255
223 236 255
223 236 255
223 236 255
223 236 255
223 236 255
223 236 255
223 236 255
223 236 255
223 236 255
223 236 255
223 236 255
223 236 255
223 236 255
223 236 255
223 236 255
223 236 255
223 236 255
223 236 255
223 236 255
223 236 255
223 236 255
223 236 255
223 236 255
223 236 255
223 236 255
223 236 255
223 236 255
223 236 255
223 236 255
223 236 255
223 236 255
223 236 255
223 236 255
223 236 255
223 236 255
223 236 255
223 236 255
223 236 255
223 236 255
223 236 255
223 236 255
223 236 255
223 236 255
223 236 255
223 236 255
223 236 255
223 236 255
223 236 255
223 236 255
223 236 255
223 236 255
223 236 255
223 236 255
223 236 255
223 236 255
223 236 255
223 236 255
223 236 255
223 236 255
223 236 255
223 236 255
223 236 255
223 236 255
223 236 255
223 236 255
223 236 255
223 236 255
223 236 255
223 236 255
223 236 255
223 236 255
223 236 255
223 236 255
223 236 255
223 236 255
223 236 255
223 236 255
223 236 255
223 236 255
223 236 255
223 236 255
223 236 255
223 236 255
223 236 255
223 236 255
223 236 255
223 236 255
223 236 255
223 236 255
223 236 255
223 236 255
223 236 255
223 236 255
223 236 255
223 236 255
223 236 255
223 236 255
223 236 255
223 236 255
223 236 255
223 236 255
223 236 255
223 236 255
223 236 255
223 236 255
223 236 255
223 236 255
223 236 255
223 236 255
223 236 255
223 236 255
223 236 255
223 236 255
223 236 255
223 236 255
223 236 255
223 236 255
223 236 255
223 236 255
223 236 255
223 236 255
223 236 255
223 236 255
223 236 255
223 236 255
223 236 255
223 236 255
223 236 255
223 236 255
223 236 255
223 236 255
223 236 255
223 236 255
223 236 255
223 236 255
223 236 255
223 236 255
223 236 255
223 236 255
223 236 255
120 127 167
0 0 113
0 0 113
0 0 113
0 0 113
0 0 113
0 0 113
0 0 113
0 0 113
0 0 113
0 0 113
0 0 113
5 8 113
0 13 114
0 12 114
0 9 114
0 0 113
0 0 113
0 0 113
0 0 113
0 0 113
0 0 113
0 0 113
0 0 113
0 0 113
0 0 113
0 0 113
0 0 113
0 0 113
0 0 113
0 0 113
0 0 113
0 0 113
0 0 113
0 0 113
0 0 113
0 0 113
0 0 113
0 0 113
0 0 113
0 0 113
0 0 113
0 0 113
0 0 113
0 0 113
0 0 113
0 0 113
0 0 113
0 0 113
0 0 113
0 0 113
0 0 113
0 0 113
0 0 113
0 0 113
0 0 113
0 0 113
0 0 113
0 0 113
0 0 113
0 0 113
0 0 113
0 0 113
0 0 113
0 0 114
0 0 114
0 0 114
0 0 114
0 0 114
0 0 113
0 0 113
0 0 113
0 0 113
0 0 113
0 0 113
0 0 113
0 0 113
0 0 113
0 0 113
0 0 113
0 0 113
0 0 113
0 0 113
0 0 113
0 0 113
0 0 113
0 0 113
0 0 112
0 0 113
0 0 113
0 0 113
0 0 113
0 6 113
0 13 115
0 13 115
0 13 115
0 13 115
0 12 115
0 13 115
0 17 116
0 21 116
0 20 116
0 21 116
0 21 116
0 17 115
0 21 116
0 21 116
0 21 116
0 21 116
0 21 116
0 21 116
0 22 120
2 20 118
10 23 117
14 30 120
2 38 127
15 51 135
18 52 133
0 44 129
0 38 126
10 36 125
11 28 122
11 23 119
12 27 118
3 35 122
4 43 128
16 51 131
17 58 137
19 70 149
18 95 159
13 110 168
28 107 163
140 162 181
161 155 141
154 144 117
150 148 125
144 145 116
121 129 84
99 117 50
86 111 29
86 116 42
82 115 18
80 110 18
85 111 18
90 114 31
87 112 17
85 110 14
85 112 16
88 115 10
88 116 10
86 115 15
83 113 22
89 115 27
95 119 42
93 115 25
100 122 50
94 119 47
81 111 19
87 117 26
93 121 33
88 118 22
99 127 44
106 132 64
98 124 51
89 116 34
91 118 40
88 116 30
90 116 22
93 121 43
87 117 32
90 116 38
108 125 69
125 134 95
105 122 65
90 116 40
80 111 18
88 117 38
95 119 51
106 124 71
114 128 86
107 123 80
115 128 89
130 139 104
124 134 93
122 134 90
126 135 99
145 145 118
132 138 106
125 130 94
132 135 109
144 139 121
138 138 107
121 130 84
128 136 85
117 137 79
88 108 95
20 24 112
7 5 114
0 0 113
0 0 113
0 0 113
0 0 113
0 0 113
0 0 113
0 0 113
0 0 113
0 0 113
0 0 113
0 0 113
130 138 175
223 236 255
223 236 255
223 236 255
223 236 255
223 236 255
223 236 255
223 236 255
223 236 255
223 236 255
223 236 255
223 236 255
223 236 255
223 236 255
223 236 255
223 236 255
223 236 255
223 236 255
223 236 255
223 236 255
223 236 255
223 236 255
223 236 255
223 236 255
223 236 255
223 236 255
223 236 255
223 236 255
223 236 255
223 236 255
223 236 255
223 236 255
223 236 255
223 236 255
223 236 255
223 236 255
223 236 255
223 236 255
223 236 255
223 236 255
223 236 255
223 236 255
223 236 255
223 236 255
223 236 255
223 236 255
223 236 255
223 236 255
223 236 255
223 236 255
223 236 255
223 236 255
223 236 255
223 236 255
223 236 255
223 236 255
223 236 255
223 236 255
223 236 255
223 236 255
223 236 255
223 236 255
223 236 255
223 236 255
223 236 255
223 236 255
223 236 255
223 236 255
223 236 255
223 236 255
223 236 255
223 236 255
223 236 255
223 236 255
223 236 255
223 236 255
223 236 255
223 236 255
223 236 255
223 236 255
223 236 255
223 236 255
223 236 255
223 236 255
223 236 255
223 236 255
223 236 255
223 236 255
223 236 255
223 236 255
223 236 255
223 236 255
223 236 255
223 236 255
223 236 255
223 236 255
223 236 255
223 236 255
223 236 255
223 236 255
223 236 255
223 236 255
223 236 255
223 236 255
223 236 255
223 236 255
223 236 255
223 236 255
223 236 255
223 236 255
223 236 255
223 236 255
223 236 255
223 236 255
223 236 255
223 236 255
223 236 255
223 236 255
223 236 255
223 236 255
223 236 255
223 236 255
223 236 255
223 236 255
223 236 255
223 236 255
223 236 255
223 236 255
223 236 255
223 236 255
223 236 255
223 236 255
223 236 255
223 236 255
223 236 255
223 236 255
223 236 255
223 236 255
223 236 255
223 236 255
223 236 255
223 236 255
223 236 255
223 236 255
223 236 255
223 236 255
223 236 255
223 236 255
223 236 255
223 236 255
223 236 255
223 236 255
223 236 255
223 236 255
223 236 255
223 236 255
223 236 255
223 236 255
223 236 255
223 236 255
223 236 255
223 236 255
223 236 255
223 236 255
223 236 255
223 236 255
223 236 255
223 236 255
223 236 255
223 236 255
223 236 255
223 236 255
223 236 255
223 236 255
223 236 255
223 236 255
223 236 255
223 236 255
223 236 255
223 236 255
223 236 255
223 236 255
223 236 255
223 236 255
223 236 255
223 236 255
223 236 255
223 236 255
223 236 255
223 236 255
223 236 255
175 186 213
0 0 113
0 0 113
0 0 113
0 0 113
0 0 113
0 0 113
0 0 113
0 0 113
0 0 113
0 0 113
0 0 113
0 0 113
0 0 113
0 0 112
0 0 113
0 0 113
0 0 113
0 0 113
0 0 113
0 0 113
0 0 113
0 0 113
0 0 113
0 0 113
0 0 112
0 0 113
0 0 113
0 0 113
0 0 113
0 0 113
0 0 113
0 0 113
0 0 113
0 0 113
0 0 113
0 0 113
0 0 113
0 0 113
0 0 113
0 0 113
0 0 113
0 0 113
0 0 113
0 0 113
0 0 113
0 0 113
0 0 113
0 0 113
0 0 113
0 0 113
0 0 113
0 0 113
0 0 113
0 0 113
0 0 113
0 0 113
0 0 113
0 0 113
0 0 113
0 0 113
0 0 113
0 0 113
0 0 113
0 0 113
0 0 113
0 0 113
0 0 113
0 0 113
0 0 113
0 0 113
0 0 113
0 0 113
0 0 113
0 0 113
0 0 113
0 0 113
0 0 113
0 0 113
0 0 113
0 0 113
0 0 113
0 0 113
0 0 113
0 0 113
0 0 113
0 0 113
0 0 113
0 0 113
0 0 113
0 0 113
0 0 113
0 0 113
0 0 115
0 0 115
0 0 115
0 0 115
0 0 115
0 4 115
0 16 115
0 20 116
0 21 116
0 21 116
0 19 116
0 15 115
0 21 116
0 21 116
0 21 116
0 21 116
0 21 116
0 21 116
8 26 119
9 20 117
14 25 117
20 34 122
12 40 126
6 43 129
14 44 129
0 39 126
0 35 124
3 32 123
11 28 121
8 24 119
3 32 119
10 35 122
18 35 125
23 38 126
12 50 134
7 68 146
20 94 161
18 105 163
35 115 179
93 140 182
162 164 169
146 147 122
149 146 121
149 148 122
130 132 93
108 119 59
90 113 36
88 116 42
86 113 36
88 113 38
86 111 29
88 114 29
83 114 16
82 110 11
84 112 12
88 115 26
88 115 17
88 115 23
90 115 35
95 118 44
104 123 59
105 122 56
108 126 68
102 121 58
94 118 40
94 117 39
89 116 25
88 117 24
88 118 32
95 121 38
103 128 59
94 120 40
98 123 52
93 117 43
100 120 47
99 124 56
91 118 44
96 118 52
117 131 87
126 135 97
97 116 52
88 115 41
83 114 22
89 115 32
106 123 63
115 127 84
116 128 88
113 127 88
124 134 100
126 134 99
123 134 93
125 135 96
124 135 99
148 148 121
130 136 103
127 131 102
140 140 117
146 140 120
132 133 100
128 130 88
128 137 90
96 121 74
34 44 116
14 20 113
0 0 113
0 0 113
0 0 113
0 0 113
0 0 113
0 0 113
0 0 113
0 0 113
0 0 113
0 0 113
0 0 113
0 0 113
177 188 214
223 236 255
223 236 255
223 236 255
223 236 255
223 236 255
223 236 255
223 236 255
223 236 255
223 236 255
223 236 255
223 236 255
223 236 255
223 236 255
223 236 255
223 236 255
223 236 255
223 236 255
223 236 255
223 236 255
223 236 255
223 236 255
223 236 255
223 236 255
223 236 255
223 236 255
223 236 255
223 236 255
223 236 255
223 236 255
223 236 255
223 236 255
223 236 255
223 236 255
223 236 255
223 236 255
223 236 255
223 236 255
223 236 255
223 236 255
223 236 255
223 236 255
223 236 255
223 236 255
223 236 255
223 236 255
223 236 255
223 236 255
223 236 255
223 236 255
223 236 255
223 236 255
223 236 255
223 236 255
223 236 255
223 236 255
223 236 255
223 236 255
223 236 255
223 236 255
223 236 255
223 236 255
223 236 255
223 236 255
223 236 255
223 236 255
223 236 255
223 236 255
223 236 255
223 236 255
223 236 255
223 236 255
223 236 255
223 236 255
223 236 255
223 236 255
223 236 255
223 236 255
223 236 255
223 236 255
223 236 255
223 236 255
223 236 255
223 236 255
223 236 255
223 236 255
223 236 255
223 236 255
223 236 255
223 236 255
223 236 255
223 236 255
223 236 255
223 236 255
223 236 255
223 236 255
223 236 255
223 236 255
223 236 255
223 236 255
223 236 255
223 236 255
223 236 255
223 236 255
223 236 255
223 236 255
223 236 255
223 236 255
223 236 255
223 236 255
223 236 255
223 236 255
223 236 255
223 236 255
223 236 255
223 236 255
223 236 255
223 236 255
223 236 255
223 236 255
223 236 255
223 236 255
223 236 255
223 236 255
223 236 255
223 236 255
223 236 255
223 236 255
223 236 255
223 236 255
223 236 255
223 236 255
223 236 255
223 236 255
223 236 255
223 236 255
223 236 255
223 236 255
223 236 255
223 236 255
223 236 255
223 236 255
223 236 255
223 236 255
223 236 255
223 236 255
223 236 255
223 236 255
223 236 255
223 236 255
223 236 255
223 236 255
223 236 255
223 236 255
223 236 255
223 236 255
223 236 255
223 236 255
223 236 255
223 236 255
223 236 255
223 236 255
223 236 255
223 236 255
223 236 255
223 236 255
223 236 255
223 236 255
223 236 255
223 236 255
223 236 255
223 236 255
223 236 255
223 236 255
223 236 255
223 236 255
223 236 255
223 236 255
223 236 255
223 236 255
223 236 255
223 236 255
223 236 255
223 236 255
223 236 255
223 236 255
223 236 255
223 236 255
223 236 255
223 236 255
223 236 255
205 218 240
0 0 113
0 0 113
0 0 113
0 0 113
0 0 113
0 0 113
0 4 113
0 5 113
0 0 113
0 0 113
0 0 113
0 0 113
0 0 113
0 0 113
0 0 113
0 0 113
0 0 112
0 0 113
0 0 113
0 0 113
0 0 113
0 0 113
0 0 113
0 0 113
0 0 113
0 0 113
0 0 113
0 0 113
0 0 113
0 0 113
0 0 113
0 0 113
0 0 113
0 0 113
0 0 113
0 0 113
0 0 113
0 0 113
0 0 113
0 0 113
0 0 113
0 0 113
0 0 113
0 0 113
0 0 113
0 0 113
0 0 113
0 0 113
0 0 113
0 0 113
0 0 113
0 0 113
0 0 113
0 0 113
0 0 113
0 0 113
0 0 113
0 0 113
0 0 113
0 0 113
0 0 113
0 0 113
0 0 113
0 0 113
0 0 113
0 0 113
0 0 113
0 0 113
0 0 113
0 0 113
0 0 113
0 0 113
0 0 113
0 0 113
0 0 113
0 0 113
0 0 113
0 0 113
0 0 113
0 0 113
0 0 113
0 0 113
0 0 113
0 0 113
0 0 113
0 0 113
0 0 113
0 0 113
0 0 113
0 0 113
0 0 113
0 0 113
0 0 114
0 0 114
0 0 113
0 0 114
0 0 114
0 0 114
0 9 115
8 13 116
12 16 116
10 17 116
8 13 116
0 8 115
0 21 116
0 21 116
0 21 116
0 21 116
0 21 116
0 21 116
14 27 118
18 28 118
19 29 118
18 32 122
12 38 125
13 42 127
15 39 126
0 34 124
0 31 123
11 29 121
13 29 120
6 26 120
10 27 118
10 20 119
22 28 123
23 37 124
0 53 131
22 82 151
18 114 172
26 106 169
19 102 168
25 98 157
125 142 170
157 153 139
152 149 124
157 153 129
148 145 115
132 137 99
107 121 70
91 109 36
102 114 58
105 116 65
104 117 62
93 115 39
89 118 35
86 117 34
83 114 27
85 115 26
89 115 24
96 116 43
103 123 59
101 124 58
109 126 69
111 125 68
114 127 73
112 128 75
109 125 70
100 118 53
89 110 22
91 116 41
88 114 32
95 120 48
108 133 73
106 131 64
97 120 44
104 122 57
116 130 78
115 130 78
103 121 54
99 117 49
120 132 89
123 136 95
105 124 70
98 120 57
100 121 58
113 129 79
126 135 95
120 129 90
115 129 87
123 134 95
128 137 106
128 135 101
120 131 90
125 134 99
127 136 104
140 141 113
133 138 110
132 135 110
139 137 118
141 138 113
134 132 98
142 134 104
109 126 68
61 82 95
14 15 114
15 15 116
0 0 113
0 0 113
0 0 113
0 0 113
0 0 113
0 0 113
0 0 113
0 0 113
0 0 113
0 0 113
0 0 113
0 0 113
209 222 243
223 236 255
223 236 255
223 236 255
223 236 255
223 236 255
223 236 255
223 236 255
223 236 255
223 236 255
223 236 255
223 236 255
223 236 255
223 236 255
223 236 255
223 236 255
223 236 255
223 236 255
223 236 255
223 236 255
223 236 255
223 236 255
223 236 255
223 236 255
223 236 255
223 236 255
223 236 255
223 236 255
223 236 255
223 236 255
223 236 255
223 236 255
223 236 255
223 236 255
223 236 255
223 236 255
223 236 255
223 236 255
223 236 255
223 236 255
223 236 255
223 236 255
223 236 255
223 236 255
223 236 255
223 236 255
223 236 255
223 236 255
223 236 255
223 236 255
223 236 255
223 236 255
223 236 255
223 236 255
223 236 255
223 236 255
223 236 255
223 236 255
223 236 255
223 236 255
223 236 255
223 236 255
223 236 255
223 236 255
223 236 255
223 236 255
223 236 255
223 236 255
223 236 255
223 236 255
223 236 255
223 236 255
223 236 255
223 236 255
223 236 255
223 236 255
223 236 255
223 236 255
223 236 255
223 236 255
223 236 255
223 236 255
223 236 255
223 236 255
223 236 255
223 236 255
223 236 255
223 236 255
223 236 255
223 236 255
223 236 255
223 236 255
223 236 255
223 236 255
223 236 255
223 236 255
223 236 255
223 236 255
223 236 255
223 236 255
223 236 255
223 236 255
223 236 255
223 236 255
223 236 255
223 236 255
223 236 255
223 236 255
223 236 255
223 236 255
223 236 255
223 236 255
223 236 255
223 236 255
223 236 255
223 236 255
223 236 255
223 236 255
223 236 255
223 236 255
223 236 255
223 236 255
223 236 255
223 236 255
223 236 255
223 236 255
223 236 255
223 236 255
223 236 255
223 236 255
223 236 255
223 236 255
223 236 255
223 236 255
223 236 255
223 236 255
223 236 255
223 236 255
223 236 255
223 236 255
223 236 255
223 236 255
223 236 255
223 236 255
223 236 255
223 236 255
223 236 255
223 236 255
223 236 255
223 236 255
223 236 255
223 236 255
223 236 255
223 236 255
223 236 255
223 236 255
223 236 255
223 236 255
223 236 255
223 236 255
223 236 255
223 236 255
223 236 255
223 236 255
223 236 255
223 236 255
223 236 255
223 236 255
223 236 255
223 236 255
223 236 255
223 236 255
223 236 255
223 236 255
223 236 255
223 236 255
223 236 255
223 236 255
223 236 255
223 236 255
223 236 255
223 236 255
223 236 255
223 236 255
223 236 255
223 236 255
223 236 255
223 236 255
223 236 255
223 236 255
223 236 255
223 236 255
86 91 144
0 0 113
0 0 113
0 0 113
0 0 113
2 2 113
2 3 113
0 12 112
0 0 113
0 0 113
0 0 113
0 0 113
0 0 113
0 0 113
0 0 113
0 0 113
0 0 113
0 0 113
0 0 113
0 0 113
0 0 113
0 0 113
0 0 113
0 0 113
0 0 113
0 0 113
0 0 113
0 0 113
0 0 113
0 0 113
0 0 113
0 0 113
0 0 113
0 0 113
0 0 113
0 0 113
0 0 113
0 0 113
0 0 113
0 0 113
0 0 113
0 0 113
0 0 113
0 0 113
0 0 113
0 0 113
0 0 113
0 0 113
0 0 113
0 0 113
0 0 113
0 0 113
0 0 113
0 0 113
0 0 113
0 0 113
0 0 113
0 0 113
0 0 113
0 0 113
0 0 113
0 0 113
0 0 113
0 0 113
0 0 113
0 0 113
0 0 113
0 0 113
0 0 113
0 0 113
0 0 113
0 0 113
0 0 113
0 0 113
0 0 113
0 0 113
0 0 113
0 0 113
0 0 113
0 0 113
0 0 113
0 0 113
0 0 113
0 0 113
0 0 113
0 0 113
0 0 113
0 0 113
0 0 113
0 0 113
0 0 113
0 0 113
0 0 113
0 0 113
0 0 113
0 0 113
0 0 113
0 0 113
0 0 115
3 3 115
12 13 116
11 12 115
1 2 115
0 0 115
0 21 116
0 21 116
0 21 116
0 21 116
0 21 116
0 21 116
6 20 116
15 26 118
12 24 117
2 22 118
4 29 121
12 34 124
13 30 122
16 31 122
8 27 121
5 26 120
14 29 121
8 27 120
18 20 117
10 17 118
12 25 119
4 36 120
4 53 130
18 79 148
20 95 161
27 94 165
36 95 158
10 100 161
62 109 162
165 166 157
157 151 125
160 156 134
151 148 121
147 148 119
122 127 86
115 120 75
121 124 86
133 134 102
130 135 101
117 126 77
101 117 49
88 113 34
83 110 21
84 112 18
83 111 16
90 113 28
95 118 39
101 124 56
110 124 66
115 126 72
116 129 78
117 131 82
112 126 72
107 123 67
94 114 37
92 115 34
89 114 36
89 113 42
98 124 53
103 127 59
103 123 58
120 134 85
127 135 96
126 130 88
126 135 90
106 124 64
118 131 85
116 129 85
113 130 85
115 128 81
121 133 89
127 137 98
137 142 110
123 131 95
115 130 88
128 137 99
128 135 101
122 130 95
120 130 94
127 132 101
135 139 108
139 140 112
141 144 119
139 137 117
147 143 125
140 137 111
149 140 119
139 136 107
105 125 59
43 57 104
15 16 111
7 8 114
0 0 113
0 0 113
0 0 113
0 0 113
0 0 113
0 0 113
0 0 113
0 0 113
0 0 113
0 0 113
0 0 113
77 82 138
223 236 255
223 236 255
223 236 255
223 236 255
223 236 255
223 236 255
223 236 255
223 236 255
223 236 255
223 236 255
223 236 255
223 236 255
223 236 255
223 236 255
223 236 255
223 236 255
223 236 255
223 236 255
223 236 255
223 236 255
223 236 255
223 236 255
223 236 255
223 236 255
223 236 255
223 236 255
223 236 255
223 236 255
223 236 255
223 236 255
223 236 255
223 236 255
223 236 255
223 236 255
223 236 255
223 236 255
223 236 255
223 236 255
223 236 255
223 236 255
223 236 255
223 236 255
223 236 255
223 236 255
223 236 255
223 236 255
223 236 255
223 236 255
223 236 255
223 236 255
223 236 255
223 236 255
223 236 255
223 236 255
223 236 255
223 236 255
223 236 255
223 236 255
223 236 255
223 236 255
223 236 255
223 236 255
223 236 255
223 236 255
223 236 255
223 236 255
223 236 255
223 236 255
223 236 255
223 236 255
223 236 255
223 236 255
223 236 255
223 236 255
223 236 255
223 236 255
223 236 255
223 236 255
223 236 255
223 236 255
223 236 255
223 236 255
223 236 255
223 236 255
223 236 255
223 236 255
223 236 255
223 236 255
223 236 255
223 236 255
223 236 255
223 236 255
223 236 255
223 236 255
223 236 255
223 236 255
223 236 255
223 236 255
223 236 255
223 236 255
223 236 255
223 236 255
223 236 255
223 236 255
223 236 255
223 236 255
223 236 255
223 236 255
223 236 255
223 236 255
223 236 255
223 236 255
223 236 255
223 236 255
223 236 255
223 236 255
223 236 255
223 236 255
223 236 255
223 236 255
223 236 255
223 236 255
223 236 255
223 236 255
223 236 255
223 236 255
223 236 255
223 236 255
223 236 255
223 236 255
223 236 255
223 236 255
223 236 255
223 236 255
223 236 255
223 236 255
223 236 255
223 236 255
223 236 255
223 236 255
223 236 255
223 236 255
223 236 255
223 236 255
223 236 255
223 236 255
223 236 255
223 236 255
223 236 255
223 236 255
223 236 255
223 236 255
223 236 255
223 236 255
223 236 255
223 236 255
223 236 255
223 236 255
223 236 255
223 236 255
223 236 255
223 236 255
223 236 255
223 236 255
223 236 255
223 236 255
223 236 255
223 236 255
223 236 255
223 236 255
223 236 255
223 236 255
223 236 255
223 236 255
223 236 255
223 236 255
223 236 255
223 236 255
223 236 255
223 236 255
223 236 255
223 236 255
223 236 255
223 236 255
223 236 255
223 236 255
223 236 255
223 236 255
223 236 255
223 236 255
223 236 255
223 236 255
148 157 189
0 0 113
0 0 113
0 0 113
0 0 113
2 2 113
4 4 113
0 9 112
0 0 113
0 0 113
0 0 113
0 0 113
0 0 113
0 0 113
0 0 113
0 0 113
0 0 113
0 0 113
0 0 113
0 0 113
0 0 113
0 0 113
0 0 113
0 0 113
0 0 113
0 0 113
0 0 113
0 0 113
0 0 113
0 0 113
0 0 113
0 0 113
0 0 113
0 0 113
0 0 113
0 0 113
0 0 113
0 0 113
0 0 113
0 0 113
0 0 113
0 0 113
0 0 113
0 0 113
0 0 113
0 0 113
0 0 113
0 0 113
0 0 113
0 0 113
0 0 112
0 0 113
0 0 113
0 0 113
0 0 113
0 0 113
0 0 113
0 0 113
0 0 113
0 0 113
0 0 113
0 0 113
0 0 113
0 0 113
0 0 113
0 0 113
0 0 113
0 0 113
0 0 113
0 0 113
0 0 113
0 0 113
0 0 113
0 0 113
0 0 113
0 0 113
0 0 113
0 0 113
0 0 113
0 0 113
0 0 113
0 0 113
0 0 113
0 0 113
0 0 113
0 0 113
0 0 113
0 0 113
0 0 113
0 0 113
0 0 113
0 0 113
0 0 113
0 0 113
0 0 113
0 0 113
0 0 113
0 0 113
0 0 113
0 0 113
9 10 113
9 9 113
0 0 113
0 0 113
0 21 116
0 21 116
0 21 116
0 21 116
0 21 116
0 21 116
0 9 113
5 22 116
7 19 116
3 19 118
11 28 120
11 28 120
5 18 118
11 24 120
9 25 119
4 24 119
12 29 120
7 25 117
12 19 117
12 26 119
7 18 116
14 27 117
21 45 129
18 56 140
15 64 142
13 86 156
26 92 162
24 94 156
53 92 162
168 181 175
170 165 145
162 154 129
156 152 126
148 145 116
136 137 105
132 134 100
134 135 104
138 136 108
144 141 114
152 151 126
143 143 109
111 125 73
99 116 53
83 111 22
79 111 10
84 115 26
90 118 31
109 130 68
112 127 70
116 128 79
116 129 76
112 128 71
104 123 53
100 122 54
96 120 46
88 116 32
84 111 17
83 109 28
90 115 33
103 124 59
108 126 67
128 136 95
129 132 97
134 138 104
129 137 99
118 131 85
118 131 85
120 131 90
122 131 94
133 139 108
129 135 98
128 138 100
122 134 94
122 133 96
126 134 102
132 138 105
127 136 103
126 133 101
128 134 102
135 139 111
140 141 114
144 143 118
136 139 113
141 138 119
149 143 123
138 134 105
149 140 116
134 136 97
100 123 69
21 31 115
11 13 114
0 2 112
0 0 113
0 0 113
0 0 113
0 0 113
0 0 113
0 0 113
0 0 113
0 0 113
0 0 113
0 0 113
0 0 113
137 146 181
223 236 255
223 236 255
223 236 255
223 236 255
223 236 255
223 236 255
223 236 255
223 236 255
223 236 255
223 236 255
223 236 255
223 236 255
223 236 255
223 236 255
223 236 255
223 236 255
223 236 255
223 236 255
223 236 255
223 236 255
223 236 255
223 236 255
223 236 255
223 236 255
223 236 255
223 236 255
223 236 255
223 236 255
223 236 255
223 236 255
223 236 255
223 236 255
223 236 255
223 236 255
223 236 255
223 236 255
223 236 255
223 236 255
223 236 255
223 236 255
223 236 255
223 236 255
223 236 255
223 236 255
223 236 255
223 236 255
223 236 255
223 236 255
223 236 255
223 236 255
223 236 255
223 236 255
223 236 255
223 236 255
223 236 255
223 236 255
223 236 255
223 236 255
223 236 255
223 236 255
223 236 255
223 236 255
223 236 255
223 236 255
223 236 255
223 236 255
223 236 255
223 236 255
223 236 255
223 236 255
223 236 255
223 236 255
223 236 255
223 236 255
223 236 255
223 236 255
223 236 255
223 236 255
223 236 255
223 236 255
223 236 255
223 236 255
223 236 255
223 236 255
223 236 255
223 236 255
223 236 255
223 236 255
223 236 255
223 236 255
223 236 255
223 236 255
223 236 255
223 236 255
223 236 255
223 236 255
223 236 255
223 236 255
223 236 255
223 236 255
223 236 255
223 236 255
223 236 255
223 236 255
223 236 255
223 236 255
223 236 255
223 236 255
223 236 255
223 236 255
223 236 255
223 236 255
223 236 255
223 236 255
223 236 255
223 236 255
223 236 255
223 236 255
223 236 255
223 236 255
223 236 255
223 236 255
223 236 255
223 236 255
223 236 255
223 236 255
223 236 255
223 236 255
223 236 255
223 236 255
223 236 255
223 236 255
223 236 255
223 236 255
223 236 255
223 237 255
223 236 255
223 236 255
223 237 255
223 237 255
223 236 255
223 236 255
223 236 255
223 237 255
223 237 255
223 237 255
223 237 255
223 237 255
223 237 255
223 237 255
223 237 255
223 237 255
223 237 255
223 237 255
223 237 255
223 237 255
223 237 255
223 237 255
223 237 255
223 237 255
223 237 255
223 237 255
223 237 255
223 237 255
223 237 255
223 237 255
223 237 255
223 237 255
223 237 255
223 237 255
223 237 255
223 237 255
223 237 255
223 237 255
223 237 255
223 237 255
223 237 255
223 237 255
223 237 255
223 237 255
223 237 255
223 237 255
223 237 255
223 237 255
223 237 255
223 237 255
223 237 255
223 237 255
223 237 255
223 237 255
223 237 255
223 237 255
185 196 221
0 0 113
0 0 113
0 0 113
0 0 112
0 0 113
0 3 113
0 0 112
0 0 113
0 0 113
0 0 113
0 0 113
0 0 113
0 0 113
0 0 112
0 0 113
0 0 113
0 0 113
0 0 113
0 0 113
0 0 113
0 0 113
0 0 113
0 0 113
0 0 113
0 0 113
0 0 112
0 0 113
0 0 113
0 0 113
0 0 113
0 0 113
0 0 113
0 0 113
0 0 113
0 0 113
0 0 113
0 0 113
0 0 113
0 0 113
0 0 113
0 0 113
0 0 113
0 0 113
0 0 113
0 0 113
0 0 113
0 0 113
0 0 113
0 0 113
0 0 113
0 0 113
0 0 113
0 0 113
0 0 113
0 0 113
0 0 113
0 0 113
0 0 113
0 0 113
0 0 113
0 0 113
0 0 113
0 0 113
0 0 113
0 0 113
0 0 113
0 0 113
0 0 113
0 0 113
0 0 113
0 0 113
0 0 113
0 0 113
0 0 114
0 0 115
0 0 115
0 0 115
0 0 115
0 0 115
0 0 113
0 0 113
0 0 113
0 0 113
0 0 113
0 0 113
0 0 113
0 0 113
0 0 113
0 0 113
0 0 113
0 0 113
0 0 113
0 0 113
0 0 113
0 0 113
0 0 113
0 0 113
0 0 113
0 0 113
0 0 113
0 0 113
0 0 113
0 0 113
0 12 114
0 10 114
0 11 114
0 11 114
0 14 115
0 11 114
0 19 116
0 21 116
0 18 116
3 21 117
8 24 118
3 20 118
3 18 117
7 21 117
3 21 117
0 21 117
5 23 117
3 22 116
0 16 117
14 22 116
17 18 115
12 26 118
16 40 128
15 52 135
8 65 142
17 80 152
16 84 155
23 81 157
51 86 148
170 183 188
188 189 174
160 162 142
160 155 131
155 149 125
147 146 120
141 140 108
152 148 121
149 147 122
146 146 121
152 149 122
162 156 128
150 145 121
127 128 99
88 109 44
93 114 44
78 109 25
92 118 32
109 129 70
108 127 67
112 130 67
111 130 73
106 126 65
92 117 34
90 118 38
83 115 14
84 116 24
83 113 16
83 110 13
92 116 36
107 126 68
110 127 68
126 134 92
127 134 92
123 134 93
125 137 94
128 139 98
124 136 98
124 135 99
129 136 105
135 140 109
129 136 101
123 135 99
122 132 93
125 133 95
134 141 109
125 133 98
129 138 103
126 135 103
132 137 106
138 140 113
146 146 120
141 142 113
128 131 102
138 137 117
137 137 110
125 129 92
134 135 100
125 136 87
89 115 73
13 22 118
14 17 114
0 0 112
0 0 113
0 0 113
0 0 113
0 0 113
0 0 113
0 0 113
0 0 113
0 0 113
0 0 113
0 0 113
0 0 113
192 203 227
223 237 255
223 237 255
223 237 255
223 237 255
223 237 255
223 237 255
223 237 255
223 237 255
223 237 255
223 237 255
223 237 255
223 237 255
223 237 255
223 237 255
223 237 255
223 237 255
223 237 255
223 237 255
223 237 255
223 237 255
223 237 255
223 237 255
223 237 255
223 237 255
223 237 255
223 237 255
223 237 255
223 237 255
223 237 255
223 237 255
223 237 255
223 237 255
223 237 255
223 237 255
223 237 255
223 237 255
223 237 255
223 237 255
223 237 255
223 237 255
223 237 255
223 237 255
223 237 255
223 237 255
223 237 255
223 237 255
223 237 255
223 237 255
223 237 255
223 237 255
223 237 255
223 237 255
223 236 255
223 237 255
223 236 255
223 236 255
223 236 255
223 236 255
223 236 255
223 236 255
223 236 255
223 236 255
223 236 255
223 236 255
223 236 255
223 236 255
223 236 255
223 236 255
223 236 255
223 236 255
223 236 255
223 236 255
223 236 255
223 236 255
223 236 255
223 236 255
223 236 255
223 236 255
223 236 255
223 236 255
223 236 255
223 236 255
223 236 255
223 236 255
223 236 255
223 236 255
223 236 255
223 236 255
223 236 255
223 236 255
223 236 255
223 236 255
223 236 255
223 236 255
223 236 255
223 236 255
223 237 255
223 237 255
223 237 255
223 237 255
223 237 255
223 237 255
223 237 255
223 237 255
223 237 255
223 237 255
223 237 255
223 237 255
223 237 255
223 237 255
223 237 255
223 237 255
223 237 255
223 237 255
223 237 255
223 237 255
223 237 255
223 237 255
223 237 255
223 237 255
223 237 255
223 237 255
223 237 255
223 237 255
223 237 255
223 237 255
223 237 255
223 237 255
223 237 255
223 237 255
223 237 255
223 237 255
223 237 255
223 237 255
223 237 255
223 237 255
223 237 255
223 237 255
223 237 255
223 237 255
223 237 255
223 237 255
223 237 255
223 237 255
223 237 255
223 237 255
223 237 255
223 237 255
223 237 255
223 237 255
223 237 255
223 237 255
223 237 255
223 237 255
223 237 255
223 237 255
223 237 255
223 237 255
223 237 255
223 237 255
223 237 255
223 237 255
223 237 255
223 237 255
223 237 255
223 237 255
223 237 255
223 237 255
223 237 255
223 237 255
223 237 255
223 237 255
223 237 255
223 237 255
223 237 255
223 237 255
223 237 255
223 237 255
223 237 255
223 237 255
223 237 255
223 237 255
223 237 255
223 237 255
223 237 255
223 237 255
223 237 255
223 237 255
223 237 255
223 237 255
223 237 255
223 237 255
217 231 250
67 71 132
0 0 113
0 0 113
0 0 113
0 0 113
7 12 113
5 6 113
0 0 113
0 0 113
0 0 113
0 0 113
0 0 113
0 0 113
0 0 113
0 0 113
0 0 113
0 0 113
0 0 113
0 0 113
0 0 113
0 0 113
0 0 113
0 0 113
0 0 113
0 0 113
0 0 113
0 0 113
0 0 113
0 0 112
0 0 113
0 0 112
0 0 113
0 0 113
0 0 113
0 0 113
0 0 113
0 0 113
0 0 113
0 0 113
0 0 113
0 0 113
0 0 113
0 0 113
0 0 113
0 0 113
0 0 113
0 0 113
0 0 113
0 0 113
0 0 113
0 0 113
0 0 113
0 0 113
0 0 113
0 0 113
0 0 113
0 0 113
0 0 113
0 0 113
0 0 113
0 0 113
0 0 113
0 0 113
0 0 113
0 0 113
0 0 113
0 0 113
0 0 113
0 0 113
0 0 113
0 0 113
0 0 113
0 0 113
0 0 114
0 0 114
0 0 114
0 0 114
0 0 114
0 0 114
0 0 113
0 0 113
0 0 113
0 0 113
0 0 113
0 0 113
0 0 113
0 0 113
0 0 113
0 0 113
0 0 113
0 0 113
0 0 113
0 0 113
0 0 113
0 0 113
0 0 113
0 0 113
0 0 113
0 0 113
0 0 113
0 0 113
0 0 113
0 0 113
0 0 113
0 0 113
0 0 113
0 0 113
0 0 113
0 0 113
0 21 114
0 21 115
0 21 116
0 21 116
0 21 116
0 21 116
0 20 116
0 19 116
0 19 116
0 20 116
0 19 116
0 20 116
0 24 118
9 18 116
12 15 116
0 23 119
0 40 127
12 55 135
17 70 144
18 69 149
0 73 143
13 69 145
34 75 150
107 120 155
178 178 178
185 178 164
168 162 143
160 154 121
159 155 127
166 160 133
166 163 137
159 157 131
155 149 115
152 146 112
161 156 128
157 153 125
145 147 110
117 119 75
101 119 55
87 110 32
82 110 21
97 121 52
95 119 47
102 125 53
110 129 71
108 128 68
92 117 36
85 115 16
81 113 9
83 113 11
85 114 21
88 115 28
94 119 45
109 130 70
114 133 77
117 133 76
118 134 82
115 133 81
118 132 84
122 133 90
120 131 94
127 136 102
134 141 111
130 136 109
130 140 109
128 137 103
130 138 104
133 138 103
131 140 108
129 140 104
125 136 100
130 137 104
135 136 106
146 145 118
141 141 112
139 141 111
135 137 112
139 139 119
134 136 108
122 131 89
124 132 84
122 138 80
82 105 89
0 15 114
9 12 114
0 0 113
0 0 113
0 0 113
0 0 113
0 0 113
0 0 113
0 0 113
0 0 113
0 0 113
0 0 113
0 0 113
44 47 122
215 228 248
223 237 255
223 237 255
223 237 255
223 237 255
223 237 255
223 237 255
223 237 255
223 237 255
223 237 255
223 237 255
223 237 255
223 237 255
223 237 255
223 237 255
223 237 255
223 237 255
223 237 255
223 237 255
223 237 255
223 237 255
223 237 255
223 237 255
223 237 255
223 237 255
223 237 255
223 237 255
223 237 255
223 237 255
223 237 255
223 237 255
223 237 255
223 237 255
223 237 255
223 237 255
223 237 255
223 237 255
223 237 255
223 237 255
223 237 255
223 237 255
223 237 255
223 237 255
223 237 255
223 237 255
223 237 255
223 237 255
223 237 255
223 237 255
223 237 255
223 237 255
223 237 255
223 237 255
223 237 255
223 237 255
223 237 255
223 237 255
223 237 255
223 237 255
223 237 255
223 237 255
223 237 255
223 237 255
223 237 255
223 237 255
223 237 255
223 237 255
223 237 255
223 237 255
223 237 255
223 237 255
223 237 255
223 237 255
223 237 255
223 237 255
223 237 255
223 237 255
223 237 255
223 237 255
223 237 255
223 237 255
223 237 255
223 237 255
223 237 255
223 237 255
223 237 255
223 237 255
223 237 255
223 237 255
223 237 255
223 237 255
223 237 255
223 237 255
223 237 255
223 237 255
223 237 255
223 237 255
223 237 255
223 237 255
223 237 255
223 237 255
223 237 255
223 237 255
223 237 255
223 237 255
223 237 255
223 237 255
223 237 255
223 237 255
223 237 255
223 237 255
223 237 255
223 237 255
223 237 255
223 237 255
223 237 255
223 237 255
223 237 255
223 237 255
223 237 255
223 237 255
223 237 255
223 237 255
223 237 255
223 237 255
223 237 255
223 237 255
223 237 255
223 237 255
223 237 255
223 237 255
223 237 255
223 237 255
223 237 255
223 237 255
223 237 255
223 237 255
223 237 255
223 237 255
223 237 255
223 237 255
223 237 255
223 237 255
223 237 255
223 237 255
223 237 255
223 237 255
223 237 255
223 237 255
223 237 255
223 237 255
223 237 255
223 237 255
223 237 255
223 237 255
223 237 255
223 237 255
223 237 255
223 237 255
223 237 255
223 237 255
223 237 255
223 237 255
223 237 255
223 237 255
223 237 255
223 237 255
223 237 255
223 237 255
223 237 255
223 237 255
223 237 255
223 237 255
223 237 255
223 237 255
223 237 255
223 237 255
223 237 255
223 237 255
223 237 255
223 237 255
223 237 255
223 237 255
223 237 255
223 237 255
223 237 255
223 237 255
223 237 255
223 237 255
223 237 255
223 237 255
223 237 255
223 237 255
223 237 255
130 138 175
0 0 113
0 0 113
0 0 113
0 0 113
8 9 113
16 20 114
0 0 112
0 0 113
0 0 113
0 0 113
0 0 113
0 0 113
0 0 113
0 0 113
0 0 113
0 0 113
0 0 113
0 0 113
0 0 113
0 0 113
0 0 113
0 0 113
0 0 113
0 0 113
0 0 113
0 0 113
0 0 113
0 0 113
0 0 113
0 0 113
0 0 113
0 0 113
0 0 113
0 0 113
0 0 113
0 0 112
0 0 113
0 0 113
0 0 113
0 0 113
0 0 113
0 0 113
0 0 113
0 0 113
0 0 113
0 0 113
0 0 113
0 0 113
0 0 113
0 0 113
0 0 113
0 0 113
0 0 113
0 0 113
0 0 113
0 0 113
0 0 113
0 0 113
0 0 113
0 0 113
0 0 113
0 0 113
0 0 113
0 0 113
0 0 113
0 0 113
0 0 113
0 0 113
0 0 113
0 0 113
0 0 113
0 0 113
0 0 113
0 0 113
0 0 113
0 0 113
0 0 113
0 0 113
0 0 113
0 0 113
0 0 113
0 0 113
0 0 113
0 0 113
0 0 113
0 0 113
0 0 113
0 0 113
0 0 113
0 0 113
0 0 113
0 0 113
0 0 113
0 0 113
0 0 113
0 0 113
0 0 113
0 0 113
0 0 113
0 0 113
0 0 113
0 0 113
0 0 113
0 0 113
0 0 113
0 0 113
0 0 113
0 2 113
0 21 114
0 21 114
0 21 115
0 21 116
0 21 116
0 21 116
0 15 115
0 15 115
0 15 115
0 14 115
0 15 115
0 16 115
0 28 119
0 23 117
0 19 116
0 26 121
0 41 127
12 53 134
14 64 148
27 68 151
13 63 138
14 58 135
29 72 150
31 85 159
85 115 165
187 184 174
189 181 154
162 156 136
152 151 130
160 154 125
171 163 134
168 161 133
156 150 121
154 149 120
162 154 126
144 147 143
139 146 136
135 134 96
89 114 50
87 119 25
87 118 36
76 108 16
81 111 27
101 126 58
105 127 60
100 123 56
96 122 51
89 118 33
85 114 20
87 113 20
92 116 35
96 118 43
104 124 60
108 127 66
119 135 80
127 143 96
122 141 94
114 132 79
118 131 86
130 138 101
123 133 95
126 138 102
129 137 102
136 141 110
128 136 105
131 137 105
136 142 112
137 143 111
129 139 105
130 142 107
125 135 97
135 139 105
142 142 114
143 141 114
140 142 114
141 142 116
134 135 110
137 137 113
121 127 93
122 132 88
119 133 78
119 137 73
57 74 105
10 14 113
3 8 113
0 0 113
0 0 113
0 0 113
0 0 113
0 0 113
0 0 113
0 0 113
0 0 113
0 0 113
0 0 113
0 0 113
116 123 164
223 237 255
223 237 255
223 237 255
223 237 255
223 237 255
223 237 255
223 237 255
223 237 255
223 237 255
223 237 255
223 237 255
223 237 255
223 237 255
223 237 255
223 237 255
223 237 255
223 237 255
223 237 255
223 237 255
223 237 255
223 237 255
223 237 255
223 237 255
223 237 255
223 237 255
223 237 255
223 237 255
223 237 255
223 237 255
223 237 255
223 237 255
223 237 255
223 237 255
223 237 255
223 237 255
223 237 255
223 237 255
223 237 255
223 237 255
223 237 255
223 237 255
223 237 255
223 237 255
223 237 255
223 237 255
223 237 255
223 237 255
223 237 255
223 237 255
223 237 255
223 237 255
223 237 255
223 237 255
223 237 255
223 237 255
223 237 255
223 237 255
223 237 255
223 237 255
223 237 255
223 237 255
223 237 255
223 237 255
223 237 255
223 237 255
223 237 255
223 237 255
223 237 255
223 237 255
223 237 255
223 237 255
223 237 255
223 237 255
223 237 255
223 237 255
223 237 255
223 237 255
223 237 255
223 237 255
223 237 255
223 237 255
223 237 255
223 237 255
223 237 255
223 237 255
223 237 255
223 237 255
223 237 255
223 237 255
223 237 255
223 237 255
223 237 255
223 237 255
223 237 255
223 237 255
223 237 255
223 237 255
223 237 255
223 237 255
223 237 255
223 237 255
223 237 255
223 237 255
223 237 255
223 237 255
223 237 255
223 237 255
223 237 255
223 237 255
223 237 255
223 237 255
223 237 255
223 237 255
223 237 255
223 237 255
223 237 255
223 237 255
223 237 255
223 237 255
223 237 255
223 237 255
223 237 255
223 237 255
223 237 255
223 237 255
223 237 255
223 237 255
223 237 255
223 237 255
223 237 255
223 237 255
223 237 255
223 237 255
223 237 255
223 237 255
223 237 255
223 237 255
223 237 255
223 237 255
223 237 255
223 237 255
223 237 255
223 237 255
223 237 255
223 237 255
223 237 255
223 237 255
223 237 255
223 237 255
223 237 255
223 237 255
223 237 255
223 237 255
223 237 255
223 237 255
223 237 255
223 237 255
223 237 255
223 237 255
223 237 255
223 237 255
223 237 255
223 237 255
223 237 255
223 237 255
223 237 255
223 237 255
223 237 255
223 237 255
223 237 255
223 237 255
223 237 255
223 237 255
223 237 255
223 237 255
223 237 255
223 237 255
223 237 255
223 237 255
223 237 255
223 237 255
223 237 255
223 237 255
223 237 255
223 237 255
223 237 255
223 237 255
223 237 255
223 237 255
223 237 255
223 237 255
223 237 255
223 237 255
223 237 255
181 192 218
0 0 113
0 0 113
0 0 113
0 0 113
0 0 113
0 20 113
9 15 112
4 5 113
0 0 113
0 0 113
0 0 113
0 0 113
0 0 113
0 0 113
0 0 113
0 0 113
0 0 113
0 0 113
0 0 113
0 0 113
0 0 113
0 0 113
0 0 113
0 0 113
0 0 113
0 0 113
0 0 113
0 0 113
0 0 113
0 0 113
0 0 113
0 0 113
0 0 113
0 0 113
0 0 113
0 0 113
0 0 113
0 0 113
0 0 113
0 0 113
0 0 113
0 0 113
0 0 113
0 0 113
0 0 113
0 0 113
0 0 113
0 0 113
0 0 113
0 0 113
0 0 113
0 0 113
0 0 113
0 0 113
0 0 113
0 0 113
0 0 113
0 0 113
0 0 113
0 0 113
0 0 113
0 0 113
0 0 113
0 0 113
0 0 113
0 0 113
0 0 113
0 0 113
0 0 113
0 0 113
0 0 113
0 0 113
0 0 113
0 0 113
0 0 113
0 0 113
0 0 113
0 0 113
0 0 113
0 0 113
0 0 113
0 0 113
0 0 113
0 0 113
0 0 113
0 0 113
0 0 113
0 0 113
0 0 113
0 0 113
0 0 113
0 0 113
0 0 113
0 0 113
0 0 113
0 0 113
0 0 113
0 0 113
0 0 113
0 0 113
0 0 113
0 0 113
0 0 113
0 0 113
0 0 113
0 0 113
0 0 113
0 0 113
0 11 113
0 12 113
0 11 113
0 12 115
0 11 115
0 11 115
0 6 113
1 7 113
1 7 113
2 8 113
2 7 113
2 11 113
0 26 116
3 24 117
13 28 120
9 32 122
1 40 126
4 50 133
0 55 140
15 54 136
22 49 137
27 64 143
10 62 138
37 79 149
30 88 152
96 126 166
145 150 164
180 171 154
181 171 152
164 161 149
159 157 142
161 155 135
172 161 135
166 158 135
160 156 132
118 133 150
70 120 166
138 136 135
115 125 82
87 116 24
86 113 37
79 108 29
78 109 18
95 123 46
104 128 61
94 120 39
97 124 50
91 119 38
91 116 29
96 119 47
101 119 52
106 122 58
109 124 55
110 126 63
115 131 72
124 138 96
124 139 97
117 133 88
122 135 94
119 132 90
115 129 82
125 138 96
124 134 97
131 138 107
132 137 108
135 139 111
138 143 112
134 141 109
132 141 103
131 142 102
133 141 102
138 140 106
142 143 116
144 144 117
139 141 112
141 142 115
133 136 106
127 131 99
121 129 93
123 133 91
122 138 79
106 124 70
13 14 118
18 16 113
4 9 111
0 0 113
0 0 113
0 0 113
0 0 113
0 0 113
0 0 113
0 0 113
0 0 113
0 0 113
0 0 113
0 0 113
180 191 217
223 237 255
223 237 255
223 237 255
223 237 255
223 237 255
223 237 255
223 237 255
223 237 255
223 237 255
223 237 255
223 237 255
223 237 255
223 237 255
223 237 255
223 237 255
223 237 255
223 237 255
223 237 255
223 237 255
223 237 255
223 237 255
223 237 255
223 237 255
223 237 255
223 237 255
223 237 255
223 237 255
223 237 255
223 237 255
223 237 255
223 237 255
223 237 255
223 237 255
223 237 255
223 237 255
223 237 255
223 237 255
223 237 255
223 237 255
223 237 255
223 237 255
223 237 255
223 237 255
223 237 255
223 237 255
223 237 255
223 237 255
223 237 255
223 237 255
223 237 255
223 237 255
223 237 255
223 237 255
223 237 255
223 237 255
223 237 255
223 237 255
223 237 255
223 237 255
223 237 255
223 237 255
223 237 255
223 237 255
223 237 255
223 237 255
223 237 255
223 237 255
223 237 255
223 237 255
223 237 255
223 237 255
223 237 255
223 237 255
223 237 255
223 237 255
223 237 255
223 237 255
223 237 255
223 237 255
223 237 255
223 237 255
223 237 255
223 237 255
223 237 255
223 237 255
223 237 255
223 237 255
223 237 255
223 237 255
223 237 255
223 237 255
223 237 255
223 237 255
223 237 255
223 237 255
223 237 255
223 237 255
223 237 255
223 237 255
223 237 255
223 237 255
223 237 255
223 237 255
223 237 255
223 237 255
223 237 255
223 237 255
223 237 255
223 237 255
223 237 255
223 237 255
223 237 255
223 237 255
223 237 255
223 237 255
223 237 255
223 237 255
223 237 255
223 237 255
223 237 255
223 237 255
223 237 255
223 237 255
223 237 255
223 237 255
223 237 255
223 237 255
223 237 255
223 237 255
223 237 255
223 237 255
223 237 255
223 237 255
223 237 255
223 237 255
223 237 255
223 237 255
223 237 255
223 237 255
223 237 255
223 237 255
223 237 255
223 237 255
223 237 255
223 237 255
223 237 255
223 237 255
223 237 255
223 237 255
223 237 255
223 237 255
223 237 255
223 237 255
223 237 255
223 237 255
223 237 255
223 237 255
223 237 255
223 237 255
223 237 255
223 237 255
223 237 255
223 237 255
223 237 255
223 237 255
223 237 255
223 237 255
223 237 255
223 237 255
223 237 255
223 237 255
223 237 255
223 237 255
223 237 255
223 237 255
223 237 255
223 237 255
223 237 255
223 237 255
223 237 255
223 237 255
223 237 255
223 237 255
223 237 255
223 237 255
223 237 255
223 237 255
223 237 255
223 237 255
223 237 255
223 237 255
223 237 255
223 237 255
223 237 255
218 231 250
44 47 122
0 0 112
0 0 113
0 0 113
0 0 113
2 10 114
18 25 111
28 34 113
0 0 113
0 0 113
0 0 113
0 0 113
0 0 113
0 0 113
0 0 113
0 0 113
0 0 113
0 0 113
0 0 113
0 0 113
0 0 113
0 0 113
0 0 113
0 0 113
0 0 113
0 0 113
0 0 113
0 0 113
0 0 113
0 0 113
0 0 113
0 0 113
0 0 113
0 0 113
0 0 113
0 0 113
0 0 113
0 0 113
0 0 113
0 0 113
0 0 113
0 0 113
0 0 113
0 0 113
0 0 113
0 0 113
0 0 113
0 0 113
0 0 113
0 0 113
0 0 113
0 0 113
0 0 113
0 0 113
0 0 113
0 0 113
0 0 113
0 0 113
0 0 113
0 0 113
0 0 113
0 0 113
0 0 113
0 0 113
0 0 113
0 0 113
0 0 113
0 0 113
0 0 113
0 0 113
0 0 113
0 0 113
0 0 113
0 0 113
0 0 113
0 0 113
0 0 113
0 0 113
0 0 112
0 0 113
0 0 113
0 0 113
0 0 113
0 0 113
0 0 113
0 0 113
0 0 113
0 0 113
0 0 113
0 0 112
0 0 113
0 0 113
0 0 113
0 0 113
0 0 112
0 0 113
0 0 113
0 0 113
0 0 113
0 0 113
0 0 113
0 0 113
0 0 113
0 0 113
0 0 113
0 0 113
0 0 113
0 0 113
0 0 113
0 0 113
0 0 113
0 0 113
0 0 115
3 3 115
11 12 114
11 12 114
12 12 114
11 12 114
11 12 114
10 14 114
0 21 117
9 21 119
18 26 121
18 33 123
11 38 125
11 44 126
0 51 123
19 55 128
23 52 139
6 49 135
18 66 143
14 84 155
25 92 158
31 84 155
43 82 154
137 136 158
168 167 170
204 197 184
201 196 185
180 175 160
168 161 139
173 166 144
171 164 135
164 154 129
113 137 152
115 139 145
149 150 110
101 112 71
89 107 34
81 105 34
78 108 20
90 119 35
97 124 44
89 118 20
96 125 44
99 126 52
99 123 48
105 126 57
105 124 55
109 127 63
105 123 53
105 123 53
108 126 61
112 124 70
116 132 82
109 128 72
112 130 76
109 126 72
113 130 81
126 140 96
128 138 98
133 139 109
139 142 113
136 140 112
136 141 112
135 141 111
138 146 111
132 143 103
137 143 105
138 140 107
141 141 113
143 143 116
139 140 114
137 140 109
137 136 107
125 129 92
124 131 95
115 134 75
128 144 82
81 104 98
15 16 115
10 14 113
4 9 112
0 0 113
0 0 113
0 0 113
0 0 113
0 0 113
0 0 113
0 0 113
0 0 113
0 0 113
0 0 113
31 33 117
219 232 251
223 237 255
223 237 255
223 237 255
223 237 255
223 237 255
223 237 255
223 237 255
223 237 255
223 237 255
223 237 255
223 237 255
223 237 255
223 237 255
223 237 255
223 237 255
223 237 255
223 237 255
223 237 255
223 237 255
223 237 255
223 237 255
223 237 255
223 237 255
223 237 255
223 237 255
223 237 255
223 237 255
223 237 255
223 237 255
223 237 255
223 237 255
223 237 255
223 237 255
223 237 255
223 237 255
223 237 255
223 237 255
223 237 255
223 237 255
223 237 255
223 237 255
223 237 255
223 237 255
223 237 255
223 237 255
223 237 255
223 237 255
223 237 255
223 237 255
223 237 255
223 237 255
223 237 255
223 237 255
223 237 255
223 237 255
223 237 255
223 237 255
223 237 255
223 237 255
223 237 255
223 237 255
223 237 255
223 237 255
223 237 255
223 237 255
223 237 255
223 237 255
223 237 255
223 237 255
223 237 255
223 237 255
223 237 255
223 237 255
223 237 255
223 237 255
223 237 255
223 237 255
223 237 255
223 237 255
223 237 255
223 237 255
223 237 255
223 237 255
223 237 255
223 237 255
223 237 255
223 237 255
223 237 255
223 237 255
223 237 255
223 237 255
223 237 255
223 237 255
223 237 255
223 237 255
223 237 255
223 237 255
223 237 255
223 237 255
223 237 255
223 237 255
223 237 255
223 237 255
223 237 255
223 237 255
223 237 255
223 237 255
223 237 255
223 237 255
223 237 255
223 237 255
223 237 255
223 237 255
223 237 255
223 237 255
223 237 255
223 237 255
223 237 255
223 237 255
223 237 255
223 237 255
223 237 255
223 237 255
223 237 255
223 237 255
223 237 255
223 237 255
223 237 255
223 237 255
223 237 255
223 237 255
223 237 255
223 237 255
223 237 255
223 237 255
223 237 255
223 237 255
223 237 255
223 237 255
223 237 255
223 237 255
223 237 255
223 237 255
223 237 255
223 237 255
223 237 255
223 237 255
223 237 255
223 237 255
223 237 255
223 237 255
223 237 255
223 237 255
223 237 255
223 237 255
223 237 255
223 237 255
223 237 255
223 237 255
223 237 255
223 237 255
223 237 255
223 237 255
223 237 255
223 237 255
223 237 255
223 237 255
223 237 255
223 237 255
223 237 255
223 237 255
223 237 255
223 237 255
223 237 255
223 237 255
223 237 255
223 237 255
223 237 255
223 237 255
223 237 255
223 237 255
223 237 255
223 237 255
223 237 255
223 237 255
223 237 255
223 237 255
223 237 255
223 237 255
223 237 255
223 237 255
223 237 255
223 237 255
223 237 255
223 237 255
132 140 176
0 0 112
0 0 113
0 0 113
0 0 113
0 0 113
8 11 113
16 21 110
0 0 113
0 0 113
0 0 113
0 0 113
0 0 113
0 0 113
0 0 113
0 0 113
0 0 113
0 0 113
0 0 113
0 0 113
0 0 113
0 0 113
0 0 112
0 0 113
0 0 113
0 0 113
0 0 113
0 0 113
0 0 113
0 0 113
0 0 113
0 0 113
0 0 113
0 0 113
0 0 113
0 0 113
0 0 113
0 0 113
0 0 112
0 0 113
0 0 113
0 0 113
0 0 113
0 0 113
0 0 113
0 0 113
0 0 113
0 0 113
0 0 113
0 0 113
0 0 113
0 0 113
0 0 113
0 0 113
0 0 113
0 0 113
0 0 113
0 0 113
0 0 113
0 0 113
0 0 113
0 0 113
0 0 113
0 0 113
0 0 113
0 0 113
0 0 113
0 0 113
0 0 113
0 0 113
0 0 113
0 0 113
0 0 113
0 0 113
0 0 113
0 0 113
0 0 113
0 0 113
0 0 113
0 0 113
0 0 113
0 0 113
0 0 113
0 0 113
0 0 113
0 0 113
0 0 113
0 0 113
0 0 113
0 0 113
0 0 113
0 0 113
0 0 113
0 0 113
0 0 113
0 0 113
0 0 113
0 0 113
0 0 113
0 0 113
0 0 113
0 0 113
0 0 113
0 0 113
0 0 113
0 0 113
0 0 113
0 2 113
0 8 112
0 0 113
0 0 113
0 0 113
0 0 114
0 0 114
0 0 113
0 0 113
0 0 113
0 0 113
0 0 113
5 10 114
7 20 118
0 10 118
10 16 119
18 26 123
19 34 124
20 41 130
8 41 131
17 48 136
16 50 134
5 56 121
6 57 139
2 72 151
18 79 152
24 64 142
35 59 139
24 58 137
63 90 152
110 151 178
182 185 181
204 199 185
185 184 172
170 165 144
174 170 150
172 162 134
171 158 142
167 165 141
171 162 137
132 131 103
114 120 81
116 128 92
90 113 48
88 118 25
90 123 26
90 121 31
106 132 64
114 136 72
118 134 78
110 125 63
104 124 53
105 125 51
101 121 46
100 120 38
106 124 53
100 116 54
99 116 63
102 123 67
107 127 59
115 129 84
123 134 94
131 138 103
138 142 113
140 143 116
137 142 114
135 140 110
140 142 117
143 143 118
138 143 109
135 143 104
135 142 104
141 143 113
139 139 109
141 142 113
138 138 108
139 140 108
127 131 99
118 126 89
119 127 83
124 141 87
126 140 79
52 75 122
8 25 114
6 15 115
0 0 113
0 0 113
0 0 113
0 0 112
0 0 113
0 0 113
0 0 113
0 0 113
0 0 113
0 0 113
0 0 113
122 129 169
223 237 255
223 237 255
223 237 255
223 237 255
223 237 255
223 237 255
223 237 255
223 237 255
223 237 255
223 237 255
223 237 255
223 237 255
223 237 255
223 237 255
223 237 255
223 237 255
223 237 255
223 237 255
223 237 255
223 237 255
223 237 255
223 237 255
223 237 255
223 237 255
223 237 255
223 237 255
223 237 255
223 237 255
223 237 255
223 237 255
223 237 255
223 237 255
223 237 255
223 237 255
223 237 255
223 237 255
223 237 255
223 237 255
223 237 255
223 237 255
223 237 255
223 237 255
223 237 255
223 237 255
223 237 255
223 237 255
223 237 255
223 237 255
223 237 255
223 237 255
223 237 255
223 237 255
223 237 255
223 237 255
223 237 255
223 237 255
223 237 255
223 237 255
223 237 255
223 237 255
223 237 255
223 237 255
223 237 255
223 237 255
223 237 255
223 237 255
223 237 255
223 237 255
223 237 255
223 237 255
223 237 255
223 237 255
223 237 255
223 237 255
223 237 255
223 237 255
223 237 255
223 237 255
223 237 255
223 237 255
223 237 255
223 237 255
223 237 255
223 237 255
223 237 255
223 237 255
223 237 255
223 237 255
223 237 255
223 237 255
223 237 255
223 237 255
223 237 255
223 237 255
223 237 255
223 237 255
223 237 255
223 237 255
223 237 255
223 237 255
223 237 255
223 237 255
223 237 255
223 237 255
223 237 255
223 237 255
223 237 255
223 237 255
223 237 255
223 237 255
223 237 255
223 237 255
223 237 255
223 237 255
223 237 255
223 237 255
223 237 255
223 237 255
223 237 255
223 237 255
223 237 255
223 237 255
223 237 255
223 237 255
223 237 255
223 237 255
223 237 255
223 237 255
223 237 255
223 237 255
223 237 255
223 237 255
223 237 255
223 237 255
223 237 255
223 237 255
223 237 255
223 237 255
223 237 255
223 237 255
223 237 255
223 237 255
223 237 255
223 237 255
223 237 255
223 237 255
223 237 255
223 237 255
223 237 255
223 237 255
223 237 255
223 237 255
223 237 255
223 237 255
223 237 255
223 237 255
223 237 255
223 237 255
223 237 255
223 237 255
223 237 255
223 237 255
223 237 255
223 237 255
223 237 255
223 237 255
223 237 255
223 237 255
223 237 255
223 237 255
223 237 255
223 237 255
223 237 255
223 237 255
223 237 255
223 237 255
223 237 255
223 237 255
223 237 255
223 237 255
223 237 255
223 237 255
223 237 255
223 237 255
223 237 255
223 237 255
223 237 255
223 237 255
223 237 255
223 237 255
223 237 255
223 237 255
223 237 255
223 237 255
223 237 255
223 237 255
179 189 215
0 0 113
0 0 113
0 0 113
0 0 113
0 0 113
7 9 114
6 0 116
0 0 113
0 0 113
0 0 113
0 0 113
0 0 113
0 0 113
0 0 113
0 0 113
0 0 113
0 0 113
0 0 113
0 0 113
0 0 113
0 0 113
0 0 113
0 0 113
0 0 113
0 0 113
0 0 113
0 0 113
0 0 113
0 0 113
0 0 113
0 0 113
0 0 113
0 0 113
0 0 113
0 0 113
0 0 113
0 0 113
0 0 113
0 0 113
0 0 113
0 0 113
0 0 113
0 0 113
0 0 113
0 0 113
0 0 113
0 0 113
0 0 112
0 0 113
0 0 113
0 0 113
0 0 113
0 0 113
0 0 113
0 0 113
0 0 113
0 0 113
0 0 113
0 0 113
0 0 113
0 0 113
0 0 113
0 0 113
0 0 113
0 0 113
0 0 113
0 0 113
0 0 113
0 0 113
0 0 113
0 0 113
0 0 113
0 0 113
0 0 113
0 0 113
0 0 113
0 0 113
0 0 113
0 0 113
0 0 113
0 0 113
0 0 113
0 0 113
0 0 113
0 0 113
0 0 113
0 0 113
0 0 113
0 0 113
0 0 113
0 0 113
0 0 113
0 0 113
0 0 113
0 0 113
0 0 113
0 0 113
0 0 113
0 0 113
0 0 113
0 0 113
0 0 113
0 0 113
0 0 113
0 0 113
0 0 113
0 1 113
0 5 113
0 0 113
0 0 113
0 0 113
0 0 113
0 0 113
0 0 113
0 0 113
0 0 113
0 0 113
0 0 113
2 7 114
4 18 116
0 19 116
0 18 117
5 16 119
8 19 119
10 26 120
9 31 123
19 39 127
21 43 127
16 43 127
12 42 127
9 53 138
30 73 149
14 62 141
0 56 137
0 51 134
31 66 141
34 93 159
71 122 172
154 165 179
204 196 192
187 177 162
172 164 141
176 166 144
183 171 147
183 173 151
183 173 155
171 162 140
149 142 115
145 145 124
137 139 107
108 121 64
87 114 27
100 126 43
113 136 74
127 144 91
133 145 98
126 140 92
105 127 60
102 125 48
98 120 44
96 116 33
96 118 42
97 117 51
84 107 31
103 124 70
120 134 88
128 139 104
123 132 95
132 140 108
134 140 107
135 139 110
136 141 112
135 140 112
139 142 117
141 138 110
142 144 112
136 143 108
132 140 104
138 141 112
141 142 113
140 141 111
140 139 108
134 134 104
117 128 91
122 130 94
132 136 96
135 146 88
93 112 101
15 33 122
19 18 114
9 5 114
0 0 113
0 0 113
0 0 113
0 0 113
0 0 113
0 0 113
0 0 113
0 0 113
0 0 113
0 0 113
0 0 113
191 202 226
223 237 255
223 237 255
223 237 255
223 237 255
223 237 255
223 237 255
223 237 255
223 237 255
223 237 255
223 237 255
223 237 255
223 237 255
223 237 255
223 237 255
223 237 255
223 237 255
223 237 255
223 237 255
223 237 255
223 237 255
223 237 255
223 237 255
223 237 255
223 237 255
223 237 255
223 237 255
223 237 255
223 237 255
223 237 255
223 237 255
223 237 255
223 237 255
223 237 255
223 237 255
223 237 255
223 237 255
223 237 255
223 237 255
223 237 255
223 237 255
223 237 255
223 237 255
223 237 255
223 237 255
223 237 255
223 237 255
223 237 255
223 237 255
223 237 255
223 237 255
223 237 255
223 237 255
223 237 255
223 237 255
223 237 255
223 237 255
223 237 255
223 237 255
223 237 255
223 237 255
223 237 255
223 237 255
223 237 255
223 237 255
223 237 255
223 237 255
223 237 255
223 237 255
223 237 255
223 237 255
223 237 255
223 237 255
223 237 255
223 237 255
223 237 255
223 237 255
223 237 255
223 237 255
223 237 255
223 237 255
223 237 255
223 237 255
223 237 255
223 237 255
223 237 255
223 237 255
223 237 255
223 237 255
223 237 255
223 237 255
223 237 255
223 237 255
223 237 255
223 237 255
223 237 255
223 237 255
223 237 255
223 237 255
223 237 255
223 237 255
223 237 255
223 237 255
223 237 255
223 237 255
223 237 255
223 237 255
223 237 255
223 237 255
223 237 255
223 237 255
223 237 255
223 237 255
223 237 255
223 237 255
223 237 255
223 237 255
223 237 255
223 237 255
223 237 255
223 237 255
223 237 255
223 237 255
223 237 255
223 237 255
223 237 255
223 237 255
223 237 255
223 237 255
223 237 255
223 237 255
223 237 255
223 237 255
223 237 255
223 237 255
223 237 255
223 237 255
223 237 255
223 237 255
223 237 255
223 237 255
223 237 255
223 237 255
223 237 255
223 237 255
223 237 255
223 237 255
223 237 255
223 237 255
223 237 255
223 237 255
223 237 255
223 237 255
223 237 255
223 237 255
223 237 255
223 237 255
223 237 255
223 237 255
223 237 255
223 237 255
223 237 255
223 237 255
223 237 255
223 237 255
223 237 255
223 237 255
223 237 255
223 237 255
223 237 255
223 237 255
223 237 255
223 237 255
223 237 255
223 237 255
223 237 255
223 237 255
223 237 255
223 237 255
223 237 255
223 237 255
223 237 255
223 237 255
223 237 255
223 237 255
223 237 255
223 237 255
223 237 255
223 237 255
223 237 255
223 237 255
223 237 255
223 237 255
223 237 255
223 237 255
223 237 255
223 237 255
220 233 252
63 67 130
0 0 113
0 0 113
0 0 113
0 0 113
4 5 113
11 14 115
8 10 114
0 0 113
0 0 113
0 0 113
0 0 113
0 0 113
0 0 113
0 0 113
0 0 113
0 0 113
0 0 113
0 0 113
0 0 113
0 0 113
0 0 113
0 0 113
0 0 113
0 0 113
0 0 113
0 0 113
0 0 113
0 0 113
0 0 113
0 0 113
0 0 113
0 0 113
0 0 113
0 0 113
0 0 113
0 0 113
0 0 113
0 0 113
0 0 113
0 0 113
0 0 113
0 0 113
0 0 113
0 0 113
0 0 113
0 0 113
0 0 113
0 0 113
0 0 113
0 0 113
0 0 113
0 0 113
0 0 113
0 0 113
0 0 113
0 0 113
0 0 113
0 0 113
0 0 113
0 0 113
0 0 113
0 0 113
0 0 113
0 0 113
0 0 113
0 0 113
0 0 113
0 0 113
0 0 113
0 0 113
0 0 113
0 0 113
0 0 113
0 0 113
0 0 113
0 0 113
0 0 113
0 0 113
0 0 113
0 0 113
0 0 113
0 0 113
0 0 113
0 0 113
0 0 113
0 0 113
0 0 113
0 0 113
0 0 113
0 0 113
0 0 113
0 0 113
0 0 113
0 0 113
0 0 113
0 0 113
0 0 113
0 0 113
0 0 113
0 0 113
0 0 113
0 0 113
0 0 113
0 0 113
0 0 113
0 0 113
0 0 113
0 0 113
0 0 113
0 0 113
0 0 113
0 0 113
0 0 113
0 0 113
0 0 113
0 0 113
0 0 113
0 0 114
0 0 115
0 16 116
0 21 116
0 19 117
0 15 118
0 20 119
0 25 119
0 29 122
0 31 123
0 36 125
0 37 125
11 47 131
22 59 137
8 52 133
15 55 134
6 48 130
11 54 136
23 69 148
18 81 149
51 93 157
168 170 171
205 190 170
185 173 155
183 169 148
185 174 152
188 179 159
190 178 161
191 183 164
177 169 145
164 152 135
161 153 137
146 142 124
121 128 88
104 121 52
101 121 50
132 146 99
128 142 94
116 134 77
105 127 55
105 127 55
103 123 59
96 116 38
95 118 41
96 120 49
93 120 52
101 120 69
123 130 98
128 136 107
126 136 103
130 140 106
127 135 101
133 137 108
136 141 112
134 139 111
137 141 115
143 140 114
136 138 106
135 141 105
133 138 103
141 143 109
141 142 109
140 141 110
142 141 110
135 138 109
114 127 87
131 135 98
137 139 103
126 137 85
42 68 122
16 20 117
16 4 113
9 2 113
0 0 113
0 0 113
0 0 113
0 0 113
0 0 113
0 0 113
0 0 113
0 0 113
0 0 113
0 0 113
54 58 126
220 233 252
223 237 255
223 237 255
223 237 255
223 237 255
223 237 255
223 237 255
223 237 255
223 237 255
223 237 255
223 237 255
223 237 255
223 237 255
223 237 255
223 237 255
223 237 255
223 237 255
223 237 255
223 237 255
223 237 255
223 237 255
223 237 255
223 237 255
223 237 255
223 237 255
223 237 255
223 237 255
223 237 255
223 237 255
223 237 255
223 237 255
223 237 255
223 237 255
223 237 255
223 237 255
223 237 255
223 237 255
223 237 255
223 237 255
223 237 255
223 237 255
223 237 255
223 237 255
223 237 255
223 237 255
223 237 255
223 237 255
223 237 255
223 237 255
223 237 255
223 237 255
223 237 255
223 237 255
223 237 255
223 237 255
223 237 255
223 237 255
223 237 255
223 237 255
223 237 255
223 237 255
223 237 255
223 237 255
223 237 255
223 237 255
223 237 255
223 237 255
223 237 255
223 237 255
223 237 255
223 237 255
223 237 255
223 237 255
223 237 255
223 237 255
223 237 255
223 237 255
223 237 255
223 237 255
223 237 255
223 237 255
223 237 255
223 237 255
223 237 255
223 237 255
223 237 255
223 237 255
223 237 255
223 237 255
223 237 255
223 237 255
223 237 255
223 237 255
223 237 255
223 237 255
223 237 255
223 237 255
223 237 255
223 237 255
223 237 255
223 237 255
223 237 255
223 237 255
223 237 255
223 237 255
223 237 255
223 237 255
223 237 255
223 237 255
223 237 255
223 237 255
223 237 255
223 237 255
223 237 255
223 237 255
223 237 255
223 237 255
223 237 255
223 237 255
223 237 255
223 237 255
223 237 255
223 237 255
223 237 255
223 237 255
223 237 255
223 237 255
223 237 255
223 237 255
223 237 255
223 237 255
223 237 255
223 237 255
223 237 255
223 237 255
223 237 255
223 237 255
223 237 255
223 237 255
223 237 255
223 237 255
223 237 255
223 237 255
223 237 255
223 237 255
223 237 255
223 237 255
223 237 255
223 237 255
223 237 255
223 237 255
223 237 255
223 237 255
223 237 255
223 237 255
223 237 255
223 237 255
223 237 255
223 237 255
223 237 255
223 237 255
223 237 255
223 237 255
223 237 255
223 237 255
223 237 255
223 237 255
223 237 255
223 237 255
223 237 255
223 237 255
223 237 255
223 237 255
223 237 255
223 237 255
223 237 255
223 237 255
223 237 255
223 237 255
223 237 255
223 237 255
223 237 255
223 237 255
223 237 255
223 237 255
223 237 255
223 237 255
223 237 255
223 237 255
223 237 255
223 237 255
223 237 255
223 237 255
223 237 255
223 237 255
223 237 255
223 237 255
223 237 255
143 151 185
0 0 113
0 0 113
0 0 113
0 0 113
0 0 113
5 8 113
0 5 113
0 0 113
0 0 113
0 0 113
0 0 113
0 0 113
0 0 113
0 0 113
0 0 113
0 0 113
0 0 113
0 0 113
0 0 113
0 0 113
0 0 113
0 0 113
0 0 113
0 0 113
0 0 113
0 0 113
0 0 113
0 0 113
0 0 113
0 0 113
0 0 113
0 0 113
0 0 113
0 0 113
0 0 113
0 0 113
0 0 113
0 0 113
0 0 113
0 0 113
0 0 113
0 0 113
0 0 113
0 0 113
0 0 113
0 0 113
0 0 113
0 0 113
0 0 113
0 0 113
0 0 113
0 0 113
0 0 113
0 0 113
0 0 113
0 0 113
0 0 113
0 0 113
0 0 113
0 0 113
0 0 113
0 0 113
0 0 113
0 0 113
0 0 113
0 0 113
0 0 113
0 0 113
0 0 113
0 0 113
0 0 113
0 0 113
0 0 113
0 0 113
0 0 113
0 0 112
0 0 113
0 0 113
0 0 113
0 0 113
0 0 113
0 0 113
0 0 113
0 0 113
0 0 113
0 0 113
0 0 113
0 0 113
0 0 113
0 0 113
0 0 113
0 0 113
0 0 113
0 0 113
0 0 113
0 0 113
0 0 112
0 0 113
0 0 113
0 0 113
0 0 113
0 0 113
0 0 113
0 0 113
0 0 113
0 0 113
0 0 113
0 0 113
0 0 113
0 0 113
0 0 113
0 0 113
0 0 113
0 0 113
0 0 113
0 0 113
0 0 113
0 0 113
0 0 115
0 5 115
0 17 116
0 21 116
0 19 117
10 26 119
11 28 120
12 29 121
6 32 123
11 36 125
7 37 125
20 46 128
15 43 128
5 41 127
18 54 134
20 56 136
24 55 138
31 57 132
19 50 133
18 52 130
61 88 149
144 153 170
205 195 182
185 172 152
177 166 134
184 175 151
189 173 150
202 187 166
178 167 144
165 159 136
148 143 117
134 133 100
132 135 102
117 129 83
108 125 71
127 137 90
114 128 75
106 127 63
105 125 50
110 129 68
111 129 74
103 123 56
95 121 45
95 119 45
94 118 52
98 112 65
122 127 99
124 133 101
126 137 102
134 144 110
135 142 108
138 142 114
141 144 114
137 141 110
136 140 110
136 137 107
135 139 106
139 143 111
137 139 104
139 141 109
139 141 109
143 144 111
145 144 115
131 135 102
116 128 86
132 137 100
130 133 94
109 128 105
32 53 127
13 19 116
4 14 114
0 0 113
0 0 113
0 0 113
0 0 113
0 0 113
0 0 113
0 0 113
0 0 113
0 0 112
0 0 113
0 0 113
145 153 187
223 237 255
223 237 255
223 237 255
223 237 255
223 237 255
223 237 255
223 237 255
223 237 255
223 237 255
223 237 255
223 237 255
223 237 255
223 237 255
223 237 255
223 237 255
223 237 255
223 237 255
223 237 255
223 237 255
223 237 255
223 237 255
223 237 255
223 237 255
223 237 255
223 237 255
223 237 255
223 237 255
223 237 255
223 237 255
223 237 255
223 237 255
223 237 255
223 237 255
223 237 255
223 237 255
223 237 255
223 237 255
223 237 255
223 237 255
223 237 255
223 237 255
223 237 255
223 237 255
223 237 255
223 237 255
223 237 255
223 237 255
223 237 255
223 237 255
223 237 255
223 237 255
223 237 255
223 237 255
223 237 255
223 237 255
223 237 255
223 237 255
223 237 255
223 237 255
223 237 255
223 237 255
223 237 255
223 237 255
223 237 255
223 237 255
223 237 255
223 237 255
223 237 255
223 237 255
223 237 255
223 237 255
223 237 255
223 237 255
223 237 255
223 237 255
223 237 255
223 237 255
223 237 255
223 237 255
223 237 255
223 237 255
223 237 255
223 237 255
223 237 255
223 237 255
223 237 255
223 237 255
223 237 255
223 237 255
223 237 255
223 237 255
223 237 255
223 237 255
223 237 255
223 237 255
223 237 255
223 237 255
223 237 255
223 237 255
223 237 255
223 237 255
223 237 255
223 237 255
223 237 255
223 237 255
223 237 255
223 237 255
223 237 255
223 237 255
223 237 255
223 237 255
223 237 255
223 237 255
223 237 255
223 237 255
223 237 255
223 237 255
223 237 255
223 237 255
223 237 255
223 237 255
223 237 255
223 237 255
223 237 255
223 237 255
223 237 255
223 237 255
223 237 255
223 237 255
223 237 255
223 237 255
223 237 255
223 237 255
223 237 255
223 237 255
223 237 255
223 237 255
223 237 255
223 237 255
223 237 255
223 237 255
223 237 255
223 237 255
223 237 255
223 237 255
223 237 255
223 237 255
223 237 255
223 237 255
223 237 255
223 237 255
223 237 255
223 237 255
223 237 255
223 237 255
223 237 255
223 237 255
223 237 255
223 237 255
223 237 255
223 237 255
223 237 255
223 237 255
223 237 255
223 237 255
223 237 255
223 237 255
223 237 255
223 237 255
223 237 255
223 237 255
223 237 255
223 237 255
223 237 255
223 237 255
223 237 255
223 237 255
223 237 255
223 237 255
223 237 255
223 237 255
223 237 255
223 237 255
223 237 255
223 237 255
223 237 255
223 237 255
223 237 255
223 237 255
223 237 255
223 237 255
223 237 255
223 237 255
223 237 255
223 237 255
223 237 255
223 237 255
223 237 255
210 222 243
0 0 113
0 0 113
0 0 113
0 0 113
0 0 113
0 0 112
0 0 113
0 0 113
0 0 113
0 0 113
0 0 113
0 0 113
0 0 113
0 0 113
0 0 113
0 0 113
0 0 113
0 0 113
0 0 113
0 0 113
0 0 113
0 0 113
0 0 113
0 0 113
0 0 113
0 0 113
0 0 113
0 0 113
0 0 113
0 0 113
0 0 113
0 0 113
0 0 113
0 0 113
0 0 113
0 0 113
0 0 113
0 0 113
0 0 113
0 0 113
0 0 113
0 0 113
0 0 113
0 0 113
0 0 113
0 0 113
0 0 113
0 0 113
0 0 113
0 0 113
0 0 113
0 0 113
0 0 113
0 0 113
0 0 113
0 0 113
0 0 113
0 0 113
0 0 113
0 0 113
0 0 113
0 0 113
0 0 113
0 0 113
0 0 113
0 0 113
0 0 113
0 0 113
0 0 113
0 0 113
0 0 113
0 0 113
0 0 113
0 0 113
0 0 113
0 0 113
0 0 113
0 0 113
0 0 113
0 0 113
0 0 113
0 0 113
0 0 113
0 0 113
0 0 113
0 0 113
0 0 113
0 0 112
0 0 113
0 0 113
0 0 112
0 0 113
0 0 113
0 0 113
0 0 113
0 0 113
0 0 113
0 0 113
0 0 113
0 0 113
0 0 113
0 0 113
0 0 113
0 0 113
0 0 112
0 0 113
0 0 113
0 0 113
0 0 113
0 0 113
0 0 113
0 0 113
0 0 113
0 0 113
0 0 113
0 0 113
0 0 113
0 0 113
0 0 113
0 0 113
0 11 115
0 20 116
0 21 116
0 17 115
5 22 117
12 28 120
16 32 121
6 30 122
2 29 123
12 43 127
0 43 129
0 46 130
0 52 134
10 55 137
23 54 131
34 38 129
24 37 128
35 43 131
35 48 134
76 106 161
200 191 179
183 171 152
190 179 147
199 191 167
201 190 165
182 180 139
172 169 135
168 161 137
162 155 133
140 139 117
136 136 108
104 116 62
116 128 81
128 132 91
118 128 81
114 130 75
111 128 64
112 129 73
112 131 78
106 128 63
97 122 47
101 121 54
111 127 78
121 132 95
130 138 107
125 136 100
125 138 100
131 140 105
142 146 114
139 144 114
138 143 112
138 144 113
137 143 110
136 141 108
136 140 106
139 142 110
140 143 112
139 142 111
137 139 105
139 142 110
137 138 105
122 127 88
118 126 85
128 136 97
125 132 88
67 90 121
5 11 115
5 8 115
0 3 114
0 0 113
0 0 113
0 0 113
0 0 113
0 0 113
0 0 113
0 0 113
0 0 113
0 0 113
0 0 113
0 0 113
205 217 238
223 237 255
223 237 255
223 237 255
223 237 255
223 237 255
223 237 255
223 237 255
223 237 255
223 237 255
223 237 255
223 237 255
223 237 255
223 237 255
223 237 255
223 237 255
223 237 255
223 237 255
223 237 255
223 237 255
223 237 255
223 237 255
223 237 255
223 237 255
223 237 255
223 237 255
223 237 255
223 237 255
223 237 255
223 237 255
223 237 255
223 237 255
223 237 255
223 237 255
223 237 255
223 237 255
223 237 255
223 237 255
223 237 255
223 237 255
223 237 255
223 237 255
223 237 255
223 237 255
223 237 255
223 237 255
223 237 255
223 237 255
223 237 255
223 237 255
223 237 255
223 237 255
223 237 255
223 237 255
223 237 255
223 237 255
223 237 255
223 237 255
223 237 255
223 237 255
223 237 255
223 237 255
223 237 255
223 237 255
223 237 255
223 237 255
223 237 255
223 237 255
223 237 255
223 237 255
223 237 255
223 237 255
223 237 255
223 237 255
223 237 255
223 237 255
223 237 255
223 237 255
223 237 255
223 237 255
223 237 255
223 237 255
223 237 255
223 237 255
223 237 255
223 237 255
223 237 255
223 237 255
223 237 255
223 237 255
223 237 255
223 237 255
223 237 255
223 237 255
223 237 255
223 237 255
223 237 255
223 237 255
223 237 255
223 237 255
223 237 255
223 237 255
223 237 255
223 237 255
223 237 255
223 237 255
223 237 255
223 237 255
223 237 255
223 237 255
223 237 255
223 237 255
223 237 255
223 237 255
223 237 255
223 237 255
223 237 255
223 237 255
223 237 255
223 237 255
223 237 255
223 237 255
223 237 255
223 237 255
223 237 255
223 237 255
223 237 255
223 237 255
223 237 255
223 237 255
223 237 255
223 237 255
223 237 255
223 237 255
223 237 255
223 237 255
223 237 255
223 237 255
223 237 255
223 237 255
223 237 255
223 237 255
223 237 255
223 237 255
223 237 255
223 237 255
223 237 255
223 237 255
223 237 255
223 237 255
223 237 255
223 237 255
223 237 255
224 237 255
223 237 255
224 237 255
224 237 255
224 237 255
224 237 255
224 237 255
224 237 255
224 237 255
224 237 255
224 237 255
224 237 255
224 237 255
224 237 255
224 237 255
224 237 255
224 237 255
224 237 255
224 237 255
224 237 255
224 237 255
224 237 255
224 237 255
224 237 255
224 237 255
224 237 255
224 237 255
224 237 255
224 237 255
224 237 255
224 237 255
224 237 255
224 237 255
224 237 255
224 237 255
224 237 255
224 237 255
224 237 255
224 237 255
224 237 255
224 237 255
224 237 255
224 237 255
224 237 255
224 237 255
224 237 255
224 237 255
116 123 164
0 0 113
0 0 113
0 0 113
0 0 113
0 0 113
0 0 113
0 0 113
0 0 113
0 0 113
0 0 113
0 0 112
0 0 113
0 0 113
0 0 113
0 0 113
0 0 113
0 0 113
0 0 113
0 0 113
0 0 113
0 0 113
0 0 113
0 0 113
0 0 113
0 0 113
0 0 113
0 0 113
0 0 113
0 0 113
0 0 113
0 0 113
0 0 113
0 0 113
0 0 113
0 0 113
0 0 113
0 0 113
0 0 113
0 0 113
0 0 113
0 0 113
0 0 113
0 0 113
0 0 113
0 0 113
0 0 113
0 0 113
0 0 113
0 0 113
0 0 113
0 0 113
0 0 113
0 0 113
0 0 113
0 0 113
0 0 113
0 0 113
0 0 113
0 0 113
0 0 113
0 0 113
0 0 113
0 0 113
0 0 113
0 0 113
0 0 113
0 0 113
0 0 112
0 0 113
0 0 113
0 0 113
0 0 113
0 0 113
0 0 113
0 0 113
0 0 113
0 0 113
0 0 113
0 0 113
0 0 113
0 0 113
0 0 113
0 0 113
0 0 113
0 0 113
0 0 113
0 0 113
0 0 113
0 0 113
0 0 113
0 0 113
0 0 113
0 0 113
0 0 113
0 0 113
0 0 113
0 0 113
0 0 113
0 0 113
0 0 113
0 0 113
0 0 113
0 0 113
0 0 113
0 0 113
0 0 113
0 0 113
0 0 113
0 0 113
0 0 113
0 0 113
0 0 113
0 0 113
0 0 113
0 0 113
0 0 113
0 0 113
0 0 113
0 0 113
0 0 114
0 14 116
0 21 116
8 16 115
8 21 116
14 27 118
14 30 120
15 31 121
4 32 123
0 39 126
10 42 127
14 45 128
2 41 127
4 40 127
7 34 124
25 40 124
26 37 123
18 42 129
15 42 128
108 110 152
189 181 170
176 161 147
181 170 141
177 166 136
203 193 169
197 194 165
186 179 156
181 171 152
171 161 140
161 157 136
138 138 108
106 122 70
123 132 93
132 132 95
124 131 90
119 131 82
116 131 73
110 128 72
109 129 69
104 128 57
99 122 49
125 137 91
122 134 95
112 126 77
113 123 82
117 130 88
128 139 102
137 143 109
138 143 113
139 145 111
141 146 112
137 145 114
138 144 113
137 144 112
137 142 109
134 139 103
133 138 101
136 139 105
138 142 108
132 138 98
120 128 88
123 130 90
128 133 100
120 132 97
95 110 105
21 24 116
0 0 115
0 0 115
0 0 113
0 0 113
0 0 113
0 0 113
0 0 112
0 0 113
0 0 113
0 0 113
0 0 113
0 0 113
0 0 113
116 123 164
224 237 255
224 237 255
224 237 255
224 237 255
224 237 255
224 237 255
224 237 255
224 237 255
224 237 255
224 237 255
224 237 255
224 237 255
224 237 255
224 237 255
224 237 255
224 237 255
224 237 255
224 237 255
224 237 255
224 237 255
224 237 255
224 237 255
224 237 255
224 237 255
224 237 255
224 237 255
224 237 255
224 237 255
224 237 255
224 237 255
224 237 255
224 237 255
224 237 255
224 237 255
224 237 255
224 237 255
224 237 255
224 237 255
224 237 255
224 237 255
224 237 255
224 237 255
224 237 255
224 237 255
224 237 255
223 237 255
223 237 255
224 237 255
223 237 255
223 237 255
223 237 255
223 237 255
223 237 255
223 237 255
223 237 255
223 237 255
223 237 255
223 237 255
223 237 255
223 237 255
223 237 255
223 237 255
223 237 255
223 237 255
223 237 255
223 237 255
223 237 255
223 237 255
223 237 255
223 237 255
223 237 255
223 237 255
223 237 255
223 237 255
223 237 255
223 237 255
223 237 255
223 237 255
223 237 255
223 237 255
223 237 255
223 237 255
223 237 255
223 237 255
223 237 255
223 237 255
223 237 255
223 237 255
223 237 255
223 237 255
223 237 255
223 237 255
223 237 255
223 237 255
223 237 255
223 237 255
223 237 255
223 237 255
223 237 255
223 237 255
224 237 255
224 237 255
224 237 255
224 237 255
224 237 255
224 237 255
224 237 255
224 237 255
224 237 255
224 237 255
224 237 255
224 237 255
224 237 255
224 237 255
224 237 255
224 237 255
224 237 255
224 237 255
224 237 255
224 237 255
224 237 255
224 237 255
224 237 255
224 237 255
224 237 255
224 237 255
224 237 255
224 237 255
224 237 255
224 237 255
224 237 255
224 237 255
224 237 255
224 237 255
224 237 255
224 237 255
224 237 255
224 237 255
224 237 255
224 237 255
224 237 255
224 237 255
224 237 255
224 237 255
224 237 255
224 237 255
224 237 255
224 237 255
224 237 255
224 237 255
224 237 255
224 237 255
224 237 255
224 237 255
224 237 255
224 237 255
224 237 255
224 237 255
224 237 255
224 237 255
224 237 255
224 237 255
224 237 255
224 237 255
224 237 255
224 237 255
224 237 255
224 237 255
224 237 255
224 237 255
224 237 255
224 237 255
224 237 255
224 237 255
224 237 255
224 237 255
224 237 255
224 237 255
224 237 255
224 237 255
224 237 255
224 237 255
224 237 255
224 237 255
224 237 255
224 237 255
224 237 255
224 237 255
224 237 255
224 237 255
224 237 255
224 237 255
224 237 255
224 237 255
224 237 255
224 237 255
224 237 255
224 237 255
224 237 255
224 237 255
177 188 214
0 0 113
0 0 113
0 0 113
0 0 112
0 0 113
0 0 113
0 0 113
0 0 113
0 0 113
0 0 113
0 0 113
0 0 113
0 0 113
0 0 113
0 0 113
0 0 113
0 0 113
0 0 113
0 0 113
0 0 113
0 0 113
0 0 113
0 0 113
0 0 113
0 0 113
0 0 113
0 0 113
0 0 113
0 0 113
0 0 113
0 0 113
0 0 113
0 0 113
0 0 113
0 0 113
0 0 113
0 0 113
0 0 113
0 0 113
0 0 113
0 0 113
0 0 113
0 0 113
0 0 113
0 0 113
0 0 113
0 0 113
0 0 113
0 0 113
0 0 113
0 0 113
0 0 113
0 0 113
0 0 113
0 0 113
0 0 113
0 0 113
0 0 113
0 0 113
0 0 113
0 0 113
0 0 113
0 0 113
0 0 113
0 0 113
0 0 113
0 0 113
0 0 113
0 0 113
0 0 113
0 0 113
0 0 113
0 0 113
0 0 113
0 0 113
0 0 113
0 0 113
0 0 113
0 0 113
0 0 113
0 0 113
0 0 113
0 0 113
0 0 113
0 0 113
0 0 113
0 0 113
0 0 112
0 0 113
0 0 113
0 0 113
0 0 113
0 0 113
0 0 113
0 0 113
0 0 113
0 0 113
0 0 113
0 0 113
0 0 113
0 0 113
0 0 113
0 0 113
0 0 113
0 0 113
0 0 113
0 0 113
0 0 113
0 0 113
0 0 113
0 0 113
0 0 113
0 0 113
0 0 113
0 0 113
0 0 113
12 0 113
7 0 113
0 0 113
0 0 113
0 4 115
8 13 115
12 16 114
10 18 115
7 22 117
6 23 119
11 27 120
16 32 122
9 32 123
2 31 122
0 31 121
11 31 121
19 33 121
27 35 129
0 34 121
12 42 124
21 38 128
22 46 138
101 109 154
195 191 186
175 163 152
184 169 149
177 166 145
188 174 150
195 179 164
191 180 162
179 172 152
176 166 147
160 157 129
130 132 98
113 125 79
126 131 95
138 136 109
129 129 100
119 130 91
117 129 80
108 125 63
102 123 57
100 125 49
111 130 72
128 139 103
118 131 87
113 133 82
117 132 91
125 137 97
132 140 104
138 142 112
136 141 110
135 144 106
133 141 100
130 142 103
144 150 115
141 147 115
136 140 103
127 136 94
129 136 98
139 142 107
136 141 107
129 135 98
124 132 94
126 133 97
124 133 88
114 129 106
47 56 119
6 0 115
0 0 115
0 0 115
0 0 113
0 0 113
0 0 113
0 0 113
0 0 113
0 0 113
0 0 113
0 0 113
0 0 113
0 0 113
0 0 113
183 194 219
224 237 255
224 237 255
224 237 255
224 237 255
224 237 255
224 237 255
224 237 255
224 237 255
224 237 255
224 237 255
224 237 255
224 237 255
224 237 255
224 237 255
224 237 255
224 237 255
224 237 255
224 237 255
224 237 255
224 237 255
224 237 255
224 237 255
224 237 255
224 237 255
224 237 255
224 237 255
224 237 255
224 237 255
224 237 255
224 237 255
224 237 255
224 237 255
224 237 255
224 237 255
224 237 255
224 237 255
224 237 255
224 237 255
224 237 255
224 237 255
224 237 255
224 237 255
224 237 255
224 237 255
224 237 255
224 237 255
224 237 255
224 237 255
224 237 255
224 237 255
224 237 255
224 237 255
224 237 255
224 237 255
224 237 255
224 237 255
224 237 255
224 237 255
224 237 255
224 237 255
224 237 255
224 237 255
224 237 255
224 237 255
224 237 255
224 237 255
224 237 255
224 237 255
224 237 255
224 237 255
224 237 255
224 237 255
224 237 255
224 237 255
224 237 255
224 237 255
224 237 255
224 237 255
224 237 255
224 237 255
224 237 255
224 237 255
224 237 255
224 237 255
224 237 255
224 237 255
224 237 255
224 237 255
224 237 255
224 237 255
224 237 255
224 237 255
224 237 255
224 237 255
224 237 255
224 237 255
224 237 255
224 237 255
224 237 255
224 237 255
224 237 255
224 237 255
224 237 255
224 237 255
224 237 255
224 237 255
224 237 255
224 237 255
224 237 255
224 237 255
224 237 255
224 237 255
224 237 255
224 237 255
224 237 255
224 237 255
224 237 255
224 237 255
224 237 255
224 237 255
224 237 255
224 237 255
224 237 255
224 237 255
224 237 255
224 237 255
224 237 255
224 237 255
224 237 255
224 237 255
224 237 255
224 237 255
224 237 255
224 237 255
224 237 255
224 237 255
224 237 255
224 237 255
224 237 255
224 237 255
224 237 255
224 237 255
224 237 255
224 237 255
224 237 255
224 237 255
224 237 255
224 237 255
224 237 255
224 237 255
224 237 255
224 237 255
224 237 255
224 237 255
224 237 255
224 237 255
224 237 255
224 237 255
224 237 255
224 237 255
224 237 255
224 237 255
224 237 255
224 237 255
224 237 255
224 237 255
224 237 255
224 237 255
224 237 255
224 237 255
224 237 255
224 237 255
224 237 255
224 237 255
224 237 255
224 237 255
224 237 255
224 237 255
224 237 255
224 237 255
224 237 255
224 237 255
224 237 255
224 237 255
224 237 255
224 237 255
224 237 255
224 237 255
224 237 255
224 237 255
224 237 255
224 237 255
224 237 255
224 237 255
224 237 255
224 237 255
224 237 255
224 237 255
224 237 255
224 237 255
224 237 255
89 94 145
0 0 112
0 0 113
0 0 113
0 0 113
0 0 113
0 0 113
0 0 113
0 0 113
0 0 113
0 0 113
0 0 113
0 0 113
0 0 113
0 0 113
0 0 113
0 0 113
0 0 113
0 0 113
0 0 113
0 0 113
0 0 113
0 0 113
0 0 113
0 0 113
0 0 113
0 0 113
0 0 113
0 0 113
0 0 113
0 0 113
0 0 113
0 0 113
0 0 113
0 0 113
0 0 113
0 0 113
0 0 113
0 0 113
0 0 113
0 0 113
0 0 113
0 0 113
0 0 113
0 0 113
0 0 113
0 0 113
0 0 113
0 0 113
0 0 113
0 0 113
0 0 113
0 0 113
0 0 113
0 0 113
0 0 113
0 0 113
0 0 113
0 0 113
0 0 113
0 0 113
0 0 113
0 0 113
0 0 113
0 0 113
0 0 113
0 0 113
0 0 113
0 0 113
0 0 113
0 0 113
0 0 113
0 0 113
0 0 113
0 0 112
0 0 113
0 0 113
0 0 113
0 0 113
0 0 113
0 0 113
0 0 113
0 0 113
0 0 113
0 0 113
0 0 113
0 0 113
0 0 113
0 0 113
0 0 113
0 0 113
0 0 113
0 0 113
0 0 113
0 0 113
0 0 113
0 0 113
0 0 113
0 0 113
0 0 113
0 0 113
0 0 113
0 0 113
0 0 113
0 0 113
0 0 113
0 0 113
0 0 113
0 0 113
0 0 113
0 0 113
0 0 113
0 0 113
0 0 113
0 0 113
0 0 113
0 0 113
0 0 113
0 0 113
0 0 113
0 0 113
0 0 113
0 19 114
0 21 116
13 24 117
12 22 119
10 25 120
12 27 120
7 27 122
0 28 122
0 30 123
0 34 124
0 36 125
0 36 126
0 43 129
19 49 131
16 44 131
14 55 141
107 119 159
205 196 187
190 178 163
203 187 171
190 182 168
180 167 150
198 186 175
189 178 159
160 153 128
170 161 140
152 149 121
114 123 82
118 130 86
126 132 97
131 132 106
134 139 112
124 131 90
116 128 77
110 127 71
102 124 63
97 127 50
110 130 72
121 134 93
112 130 78
121 139 93
123 136 95
129 140 101
137 144 110
136 141 106
137 144 107
130 141 97
130 141 97
127 141 96
138 147 110
143 147 112
130 139 98
123 136 92
131 139 101
133 139 103
134 139 106
134 137 103
127 132 95
134 138 105
136 139 108
82 98 137
21 17 115
0 0 115
0 0 115
0 0 114
0 0 113
0 0 113
0 0 113
0 0 113
0 0 113
0 0 113
0 0 113
0 0 113
0 0 113
0 0 113
80 85 140
221 235 253
224 237 255
224 237 255
224 237 255
224 237 255
224 237 255
224 237 255
224 237 255
224 237 255
224 237 255
224 237 255
224 237 255
224 237 255
224 237 255
224 237 255
224 237 255
224 237 255
224 237 255
224 237 255
224 237 255
224 237 255
224 237 255
224 237 255
224 237 255
224 237 255
224 237 255
224 237 255
224 237 255
224 237 255
224 237 255
224 237 255
224 237 255
224 237 255
224 237 255
224 237 255
224 237 255
224 237 255
224 237 255
224 237 255
224 237 255
224 237 255
224 237 255
224 237 255
224 237 255
224 237 255
224 237 255
224 237 255
224 237 255
224 237 255
224 237 255
224 237 255
224 237 255
224 237 255
224 237 255
224 237 255
224 237 255
224 237 255
224 237 255
224 237 255
224 237 255
224 237 255
224 237 255
224 237 255
224 237 255
224 237 255
224 237 255
224 237 255
224 237 255
224 237 255
224 237 255
224 237 255
224 237 255
224 237 255
224 237 255
224 237 255
224 237 255
224 237 255
224 237 255
224 237 255
224 237 255
224 237 255
224 237 255
224 237 255
224 237 255
224 237 255
224 237 255
224 237 255
224 237 255
224 237 255
224 237 255
224 237 255
224 237 255
224 237 255
224 237 255
224 237 255
224 237 255
224 237 255
224 237 255
224 237 255
224 237 255
224 237 255
224 237 255
224 237 255
224 237 255
224 237 255
224 237 255
224 237 255
224 237 255
224 237 255
224 237 255
224 237 255
224 237 255
224 237 255
224 237 255
224 237 255
224 237 255
224 237 255
224 237 255
224 237 255
224 237 255
224 237 255
224 237 255
224 237 255
224 237 255
224 237 255
224 237 255
224 237 255
224 237 255
224 237 255
224 237 255
224 237 255
224 237 255
224 237 255
224 237 255
224 237 255
224 237 255
224 237 255
224 237 255
224 237 255
224 237 255
224 237 255
224 237 255
224 237 255
224 237 255
224 237 255
224 237 255
224 237 255
224 237 255
224 237 255
224 237 255
224 237 255
224 237 255
224 237 255
224 237 255
224 237 255
224 237 255
224 237 255
224 237 255
224 237 255
224 237 255
224 237 255
224 237 255
224 237 255
224 237 255
224 237 255
224 237 255
224 237 255
224 237 255
224 237 255
224 237 255
224 237 255
224 237 255
224 237 255
224 237 255
224 237 255
224 237 255
224 237 255
224 237 255
224 237 255
224 237 255
224 237 255
224 237 255
224 237 255
224 237 255
224 237 255
224 237 255
224 237 255
224 237 255
224 237 255
224 237 255
224 237 255
224 237 255
224 237 255
224 237 255
224 237 255
224 237 255
224 237 255
224 237 255
224 237 255
224 237 255
224 237 255
224 237 255
173 183 210
0 0 113
0 0 113
0 0 113
0 0 113
0 0 113
0 0 113
0 0 113
0 0 113
0 0 113
0 0 113
0 0 113
0 0 113
0 0 113
0 0 113
0 0 113
0 0 113
0 0 113
0 0 113
0 0 113
0 0 113
0 0 113
0 0 113
0 0 113
0 0 113
0 0 113
0 0 113
0 0 113
0 0 113
0 0 113
0 0 113
0 0 113
0 0 113
0 0 113
0 0 113
0 0 113
0 0 113
0 0 113
0 0 113
0 0 113
0 0 113
0 0 113
0 0 113
0 0 113
0 0 113
0 0 113
0 0 112
0 0 113
0 0 113
0 0 113
0 0 113
0 0 113
0 0 113
0 0 113
0 0 113
0 0 113
0 0 113
0 0 113
0 0 113
0 0 113
0 0 113
0 0 112
0 0 113
0 0 113
0 0 113
0 0 113
0 0 113
0 0 113
0 0 113
0 0 113
0 0 113
0 0 113
0 0 113
0 0 113
0 0 113
0 0 113
0 0 113
0 0 113
0 0 113
0 0 113
0 0 113
0 0 113
0 0 113
0 0 113
0 0 113
0 0 113
0 0 113
0 0 112
0 0 113
0 0 113
0 0 113
0 0 113
0 0 113
0 0 113
0 0 113
0 0 113
0 0 113
0 0 113
0 0 113
0 0 113
0 0 113
0 0 113
0 0 113
0 0 113
0 0 113
0 0 113
0 0 113
0 0 113
0 0 113
0 0 113
0 0 113
0 0 113
0 0 113
0 0 113
0 0 113
0 0 113
0 0 113
0 0 113
0 0 113
0 0 113
0 0 113
0 0 113
4 9 112
10 14 115
16 26 118
18 30 120
17 33 121
5 31 122
1 29 123
8 37 125
12 41 126
15 42 127
15 43 127
16 41 125
3 43 127
14 55 132
8 54 133
18 68 147
126 137 166
200 184 170
188 174 162
195 181 161
192 183 167
198 192 182
215 202 193
194 183 165
162 155 127
169 159 136
139 136 105
109 120 76
116 128 88
122 128 93
125 128 104
128 133 104
122 130 91
116 128 81
112 129 80
108 128 77
107 131 71
117 133 85
118 131 86
117 133 84
125 139 95
125 137 94
130 140 102
133 141 101
132 139 97
132 143 100
127 139 91
135 147 104
131 145 100
132 142 99
137 142 105
123 137 95
123 135 94
130 138 98
133 140 103
133 137 103
125 132 96
128 135 97
129 137 97
130 142 110
37 53 136
20 19 111
0 0 115
0 0 115
0 0 113
0 0 113
0 0 113
0 0 113
0 0 113
0 0 113
0 0 113
0 0 113
0 0 113
0 0 113
0 0 113
161 171 200
224 237 255
224 237 255
224 237 255
224 237 255
224 237 255
224 237 255
224 237 255
224 237 255
224 237 255
224 237 255
224 237 255
224 237 255
224 237 255
224 237 255
224 237 255
224 237 255
224 237 255
224 237 255
224 237 255
224 237 255
224 237 255
224 237 255
224 237 255
224 237 255
224 237 255
224 237 255
224 237 255
224 237 255
224 237 255
224 237 255
224 237 255
224 237 255
224 237 255
224 237 255
224 237 255
224 237 255
224 237 255
224 237 255
224 237 255
224 237 255
224 237 255
224 237 255
224 237 255
224 237 255
224 237 255
224 237 255
224 237 255
224 237 255
224 237 255
224 237 255
224 237 255
224 237 255
224 237 255
224 237 255
224 237 255
224 237 255
224 237 255
224 237 255
224 237 255
224 237 255
224 237 255
224 237 255
224 237 255
224 237 255
224 237 255
224 237 255
224 237 255
224 237 255
224 237 255
224 237 255
224 237 255
224 237 255
224 237 255
224 237 255
224 237 255
224 237 255
224 237 255
224 237 255
224 237 255
224 237 255
224 237 255
224 237 255
224 237 255
224 237 255
224 237 255
224 237 255
224 237 255
224 237 255
224 237 255
224 237 255
224 237 255
224 237 255
224 237 255
224 237 255
224 237 255
224 237 255
224 237 255
224 237 255
224 237 255
224 237 255
224 237 255
224 237 255
224 237 255
224 237 255
224 237 255
224 237 255
224 237 255
224 237 255
224 237 255
224 237 255
224 237 255
224 237 255
224 237 255
224 237 255
224 237 255
224 237 255
224 237 255
224 237 255
224 237 255
224 237 255
224 237 255
224 237 255
224 237 255
224 237 255
224 237 255
224 237 255
224 237 255
224 237 255
224 237 255
224 237 255
224 237 255
224 237 255
224 237 255
224 237 255
224 237 255
224 237 255
224 237 255
224 237 255
224 237 255
224 237 255
224 237 255
224 237 255
224 237 255
224 237 255
224 237 255
224 237 255
224 237 255
224 237 255
224 237 255
224 237 255
224 237 255
224 237 255
224 237 255
224 237 255
224 237 255
224 237 255
224 237 255
224 237 255
224 237 255
224 237 255
224 237 255
224 237 255
224 237 255
224 237 255
224 237 255
224 237 255
224 237 255
224 237 255
224 237 255
224 237 255
224 237 255
224 237 255
224 237 255
224 237 255
224 237 255
224 237 255
224 237 255
224 237 255
224 237 255
224 237 255
224 237 255
224 237 255
224 237 255
224 237 255
224 237 255
224 237 255
224 237 255
224 237 255
224 237 255
224 237 255
224 237 255
224 237 255
224 237 255
224 237 255
224 237 255
224 237 255
224 237 255
224 237 255
224 237 255
224 237 255
224 237 255
224 237 255
218 231 250
44 47 122
0 0 113
0 0 113
0 0 113
0 0 113
0 0 113
0 0 113
0 0 113
0 0 113
0 0 113
0 0 113
0 0 113
0 0 113
0 0 113
0 0 113
0 0 113
0 0 113
0 0 113
0 0 113
0 0 113
0 0 113
0 0 113
0 0 113
0 0 113
0 0 113
0 0 113
0 0 113
0 0 113
0 0 113
0 0 113
0 0 113
0 0 113
0 0 113
0 0 113
0 0 113
0 0 113
0 0 113
0 0 113
0 0 113
0 0 113
0 0 113
0 0 113
0 0 113
0 0 113
0 0 113
0 0 113
0 0 113
0 0 113
0 0 113
0 0 113
0 0 113
0 0 113
0 0 113
0 0 113
0 0 113
0 0 113
0 0 113
0 0 113
0 0 113
0 0 113
0 0 113
0 0 113
0 0 113
0 0 113
0 0 113
0 0 113
0 0 113
0 0 113
0 0 113
0 0 113
0 0 113
0 0 113
0 0 113
0 0 113
0 0 113
0 0 113
0 0 113
0 0 113
0 0 113
0 0 113
0 0 113
0 0 113
0 0 113
0 0 113
0 0 113
0 0 113
0 0 113
0 0 113
0 0 113
0 0 112
0 0 113
0 0 113
0 0 113
0 0 113
0 0 113
0 0 113
0 0 113
0 0 113
0 0 113
0 0 113
0 0 113
0 0 113
0 0 113
0 0 113
0 0 113
0 0 113
0 0 113
0 0 113
0 0 113
0 0 113
0 0 113
0 0 113
0 0 113
0 0 113
0 0 113
0 0 113
0 0 113
0 0 113
0 0 113
0 0 113
6 0 113
17 0 112
13 10 113
9 21 116
11 27 119
2 33 121
0 33 122
5 33 124
12 40 126
15 43 127
14 42 127
15 39 125
16 36 123
0 35 125
0 45 128
20 58 137
22 68 147
141 143 165
210 195 185
190 178 165
188 171 154
195 183 165
194 184 168
205 189 177
186 174 154
169 162 136
167 158 137
143 145 119
109 119 78
117 127 90
126 130 99
126 128 103
128 132 102
124 132 93
113 125 75
113 129 79
113 131 77
112 130 75
119 134 89
123 136 93
123 137 90
122 136 93
128 141 98
127 138 91
132 143 96
132 144 95
127 140 93
138 148 110
137 148 102
137 148 106
132 143 103
130 137 99
126 138 100
126 136 96
126 137 92
128 136 98
122 130 93
119 131 89
111 126 77
104 121 104
65 79 131
18 23 116
12 5 114
0 0 114
0 0 114
0 0 113
0 0 113
0 0 113
0 0 113
0 0 113
0 0 113
0 0 112
0 0 113
0 0 113
0 0 113
44 47 122
219 232 251
224 237 255
224 237 255
224 237 255
224 237 255
224 237 255
224 237 255
224 237 255
224 237 255
224 237 255
224 237 255
224 237 255
224 237 255
224 237 255
224 237 255
224 237 255
224 237 255
224 237 255
224 237 255
224 237 255
224 237 255
224 237 255
224 237 255
224 237 255
224 237 255
224 237 255
224 237 255
224 237 255
224 237 255
224 237 255
224 237 255
224 237 255
224 237 255
224 237 255
224 237 255
224 237 255
224 237 255
224 237 255
224 237 255
224 237 255
224 237 255
224 237 255
224 237 255
224 237 255
224 237 255
224 237 255
224 237 255
224 237 255
224 237 255
224 237 255
224 237 255
224 237 255
224 237 255
224 237 255
224 237 255
224 237 255
224 237 255
224 237 255
224 237 255
224 237 255
224 237 255
224 237 255
224 237 255
224 237 255
224 237 255
224 237 255
224 237 255
224 237 255
224 237 255
224 237 255
224 237 255
224 237 255
224 237 255
224 237 255
224 237 255
224 237 255
224 237 255
224 237 255
224 237 255
224 237 255
224 237 255
224 237 255
224 237 255
224 237 255
224 237 255
224 237 255
224 237 255
224 237 255
224 237 255
224 237 255
224 237 255
224 237 255
224 237 255
224 237 255
224 237 255
224 237 255
224 237 255
224 237 255
224 237 255
224 237 255
224 237 255
224 237 255
224 237 255
224 237 255
224 237 255
224 237 255
224 237 255
224 237 255
224 237 255
224 237 255
224 237 255
224 237 255
224 237 255
224 237 255
224 237 255
224 237 255
224 237 255
224 237 255
224 237 255
224 237 255
224 237 255
224 237 255
224 237 255
224 237 255
224 237 255
224 237 255
224 237 255
224 237 255
224 237 255
224 237 255
224 237 255
224 237 255
224 237 255
224 237 255
224 237 255
224 237 255
224 237 255
224 237 255
224 237 255
224 237 255
224 237 255
224 237 255
224 237 255
224 237 255
224 237 255
224 237 255
224 237 255
224 237 255
224 237 255
224 237 255
224 237 255
224 237 255
224 237 255
224 237 255
224 237 255
224 237 255
224 237 255
224 237 255
224 237 255
224 237 255
224 237 255
224 237 255
224 237 255
224 237 255
224 237 255
224 237 255
224 237 255
224 237 255
224 237 255
224 237 255
224 237 255
224 237 255
224 237 255
224 237 255
224 237 255
224 237 255
224 237 255
224 237 255
224 237 255
224 237 255
224 237 255
224 237 255
224 237 255
224 237 255
224 237 255
224 237 255
224 237 255
224 237 255
224 237 255
224 237 255
224 237 255
224 237 255
224 237 255
224 237 255
224 237 255
224 237 255
224 237 255
224 237 255
224 237 255
224 237 255
224 237 255
224 237 255
224 237 255
224 237 255
143 152 185
0 0 113
0 0 113
0 0 113
0 0 113
0 0 113
0 0 113
0 0 112
0 0 113
0 0 113
0 0 113
0 0 113
0 0 113
0 0 113
0 0 113
0 0 113
0 0 113
0 0 113
0 0 112
0 0 113
0 0 113
0 0 112
0 0 113
0 0 113
0 0 113
0 0 113
0 0 113
0 0 113
0 0 113
0 0 113
0 0 113
0 0 113
0 0 113
0 0 113
0 0 113
0 0 113
0 0 113
0 0 113
0 0 113
0 0 113
0 0 113
0 0 113
0 0 113
0 0 113
0 0 113
0 0 113
0 0 113
0 0 113
0 0 113
0 0 113
0 0 113
0 0 113
0 0 113
0 0 113
0 0 113
0 0 113
0 0 113
0 0 113
0 0 113
0 0 113
0 0 113
0 0 113
0 0 113
0 0 113
0 0 113
0 0 113
0 0 113
0 0 113
0 0 113
0 0 113
0 0 113
0 0 113
0 0 113
0 0 113
0 0 113
0 0 113
0 0 113
0 0 113
0 0 113
0 0 113
0 0 113
0 0 113
0 0 113
0 0 113
0 0 113
0 0 113
0 0 113
0 0 113
0 0 113
0 0 113
0 0 113
0 0 113
0 0 113
0 0 113
0 0 113
0 0 113
0 0 113
0 0 113
0 0 113
0 0 113
0 0 113
0 0 113
0 0 113
0 0 113
0 0 113
0 0 113
0 0 113
0 0 113
0 0 113
0 0 113
0 0 113
0 0 113
0 0 113
0 0 113
0 0 113
0 0 113
0 0 113
0 0 113
0 0 113
0 0 113
8 0 113
20 0 113
6 2 113
6 13 115
0 21 116
0 23 118
0 26 121
4 30 123
3 33 123
0 34 124
0 34 124
12 33 124
19 37 126
10 39 127
15 39 126
24 49 133
24 51 138
158 153 165
210 202 194
192 182 173
184 170 157
195 179 162
191 178 164
194 178 162
180 169 143
183 170 146
169 164 143
115 123 85
104 116 68
118 128 87
127 131 99
127 131 101
125 130 98
120 129 89
124 137 92
126 139 92
113 131 76
103 124 65
113 130 82
115 131 82
117 132 83
125 139 98
124 138 93
129 143 96
133 147 96
127 140 90
134 146 106
139 148 111
131 141 100
130 141 96
128 139 98
127 135 96
130 139 98
129 136 99
125 134 92
116 130 85
110 123 80
106 131 102
99 119 104
60 71 123
18 21 120
11 13 113
0 0 113
0 0 113
0 0 113
0 0 113
0 0 113
0 0 113
0 0 113
0 0 113
0 0 113
0 0 113
0 0 113
0 0 113
0 0 113
152 161 192
224 237 255
224 237 255
224 237 255
224 237 255
224 237 255
224 237 255
224 237 255
224 237 255
224 237 255
224 237 255
224 237 255
224 237 255
224 237 255
224 237 255
224 237 255
224 237 255
224 237 255
224 237 255
224 237 255
224 237 255
224 237 255
224 237 255
224 237 255
224 237 255
224 237 255
224 237 255
224 237 255
224 237 255
224 237 255
224 237 255
224 237 255
224 237 255
224 237 255
224 237 255
224 237 255
224 237 255
224 237 255
224 237 255
224 237 255
224 237 255
224 237 255
224 237 255
224 237 255
224 237 255
224 237 255
224 237 255
224 237 255
224 237 255
224 237 255
224 237 255
224 237 255
224 237 255
224 237 255
224 237 255
224 237 255
224 237 255
224 237 255
224 237 255
224 237 255
224 237 255
224 237 255
224 237 255
224 237 255
224 237 255
224 237 255
224 237 255
224 237 255
224 237 255
224 237 255
224 237 255
224 237 255
224 237 255
224 237 255
224 237 255
224 237 255
224 237 255
224 237 255
224 237 255
224 237 255
224 237 255
224 237 255
224 237 255
224 237 255
224 237 255
224 237 255
224 237 255
224 237 255
224 237 255
224 237 255
224 237 255
224 237 255
224 237 255
224 237 255
224 237 255
224 237 255
224 237 255
224 237 255
224 237 255
224 237 255
224 237 255
224 237 255
224 237 255
224 237 255
224 237 255
224 237 255
224 237 255
224 237 255
224 237 255
224 237 255
224 237 255
224 237 255
224 237 255
224 237 255
224 237 255
224 237 255
224 237 255
224 237 255
224 237 255
224 237 255
224 237 255
224 237 255
224 237 255
224 237 255
224 237 255
224 237 255
224 237 255
224 237 255
224 237 255
224 237 255
224 237 255
224 237 255
224 237 255
224 237 255
224 237 255
224 237 255
224 237 255
224 237 255
224 237 255
224 237 255
224 237 255
224 237 255
224 237 255
224 237 255
224 237 255
224 237 255
224 237 255
224 237 255
224 237 255
224 237 255
224 237 255
224 237 255
224 237 255
224 237 255
224 237 255
224 237 255
224 237 255
224 237 255
224 237 255
224 237 255
224 237 255
224 237 255
224 237 255
224 237 255
224 237 255
224 237 255
224 237 255
224 237 255
224 237 255
224 237 255
224 237 255
224 237 255
224 237 255
224 237 255
224 237 255
224 237 255
224 237 255
224 237 255
224 237 255
224 237 255
224 237 255
224 237 255
224 237 255
224 237 255
224 237 255
224 237 255
224 237 255
224 237 255
224 237 255
224 237 255
224 237 255
224 237 255
224 237 255
224 237 255
224 237 255
224 237 255
224 237 255
224 237 255
224 237 255
224 237 255
224 237 255
224 237 255
224 237 255
224 237 255
224 237 255
208 220 241
44 47 122
0 0 113
0 0 113
0 0 113
0 0 113
0 0 113
0 0 113
0 0 113
0 0 113
0 0 113
0 0 113
0 0 113
0 0 113
0 0 113
0 0 113
0 0 113
0 0 113
0 0 113
0 0 113
0 0 113
0 0 113
0 0 113
0 0 113
0 0 113
0 0 113
0 0 113
0 0 113
0 0 113
0 0 113
0 0 113
0 0 113
0 0 113
0 0 113
0 0 113
0 0 113
0 0 113
0 0 113
0 0 113
0 0 113
0 0 113
0 0 112
0 0 113
0 0 113
0 0 113
0 0 113
0 0 113
0 0 113
0 0 113
0 0 113
0 0 113
0 0 113
0 0 113
0 0 113
0 0 113
0 0 113
0 0 113
0 0 113
0 0 113
0 0 113
0 0 113
0 0 113
0 0 113
0 0 113
0 0 113
0 0 113
0 0 113
0 0 113
0 0 113
0 0 113
0 0 113
0 0 113
0 0 113
0 0 113
0 0 113
0 0 113
0 0 113
0 0 113
0 0 113
0 0 113
0 0 113
0 0 113
0 0 113
0 0 113
0 0 113
0 0 113
0 0 113
0 0 113
0 0 113
0 0 113
0 0 113
0 0 113
0 0 113
0 0 113
0 0 113
0 0 113
0 0 113
0 0 113
0 0 113
0 0 113
0 0 113
0 0 113
0 0 113
0 0 113
0 0 113
0 0 113
0 0 113
0 0 113
0 0 113
0 0 113
0 0 113
0 0 113
0 0 113
0 0 113
0 0 113
0 0 113
0 0 113
0 0 113
0 0 113
0 0 113
9 12 113
12 16 113
3 2 113
0 8 114
4 14 115
7 19 116
5 24 118
13 29 120
10 29 120
11 32 123
13 34 123
14 39 125
5 46 129
0 47 130
15 42 127
15 44 130
60 73 142
184 172 168
203 194 189
200 189 182
180 173 163
194 178 168
194 177 162
185 174 157
189 179 158
196 182 163
144 141 111
93 112 56
111 127 83
121 131 91
130 138 102
124 132 98
121 130 93
120 130 88
136 148 109
128 142 99
106 128 75
104 125 72
105 126 75
111 130 83
110 128 83
123 138 96
129 142 95
132 146 96
128 142 90
137 147 107
137 147 108
127 139 97
114 129 84
120 134 82
124 136 95
125 136 95
131 142 100
123 137 93
116 130 82
101 115 95
51 67 117
50 61 126
32 39 120
16 22 118
10 15 111
0 0 114
0 0 113
0 0 113
0 0 113
0 0 113
0 0 113
0 0 113
0 0 113
0 0 113
0 0 113
0 0 112
0 0 113
0 0 113
50 53 124
208 220 241
224 237 255
224 237 255
224 237 255
224 237 255
224 237 255
224 237 255
224 237 255
224 237 255
224 237 255
224 237 255
224 237 255
224 237 255
224 237 255
224 237 255
224 237 255
224 237 255
224 237 255
224 237 255
224 237 255
224 237 255
224 237 255
224 237 255
224 237 255
224 237 255
224 237 255
224 237 255
224 237 255
224 237 255
224 237 255
224 237 255
224 237 255
224 237 255
224 237 255
224 237 255
224 237 255
224 237 255
224 237 255
224 237 255
224 237 255
224 237 255
224 237 255
224 237 255
224 237 255
224 237 255
224 237 255
224 237 255
224 237 255
224 237 255
224 237 255
224 237 255
224 237 255
224 237 255
224 237 255
224 237 255
224 237 255
224 237 255
224 237 255
224 237 255
224 237 255
224 237 255
224 237 255
224 237 255
224 237 255
224 237 255
224 237 255
224 237 255
224 237 255
224 237 255
224 237 255
224 237 255
224 237 255
224 237 255
224 237 255
224 237 255
224 237 255
224 237 255
224 237 255
224 237 255
224 237 255
224 237 255
224 237 255
224 237 255
224 237 255
224 237 255
224 237 255
224 237 255
224 237 255
224 237 255
224 237 255
224 237 255
224 237 255
224 237 255
224 237 255
224 237 255
224 237 255
224 237 255
224 237 255
224 237 255
224 237 255
224 237 255
224 237 255
224 237 255
224 237 255
224 237 255
224 237 255
224 237 255
224 237 255
224 237 255
224 237 255
224 237 255
224 237 255
224 237 255
224 237 255
224 237 255
224 237 255
224 237 255
224 237 255
224 237 255
224 237 255
224 237 255
224 237 255
224 237 255
224 237 255
224 237 255
224 237 255
224 237 255
224 237 255
224 237 255
224 237 255
224 237 255
224 237 255
224 237 255
224 237 255
224 237 255
224 237 255
224 237 255
224 237 255
224 237 255
224 237 255
224 237 255
224 237 255
224 237 255
224 237 255
224 237 255
224 237 255
224 237 255
224 237 255
224 237 255
224 237 255
224 237 255
224 237 255
224 237 255
224 237 255
224 237 255
224 237 255
224 237 255
224 237 255
224 237 255
224 237 255
224 237 255
224 237 255
224 237 255
224 237 255
224 237 255
224 237 255
224 237 255
224 237 255
224 237 255
224 237 255
224 237 255
224 237 255
224 237 255
224 237 255
224 237 255
224 237 255
224 237 255
224 237 255
224 237 255
224 237 255
224 237 255
224 237 255
224 237 255
224 237 255
224 237 255
224 237 255
224 237 255
224 237 255
224 237 255
224 237 255
224 237 255
224 237 255
224 237 255
224 237 255
224 237 255
224 237 255
224 237 255
224 237 255
224 237 255
224 237 255
224 237 255
224 237 255
224 237 255
224 237 255
224 237 255
224 237 255
132 140 176
0 0 113
0 0 113
0 0 113
0 0 113
0 0 113
0 0 113
0 0 113
0 0 113
0 0 113
0 0 113
0 0 113
0 0 113
0 0 113
0 0 113
0 0 113
0 0 113
0 0 113
0 0 113
0 0 113
0 0 113
0 0 113
0 0 113
0 0 113
0 0 113
0 0 113
0 0 113
0 0 113
0 0 113
0 0 113
0 0 113
0 0 113
0 0 113
0 0 113
0 0 113
0 0 113
0 0 113
0 0 113
0 0 113
0 0 113
0 0 113
0 0 113
0 0 113
0 0 113
0 0 113
0 0 113
0 0 113
0 0 113
0 0 113
0 0 113
0 0 113
0 0 113
0 0 113
0 0 113
0 0 113
0 0 113
0 0 113
0 0 113
0 0 113
0 0 113
0 0 113
0 0 113
0 0 113
0 0 113
0 0 113
0 0 113
0 0 112
0 0 113
0 0 113
0 0 113
0 0 113
0 0 113
0 0 113
0 0 113
0 0 113
0 0 113
0 0 113
0 0 113
0 0 113
0 0 113
0 0 113
0 0 113
0 0 113
0 0 113
0 0 113
0 0 113
0 0 112
0 0 113
0 0 113
0 0 113
0 0 113
0 0 113
0 0 113
0 0 113
0 0 113
0 0 113
0 0 113
0 0 113
0 0 113
0 0 113
0 0 112
0 0 113
0 0 113
0 0 113
0 0 113
0 0 113
0 0 113
0 0 113
0 0 113
0 0 113
0 0 112
0 0 113
0 0 113
0 0 113
0 0 113
0 0 113
0 0 112
0 0 113
0 0 113
5 8 113
4 11 112
0 0 113
0 14 115
4 16 116
9 19 116
5 19 116
10 25 118
12 29 119
11 32 121
12 36 122
11 42 128
18 49 134
4 50 127
21 53 130
6 70 150
117 121 150
194 183 175
197 187 176
193 181 176
189 175 168
195 180 167
200 185 171
191 181 163
196 183 163
178 168 147
113 118 79
106 125 73
124 135 97
126 132 98
131 138 102
124 134 94
117 129 85
116 130 82
119 132 87
116 132 87
110 128 78
106 123 72
114 131 87
114 130 84
114 129 82
130 142 100
136 146 99
133 143 93
134 146 102
133 145 102
124 137 92
118 135 90
119 136 91
122 136 87
123 135 92
121 133 89
117 130 93
116 131 92
69 97 106
24 55 125
18 36 120
17 23 116
13 19 119
10 17 114
12 16 112
2 2 113
0 0 113
0 0 113
0 0 113
0 0 113
0 0 113
0 0 113
0 0 113
0 0 113
0 0 113
0 0 113
0 0 113
0 0 113
134 142 178
224 237 255
224 237 255
224 237 255
224 237 255
224 237 255
224 237 255
224 237 255
224 237 255
224 237 255
224 237 255
224 237 255
224 237 255
224 237 255
224 237 255
224 237 255
224 237 255
224 237 255
224 237 255
224 237 255
224 237 255
224 237 255
224 237 255
224 237 255
224 237 255
224 237 255
224 237 255
224 237 255
224 237 255
224 237 255
224 237 255
224 237 255
224 237 255
224 237 255
224 237 255
224 237 255
224 237 255
224 237 255
224 237 255
224 237 255
224 237 255
224 237 255
224 237 255
224 237 255
224 237 255
224 237 255
224 237 255
224 237 255
224 237 255
224 237 255
224 237 255
224 237 255
224 237 255
224 237 255
224 237 255
224 237 255
224 237 255
224 237 255
224 237 255
224 237 255
224 237 255
224 237 255
224 237 255
224 237 255
224 237 255
224 237 255
224 237 255
224 237 255
224 237 255
224 237 255
224 237 255
224 237 255
224 237 255
224 237 255
224 237 255
224 237 255
224 237 255
224 237 255
224 237 255
224 237 255
224 237 255
224 237 255
224 237 255
224 237 255
224 237 255
224 237 255
224 237 255
224 237 255
224 237 255
224 237 255
224 237 255
224 237 255
224 237 255
224 237 255
224 237 255
224 237 255
224 237 255
224 237 255
224 237 255
224 237 255
224 237 255
224 237 255
224 237 255
224 237 255
224 237 255
224 237 255
224 237 255
224 237 255
224 237 255
224 237 255
224 237 255
224 237 255
224 237 255
224 237 255
224 237 255
224 237 255
224 237 255
224 237 255
224 237 255
224 237 255
224 237 255
224 237 255
224 237 255
224 237 255
224 237 255
224 237 255
224 237 255
224 237 255
224 237 255
224 237 255
224 237 255
224 237 255
224 237 255
224 237 255
224 237 255
224 237 255
224 237 255
224 237 255
224 237 255
224 237 255
224 237 255
224 237 255
224 237 255
224 237 255
224 237 255
224 237 255
224 237 255
224 237 255
224 237 255
224 237 255
224 237 255
224 237 255
224 237 255
224 237 255
224 237 255
224 237 255
224 237 255
224 237 255
224 237 255
224 237 255
224 237 255
224 237 255
224 237 255
224 237 255
224 237 255
224 237 255
224 237 255
224 237 255
224 237 255
224 237 255
224 237 255
224 237 255
224 237 255
224 237 255
224 237 255
224 237 255
224 237 255
224 237 255
224 237 255
224 237 255
224 237 255
224 237 255
224 237 255
224 237 255
224 237 255
224 237 255
224 237 255
224 237 255
224 237 255
224 237 255
224 237 255
224 237 255
224 237 255
224 237 255
224 237 255
224 237 255
224 237 255
224 237 255
224 237 255
224 237 255
224 237 255
224 237 255
224 237 255
224 237 255
224 237 255
224 237 255
224 237 255
215 227 247
50 53 124
0 0 113
0 0 113
0 0 113
0 0 113
0 0 113
0 0 113
0 0 113
0 0 113
0 0 113
0 0 113
0 0 113
0 0 113
0 0 113
0 0 113
0 0 113
0 0 113
0 0 113
0 0 113
0 0 113
0 0 113
0 0 113
0 0 113
0 0 113
0 0 113
0 0 113
0 0 113
0 0 113
0 0 113
0 0 113
0 0 113
0 0 113
0 0 113
0 0 113
0 0 113
0 0 113
0 0 113
0 0 113
0 0 113
0 0 113
0 0 113
0 0 113
0 0 113
0 0 113
0 0 113
0 0 113
0 0 112
0 0 113
0 0 113
0 0 113
0 0 113
0 0 113
0 0 113
0 0 113
0 0 113
0 0 113
0 0 113
0 0 113
0 0 113
0 0 113
0 0 113
0 0 113
0 0 113
0 0 113
0 0 113
0 0 113
0 0 113
0 0 113
0 0 113
0 0 113
0 0 113
0 0 113
0 0 113
0 0 113
0 0 113
0 0 113
0 0 113
0 0 113
0 0 113
0 0 113
0 0 113
0 0 113
0 0 113
0 0 113
0 0 113
0 0 113
0 0 113
0 0 112
0 0 113
0 0 113
0 0 113
0 0 113
0 0 112
0 0 113
0 0 113
0 0 113
0 0 113
0 0 113
0 0 113
0 0 113
0 0 113
0 0 113
0 0 113
0 0 113
0 0 113
0 0 113
0 0 113
0 0 113
0 0 113
0 0 113
0 0 113
0 0 113
0 0 113
0 0 113
0 0 113
0 0 113
0 0 113
0 0 113
0 0 113
0 0 113
0 0 113
0 18 115
0 21 116
0 21 116
0 18 116
11 25 117
9 28 119
0 31 120
6 37 122
11 45 124
18 45 132
14 42 125
21 50 142
52 86 157
167 167 170
195 184 174
191 178 165
190 177 167
198 186 179
196 181 171
200 188 176
195 184 167
197 186 169
159 155 131
105 117 67
126 137 100
128 134 101
132 134 100
127 133 97
120 133 91
115 130 82
117 133 87
121 137 99
116 132 87
115 133 86
110 127 73
111 129 77
110 127 76
110 127 73
123 137 91
131 142 96
135 147 102
135 148 105
124 137 88
119 136 90
109 128 80
110 128 79
114 129 77
111 125 71
97 117 52
68 96 94
32 63 129
18 45 132
19 19 118
16 16 118
12 20 115
13 15 116
6 10 112
9 10 113
0 0 113
0 0 113
0 0 113
0 0 113
0 0 113
0 0 113
0 0 113
0 0 113
0 0 112
0 0 113
0 0 113
0 0 113
31 33 117
214 226 246
224 237 255
224 237 255
224 237 255
224 237 255
224 237 255
224 237 255
224 237 255
224 237 255
224 237 255
224 237 255
224 237 255
224 237 255
224 237 255
224 237 255
224 237 255
224 237 255
224 237 255
224 237 255
224 237 255
224 237 255
224 237 255
224 237 255
224 237 255
224 237 255
224 237 255
224 237 255
224 237 255
224 237 255
224 237 255
224 237 255
224 237 255
224 237 255
224 237 255
224 237 255
224 237 255
224 237 255
224 237 255
224 237 255
224 237 255
224 237 255
224 237 255
224 237 255
224 237 255
224 237 255
224 237 255
224 237 255
224 237 255
224 237 255
224 237 255
224 237 255
224 237 255
224 237 255
224 237 255
224 237 255
224 237 255
224 237 255
224 237 255
224 237 255
224 237 255
224 237 255
224 237 255
224 237 255
224 237 255
224 237 255
224 237 255
224 237 255
224 237 255
224 237 255
224 237 255
224 237 255
224 237 255
224 237 255
224 237 255
224 237 255
224 237 255
224 237 255
224 237 255
224 237 255
224 237 255
224 237 255
224 237 255
224 237 255
224 237 255
224 237 255
224 237 255
224 237 255
224 237 255
224 237 255
224 237 255
224 237 255
224 237 255
224 237 255
224 237 255
224 237 255
224 237 255
224 237 255
224 237 255
224 237 255
224 237 255
224 237 255
224 237 255
224 237 255
224 237 255
224 237 255
224 237 255
224 237 255
224 237 255
224 237 255
224 237 255
224 237 255
224 237 255
224 237 255
224 237 255
224 237 255
224 237 255
224 237 255
224 237 255
224 237 255
224 237 255
224 237 255
224 237 255
224 237 255
224 237 255
224 237 255
224 237 255
224 237 255
224 237 255
224 237 255
224 237 255
224 237 255
224 237 255
224 237 255
224 237 255
224 237 255
224 237 255
224 237 255
224 237 255
224 237 255
224 237 255
224 237 255
224 237 255
224 237 255
224 237 255
224 237 255
224 237 255
224 237 255
224 237 255
224 237 255
224 237 255
224 237 255
224 237 255
224 237 255
224 237 255
224 237 255
224 237 255
224 237 255
224 237 255
224 237 255
224 237 255
224 237 255
224 237 255
224 237 255
224 237 255
224 237 255
224 237 255
224 237 255
224 237 255
224 237 255
224 237 255
224 237 255
224 237 255
224 237 255
224 237 255
224 237 255
224 237 255
224 237 255
224 237 255
224 237 255
224 237 255
224 237 255
224 237 255
224 237 255
224 237 255
224 237 255
224 237 255
224 237 255
224 237 255
224 237 255
224 237 255
224 237 255
224 237 255
224 237 255
224 237 255
224 237 255
224 237 255
224 237 255
224 237 255
224 237 255
224 237 255
224 237 255
224 237 255
224 237 255
224 237 255
224 237 255
224 237 255
224 237 255
224 237 255
160 169 199
0 0 113
0 0 113
0 0 113
0 0 113
0 0 113
0 0 113
0 0 113
0 0 113
0 0 113
0 0 113
0 0 113
0 0 113
0 0 113
0 0 113
0 0 113
0 0 113
0 0 113
0 0 113
0 0 113
0 0 113
0 0 113
0 0 113
0 0 113
0 0 112
0 0 113
0 0 113
0 0 113
0 0 113
0 0 113
0 0 113
0 0 113
0 0 113
0 0 113
0 0 113
0 0 113
0 0 113
0 0 113
0 0 113
0 0 113
0 0 113
0 0 113
0 0 113
0 0 113
0 0 113
0 0 113
0 0 113
0 0 113
0 0 113
0 0 113
0 0 113
0 0 113
0 0 113
0 0 113
0 0 113
0 0 113
0 0 113
0 0 113
0 0 113
0 0 112
0 0 113
0 0 113
0 0 113
0 0 113
0 0 113
0 0 113
0 0 113
0 0 113
0 0 113
0 0 113
0 0 113
0 0 113
0 0 113
0 0 113
0 0 113
0 0 113
0 0 113
0 0 113
0 0 113
0 0 113
0 0 113
0 0 113
0 0 113
0 0 113
0 0 113
0 0 113
0 0 113
0 0 113
0 0 113
0 0 113
0 0 113
0 0 113
0 0 113
0 0 113
0 0 113
0 0 113
0 0 113
0 0 113
0 0 113
0 0 113
0 0 113
0 0 113
0 0 113
0 0 113
0 0 113
0 0 113
0 0 113
0 0 113
0 0 113
0 0 113
0 0 113
0 0 113
0 0 113
0 0 113
0 0 113
0 0 112
0 0 113
0 0 113
0 0 113
0 0 113
0 0 113
0 19 116
0 21 116
0 21 116
0 21 116
12 25 118
0 26 119
0 32 121
0 31 122
18 42 126
5 33 127
34 48 131
20 46 124
69 84 141
187 179 173
201 187 174
193 178 165
197 185 171
191 179 170
194 178 168
197 184 171
194 180 164
184 173 153
113 116 66
106 121 73
115 127 86
129 138 104
128 136 103
120 131 95
111 128 77
108 125 74
106 123 73
118 134 91
108 128 79
104 127 73
109 131 77
110 131 79
110 131 73
107 127 67
115 133 81
121 137 88
123 138 93
121 136 89
116 133 85
115 132 86
106 123 68
111 126 79
93 114 43
91 116 63
58 100 112
31 52 127
19 23 122
10 24 116
12 21 117
19 19 113
12 17 111
13 17 112
7 8 114
1 6 113
0 0 113
0 0 113
0 0 112
0 0 113
0 0 113
0 0 113
0 0 113
0 0 113
0 0 113
0 0 113
0 0 113
0 0 113
138 146 181
224 237 255
224 237 255
224 237 255
224 237 255
224 237 255
224 237 255
224 237 255
224 237 255
224 237 255
224 237 255
224 237 255
224 237 255
224 237 255
224 237 255
224 237 255
224 237 255
224 237 255
224 237 255
224 237 255
224 237 255
224 237 255
224 237 255
224 237 255
224 237 255
224 237 255
224 237 255
224 237 255
224 237 255
224 237 255
224 237 255
224 237 255
224 237 255
224 237 255
224 237 255
224 237 255
224 237 255
224 237 255
224 237 255
224 237 255
224 237 255
224 237 255
224 237 255
224 237 255
224 237 255
224 237 255
224 237 255
224 237 255
224 237 255
224 237 255
224 237 255
224 237 255
224 237 255
224 237 255
224 237 255
224 237 255
224 237 255
224 237 255
224 237 255
224 237 255
224 237 255
224 237 255
224 237 255
224 237 255
224 237 255
224 237 255
224 237 255
224 237 255
224 237 255
224 237 255
224 237 255
224 237 255
224 237 255
224 237 255
224 237 255
224 237 255
224 237 255
224 237 255
224 237 255
224 237 255
224 237 255
224 237 255
224 237 255
224 237 255
224 237 255
224 237 255
224 237 255
224 237 255
224 237 255
224 237 255
224 237 255
224 237 255
224 237 255
224 237 255
224 237 255
224 237 255
224 237 255
224 237 255
224 237 255
224 237 255
224 237 255
224 237 255
224 237 255
224 237 255
224 237 255
224 237 255
224 237 255
224 237 255
224 237 255
224 237 255
224 237 255
224 237 255
224 237 255
224 237 255
224 237 255
224 237 255
224 237 255
224 237 255
224 237 255
224 237 255
224 237 255
224 237 255
224 237 255
224 237 255
224 237 255
224 237 255
224 237 255
224 237 255
224 237 255
224 237 255
224 237 255
224 237 255
224 237 255
224 237 255
224 237 255
224 237 255
224 237 255
224 237 255
224 237 255
224 237 255
224 237 255
224 237 255
224 237 255
224 237 255
224 237 255
224 237 255
224 237 255
224 237 255
224 237 255
224 237 255
224 237 255
224 237 255
224 237 255
224 237 255
224 237 255
224 237 255
224 237 255
224 237 255
224 237 255
224 237 255
224 237 255
224 237 255
224 237 255
224 237 255
224 237 255
224 237 255
224 237 255
224 237 255
224 237 255
224 237 255
224 237 255
224 237 255
224 237 255
224 237 255
224 237 255
224 237 255
224 237 255
224 237 255
224 237 255
224 237 255
224 237 255
224 237 255
224 237 255
224 237 255
224 237 255
224 237 255
224 237 255
224 237 255
224 237 255
224 237 255
224 237 255
224 237 255
224 237 255
224 237 255
224 237 255
224 237 255
224 237 255
224 237 255
224 237 255
224 237 255
224 237 255
224 237 255
224 237 255
224 237 255
224 237 255
224 237 255
224 237 255
224 237 255
224 237 255
211 224 244
50 53 124
0 0 113
0 0 113
0 0 113
0 0 113
0 0 113
0 0 113
0 0 113
0 0 113
0 0 113
0 0 113
0 0 113
0 0 113
0 0 113
0 0 113
0 0 113
0 0 112
0 0 113
0 0 113
0 0 113
0 0 113
0 0 113
0 0 112
0 0 113
0 0 113
0 0 113
0 0 113
0 0 113
0 0 113
0 0 113
0 0 113
0 0 113
0 0 113
0 0 113
0 0 113
0 0 113
0 0 113
0 0 113
0 0 113
0 0 113
0 0 113
0 0 113
0 0 113
0 0 113
0 0 113
0 0 113
0 0 113
0 0 113
0 0 113
0 0 113
0 0 113
0 0 113
0 0 113
0 0 113
0 0 113
0 0 113
0 0 113
0 0 113
0 0 113
0 0 113
0 0 113
0 0 113
0 0 113
0 0 113
0 0 113
0 0 113
0 0 113
0 0 113
0 0 113
0 0 113
0 0 113
0 0 113
0 0 113
0 0 113
0 0 113
0 0 113
0 0 113
0 0 113
0 0 113
0 0 113
0 0 113
0 0 113
0 0 113
0 0 113
0 0 113
0 0 113
0 0 113
0 0 113
0 0 113
0 0 113
0 0 113
0 0 113
0 0 113
0 0 113
0 0 113
0 0 113
0 0 113
0 0 113
0 0 113
0 0 113
0 0 113
0 0 113
0 0 113
0 0 113
0 0 113
0 0 113
0 0 113
0 0 113
0 0 113
0 0 113
0 0 113
0 0 113
0 0 113
0 0 113
0 0 113
0 0 113
0 0 113
0 0 113
0 0 113
0 3 113
0 21 116
0 21 116
0 21 116
0 21 116
0 23 117
6 27 120
0 31 123
3 31 123
16 36 124
10 43 129
19 39 126
23 42 128
98 103 141
199 188 177
205 192 180
197 182 169
187 174 162
189 177 168
199 184 175
194 182 168
176 165 148
150 146 122
114 126 86
104 119 69
116 128 85
114 126 81
116 129 86
116 129 86
112 127 83
109 126 76
104 123 72
104 124 72
106 128 76
104 127 72
112 132 77
109 130 78
109 129 71
108 128 75
113 131 87
115 132 87
116 133 90
115 132 85
113 130 80
110 124 70
116 129 82
104 121 72
85 114 54
65 98 97
15 42 120
0 29 121
10 19 115
10 22 117
0 14 113
7 5 113
5 5 113
0 0 113
0 0 113
0 0 113
0 0 113
0 0 113
0 0 113
0 0 113
0 0 113
0 0 113
0 0 113
0 0 113
0 0 113
0 0 113
0 0 113
22 23 115
215 227 247
224 237 255
224 237 255
224 237 255
224 237 255
224 237 255
224 237 255
224 237 255
224 237 255
224 237 255
224 237 255
224 237 255
224 237 255
224 237 255
224 237 255
224 237 255
224 237 255
224 237 255
224 237 255
224 237 255
224 237 255
224 237 255
224 237 255
224 237 255
224 237 255
224 237 255
224 237 255
224 237 255
224 237 255
224 237 255
224 237 255
224 237 255
224 237 255
224 237 255
224 237 255
224 237 255
224 237 255
224 237 255
224 237 255
224 237 255
224 237 255
224 237 255
224 237 255
224 237 255
224 237 255
224 237 255
224 237 255
224 237 255
224 237 255
224 237 255
224 237 255
224 237 255
224 237 255
224 237 255
224 237 255
224 237 255
224 237 255
224 237 255
224 237 255
224 237 255
224 237 255
224 237 255
224 237 255
224 237 255
224 237 255
224 237 255
224 237 255
224 237 255
224 237 255
224 237 255
224 237 255
224 237 255
224 237 255
224 237 255
224 237 255
224 237 255
224 237 255
224 237 255
224 237 255
224 237 255
224 237 255
224 237 255
224 237 255
224 237 255
224 237 255
224 237 255
224 237 255
224 237 255
224 237 255
224 237 255
224 237 255
224 237 255
224 237 255
224 237 255
224 237 255
224 237 255
224 237 255
224 237 255
224 237 255
224 237 255
224 237 255
224 237 255
224 237 255
224 237 255
224 237 255
224 237 255
224 237 255
224 237 255
224 237 255
224 237 255
224 237 255
224 237 255
224 237 255
224 237 255
224 237 255
224 237 255
224 237 255
224 237 255
224 237 255
224 237 255
224 237 255
224 237 255
224 237 255
224 237 255
224 237 255
224 237 255
224 237 255
224 237 255
224 237 255
224 237 255
224 237 255
224 237 255
224 237 255
224 237 255
224 237 255
224 237 255
224 237 255
224 237 255
224 237 255
224 237 255
224 237 255
224 237 255
224 237 255
224 237 255
224 237 255
224 237 255
224 237 255
224 237 255
224 237 255
224 237 255
224 237 255
224 237 255
224 237 255
224 237 255
224 237 255
224 237 255
224 237 255
224 237 255
224 237 255
224 237 255
224 237 255
224 237 255
224 237 255
224 237 255
224 237 255
224 237 255
224 237 255
224 237 255
224 237 255
224 237 255
224 237 255
224 237 255
224 237 255
224 237 255
224 237 255
224 237 255
224 237 255
224 237 255
224 237 255
224 237 255
224 237 255
224 237 255
224 237 255
224 237 255
224 237 255
224 237 255
224 237 255
224 237 255
224 237 255
224 237 255
224 237 255
224 237 255
224 237 255
224 237 255
224 237 255
224 237 255
224 237 255
224 237 255
224 237 255
224 237 255
224 237 255
224 237 255
224 237 255
224 237 255
224 237 255
224 237 255
224 237 255
224 237 255
224 237 255
224 237 255
147 155 188
0 0 113
0 0 113
0 0 113
0 0 113
0 0 113
0 0 113
0 0 113
0 0 112
0 0 113
0 0 113
0 0 113
0 0 113
0 0 113
0 0 113
0 0 113
0 0 113
0 0 113
0 0 113
0 0 113
0 0 113
0 0 113
0 0 113
0 0 113
0 0 113
0 0 113
0 0 113
0 0 113
0 0 113
0 0 113
0 0 113
0 0 113
0 0 113
0 0 113
0 0 113
0 0 113
0 0 113
0 0 113
0 0 113
0 0 113
0 0 113
0 0 113
0 0 113
0 0 113
0 0 113
0 0 113
0 0 113
0 0 113
0 0 113
0 0 113
0 0 113
0 0 113
0 0 113
0 0 113
0 0 113
0 0 113
0 0 113
0 0 113
0 0 113
0 0 113
0 0 113
0 0 113
0 0 113
0 0 113
0 0 113
0 0 113
0 0 113
0 0 113
0 0 113
0 0 113
0 0 113
0 0 113
0 0 113
0 0 113
0 0 113
0 0 113
0 0 113
0 0 113
0 0 113
0 0 113
0 0 113
0 0 113
0 0 113
0 0 113
0 0 113
0 0 113
0 0 113
0 0 113
0 0 113
0 0 113
0 0 113
0 0 113
0 0 113
0 0 113
0 0 113
0 0 113
0 0 113
0 0 113
0 0 113
0 0 113
0 0 113
0 0 113
0 0 113
0 0 113
0 0 113
0 0 113
0 0 113
0 0 113
0 0 113
0 0 113
0 0 113
0 0 113
0 0 113
0 0 113
0 0 113
0 0 113
0 0 113
0 0 113
0 0 113
0 7 113
0 21 116
0 21 116
0 21 116
0 18 116
0 22 119
11 29 122
9 35 125
7 37 124
18 46 130
8 55 134
16 47 133
24 53 142
124 124 150
189 175 164
201 186 169
193 177 164
183 167 159
197 186 175
197 182 173
192 180 164
160 153 134
126 129 102
106 119 75
123 135 95
120 131 86
115 127 80
114 127 81
112 124 79
116 128 86
110 125 78
105 125 75
101 122 65
103 124 75
114 131 85
117 134 88
116 131 82
115 132 85
110 127 78
110 128 78
109 126 74
114 131 86
113 129 84
112 128 82
106 120 70
112 122 80
104 122 74
60 108 106
13 51 131
0 28 121
0 21 116
0 21 116
0 18 116
4 8 114
8 9 113
0 0 113
0 0 113
0 0 113
0 0 113
0 0 113
0 0 113
0 0 113
0 0 113
0 0 113
0 0 113
0 0 113
0 0 113
0 0 113
0 0 113
0 0 113
154 162 193
224 237 255
224 237 255
224 237 255
224 237 255
224 237 255
224 237 255
224 237 255
224 237 255
224 237 255
224 237 255
224 237 255
224 237 255
224 237 255
224 237 255
224 237 255
224 237 255
224 237 255
224 237 255
224 237 255
224 237 255
224 237 255
224 237 255
224 237 255
224 237 255
224 237 255
224 237 255
224 237 255
224 237 255
224 237 255
224 237 255
224 237 255
224 237 255
224 237 255
224 237 255
224 237 255
224 237 255
224 237 255
224 237 255
224 237 255
224 237 255
224 237 255
224 237 255
224 237 255
224 237 255
224 237 255
224 237 255
224 237 255
224 237 255
224 237 255
224 237 255
224 237 255
224 237 255
224 237 255
224 237 255
224 237 255
224 237 255
224 237 255
224 237 255
224 237 255
224 237 255
224 237 255
224 237 255
224 237 255
224 237 255
224 237 255
224 237 255
224 237 255
224 237 255
224 237 255
224 237 255
224 237 255
224 237 255
224 237 255
224 237 255
224 237 255
224 237 255
224 237 255
224 237 255
224 237 255
224 237 255
224 237 255
224 237 255
224 237 255
224 237 255
224 237 255
224 237 255
224 237 255
224 237 255
224 237 255
224 237 255
224 237 255
224 237 255
224 237 255
224 237 255
224 237 255
224 237 255
224 237 255
224 237 255
224 237 255
224 237 255
224 237 255
224 237 255
224 237 255
224 237 255
224 237 255
224 237 255
224 237 255
224 237 255
224 237 255
224 237 255
224 237 255
224 237 255
224 237 255
224 237 255
224 237 255
224 237 255
224 237 255
224 237 255
224 237 255
224 237 255
224 237 255
224 237 255
224 237 255
224 237 255
224 237 255
224 237 255
224 237 255
224 237 255
224 237 255
224 237 255
224 237 255
224 237 255
224 237 255
224 237 255
224 237 255
224 237 255
224 237 255
224 237 255
224 237 255
224 237 255
224 237 255
224 237 255
224 237 255
224 237 255
224 237 255
224 237 255
224 237 255
224 237 255
224 237 255
224 237 255
224 237 255
224 237 255
224 237 255
224 237 255
224 237 255
224 237 255
224 237 255
224 237 255
224 237 255
224 237 255
224 237 255
224 237 255
224 237 255
224 237 255
224 237 255
224 237 255
224 237 255
224 237 255
224 237 255
224 237 255
224 237 255
224 237 255
224 237 255
224 237 255
224 237 255
224 237 255
224 237 255
224 237 255
224 237 255
224 237 255
224 237 255
224 237 255
224 237 255
224 237 255
224 237 255
224 237 255
224 237 255
224 237 255
224 237 255
224 237 255
224 237 255
224 237 255
224 237 255
224 237 255
224 237 255
224 237 255
224 237 255
224 237 255
224 237 255
224 237 255
224 237 255
224 237 255
224 237 255
224 237 255
224 237 255
224 237 255
224 237 255
224 237 255
224 237 255
224 237 255
219 231 250
67 71 132
0 0 113
0 0 113
0 0 113
0 0 113
0 0 113
0 0 113
0 0 113
0 0 113
0 0 113
0 0 113
0 0 113
0 0 113
0 0 113
0 0 113
0 0 113
0 0 113
0 0 113
0 0 113
0 0 113
0 0 113
0 0 113
0 0 113
0 0 113
0 0 113
0 0 113
0 0 113
0 0 113
0 0 113
0 0 113
0 0 113
0 0 113
0 0 113
0 0 113
0 0 113
0 0 113
0 0 113
0 0 113
0 0 113
0 0 113
0 0 113
0 0 113
0 0 113
0 0 113
0 0 113
0 0 113
0 0 113
0 0 113
0 0 113
0 0 113
0 0 113
0 0 113
0 0 113
0 0 113
0 0 113
0 0 113
7 7 113
8 8 113
0 0 113
0 0 113
8 8 113
6 6 113
0 0 113
0 0 113
0 0 113
0 0 113
0 0 113
0 0 113
0 0 113
0 0 113
0 0 113
0 0 113
0 0 113
0 0 113
0 0 113
0 0 113
0 0 113
0 0 113
0 0 113
0 0 113
0 0 113
0 0 113
0 0 113
0 0 113
0 0 113
0 0 113
0 0 113
0 0 113
0 0 113
0 0 113
0 0 113
0 0 113
0 0 113
0 0 113
0 0 113
0 0 113
0 0 113
0 0 113
0 0 113
0 0 113
0 0 113
0 0 113
0 0 113
0 0 113
0 0 113
0 0 113
0 0 113
0 0 113
0 0 113
0 0 113
0 0 113
0 0 113
0 0 113
0 0 113
0 0 113
0 0 113
0 0 113
0 0 113
0 12 114
0 20 117
0 21 117
0 21 116
0 15 116
0 20 119
15 33 124
14 37 126
17 40 128
16 48 133
16 56 133
21 55 133
5 54 132
139 127 147
184 167 154
191 174 156
186 172 157
178 166 157
181 171 162
199 187 176
176 167 150
164 155 139
117 124 93
120 131 94
121 132 90
119 132 91
116 128 84
113 124 79
109 123 74
116 127 88
114 129 89
106 125 76
110 128 82
107 125 75
115 131 84
119 132 89
116 129 84
112 129 83
114 130 86
98 116 53
112 129 81
118 133 94
111 125 79
98 112 56
107 120 76
102 115 74
93 116 78
29 68 134
7 35 124
0 22 118
0 21 116
3 21 116
7 19 116
10 16 116
6 8 114
0 0 113
0 0 113
0 0 113
0 0 113
0 0 113
0 0 113
0 0 113
0 0 113
0 0 113
0 0 113
0 0 113
0 0 113
0 0 113
0 0 113
71 75 134
222 235 253
224 237 255
224 237 255
224 237 255
224 237 255
224 237 255
224 237 255
224 237 255
224 237 255
224 237 255
224 237 255
224 237 255
224 237 255
224 237 255
224 237 255
224 237 255
224 237 255
224 237 255
224 237 255
224 237 255
224 237 255
224 237 255
224 237 255
224 237 255
224 237 255
224 237 255
224 237 255
224 237 255
224 237 255
224 237 255
224 237 255
224 237 255
224 237 255
224 237 255
224 237 255
224 237 255
224 237 255
224 237 255
224 237 255
224 237 255
224 237 255
224 237 255
224 237 255
224 237 255
224 237 255
224 237 255
224 237 255
224 237 255
224 237 255
224 237 255
224 237 255
224 237 255
224 237 255
224 237 255
224 237 255
224 237 255
224 237 255
224 237 255
224 237 255
224 237 255
224 237 255
224 237 255
224 237 255
224 237 255
224 237 255
224 237 255
224 237 255
224 237 255
224 237 255
224 237 255
224 237 255
224 237 255
224 237 255
224 237 255
224 237 255
224 237 255
224 237 255
224 237 255
224 237 255
224 237 255
224 237 255
224 237 255
224 237 255
224 237 255
224 237 255
224 237 255
224 237 255
224 237 255
224 237 255
224 237 255
224 237 255
224 237 255
224 237 255
224 237 255
224 237 255
224 237 255
224 237 255
224 237 255
224 237 255
224 237 255
224 237 255
224 237 255
224 237 255
224 237 255
224 237 255
224 237 255
224 237 255
224 237 255
224 237 255
224 237 255
224 237 255
224 237 255
224 237 255
224 237 255
224 237 255
224 237 255
224 237 255
224 237 255
224 237 255
224 237 255
224 237 255
224 237 255
224 237 255
224 237 255
224 237 255
224 237 255
224 237 255
224 237 255
224 237 255
224 237 255
224 237 255
224 237 255
224 237 255
224 237 255
224 237 255
224 237 255
224 237 255
224 237 255
224 237 255
224 237 255
224 237 255
224 237 255
224 237 255
224 237 255
224 237 255
224 237 255
224 237 255
224 237 255
224 237 255
224 237 255
224 237 255
224 237 255
224 237 255
224 237 255
224 237 255
224 237 255
224 237 255
224 237 255
224 237 255
224 237 255
224 237 255
224 237 255
224 237 255
224 237 255
224 237 255
224 237 255
224 237 255
224 237 255
224 237 255
224 237 255
224 237 255
224 237 255
224 237 255
224 237 255
224 237 255
224 237 255
224 237 255
224 237 255
224 237 255
224 237 255
224 237 255
224 237 255
224 237 255
224 237 255
224 237 255
224 237 255
224 237 255
224 237 255
224 237 255
224 237 255
224 237 255
224 237 255
224 237 255
224 237 255
224 237 255
224 237 255
224 237 255
224 237 255
224 237 255
224 237 255
224 237 255
224 237 255
224 237 255
224 237 255
224 237 255
224 237 255
224 237 255
224 237 255
224 237 255
224 237 255
224 237 255
224 237 255
186 197 221
0 0 113
0 0 113
0 0 113
0 0 113
0 0 113
0 0 113
0 0 113
0 0 113
0 0 113
0 0 113
0 0 113
0 0 113
0 0 113
0 0 113
0 0 113
0 0 113
0 0 113
0 0 113
0 0 113
0 0 113
0 0 113
0 0 113
0 0 113
0 0 113
0 0 113
0 0 113
0 0 113
0 0 113
0 0 113
0 0 113
0 0 113
0 0 113
0 0 113
0 0 113
0 0 113
0 0 113
0 0 113
0 0 113
0 0 113
0 0 113
0 0 113
0 0 113
0 0 113
0 0 113
0 0 113
0 0 113
0 0 113
0 0 113
0 0 113
0 0 113
0 0 113
0 0 113
0 0 113
0 0 113
0 0 113
4 4 113
3 4 113
0 0 113
0 0 113
12 12 114
10 10 113
0 0 113
0 0 113
0 0 113
0 0 113
0 0 113
0 0 113
0 0 112
0 0 113
0 0 113
0 0 113
0 0 113
0 0 113
0 0 113
0 0 113
0 0 113
0 0 113
0 0 113
0 0 113
0 0 113
0 0 113
0 0 113
0 0 113
0 0 113
0 0 113
0 0 113
0 0 113
0 0 113
0 0 113
0 0 113
0 0 113
0 0 113
0 0 113
0 0 113
0 0 113
0 0 113
0 0 113
0 0 113
0 0 113
0 0 113
0 0 113
0 0 113
0 0 113
0 0 113
0 0 113
0 0 113
0 0 113
0 0 113
0 0 113
0 0 113
0 0 113
0 0 113
0 0 113
0 0 113
0 0 113
0 0 113
0 4 115
0 19 116
0 17 118
0 23 119
0 24 118
0 23 118
0 25 121
5 32 124
13 36 126
22 35 126
12 48 129
10 49 128
24 53 136
64 84 143
174 160 153
175 160 138
182 164 146
174 165 152
185 171 164
186 174 164
197 183 171
177 167 149
149 141 118
118 125 89
122 133 93
123 134 92
117 130 85
117 130 86
118 129 88
112 125 82
115 125 86
117 131 93
121 134 95
122 138 100
114 130 89
113 127 82
120 132 91
115 130 85
112 129 83
108 125 75
93 114 50
116 131 90
119 131 93
110 122 79
103 115 66
101 118 65
93 114 55
74 105 110
8 49 130
0 26 120
0 21 116
1 19 116
12 13 116
9 19 116
0 16 116
0 2 113
0 0 113
0 0 113
0 0 113
0 0 113
0 0 113
0 0 113
0 0 113
0 0 113
0 0 113
0 0 113
0 0 113
0 0 113
0 0 113
0 0 113
158 168 197
224 237 255
224 237 255
224 237 255
224 237 255
224 237 255
224 237 255
224 237 255
224 237 255
224 237 255
224 237 255
224 237 255
224 237 255
224 237 255
224 237 255
224 237 255
224 237 255
224 237 255
224 237 255
224 237 255
224 237 255
224 237 255
224 237 255
224 237 255
224 237 255
224 237 255
224 237 255
224 237 255
224 237 255
224 237 255
224 237 255
224 237 255
224 237 255
224 237 255
224 237 255
224 237 255
224 237 255
224 237 255
224 237 255
224 237 255
224 237 255
224 237 255
224 237 255
224 237 255
224 237 255
224 237 255
224 237 255
224 237 255
224 237 255
224 237 255
224 237 255
224 237 255
224 237 255
224 237 255
224 237 255
224 237 255
224 237 255
224 237 255
224 237 255
224 237 255
224 237 255
224 237 255
224 237 255
224 237 255
224 237 255
224 237 255
224 237 255
224 237 255
224 237 255
224 237 255
224 237 255
224 237 255
224 237 255
224 237 255
224 237 255
224 237 255
224 237 255
224 237 255
224 237 255
224 237 255
224 237 255
224 237 255
224 237 255
224 237 255
224 237 255
224 237 255
224 237 255
224 237 255
224 237 255
224 237 255
224 237 255
224 237 255
224 237 255
224 237 255
224 237 255
224 237 255
224 237 255
224 237 255
224 237 255
224 237 255
224 237 255
224 237 255
224 237 255
224 237 255
224 237 255
224 237 255
224 237 255
224 237 255
224 237 255
224 237 255
224 237 255
224 237 255
224 237 255
224 237 255
224 237 255
224 237 255
224 237 255
224 237 255
224 237 255
224 237 255
224 237 255
224 237 255
224 237 255
224 237 255
224 237 255
224 237 255
224 237 255
224 237 255
224 237 255
224 237 255
224 237 255
224 237 255
224 237 255
224 237 255
224 237 255
224 237 255
224 237 255
224 237 255
224 237 255
224 237 255
224 237 255
224 237 255
224 237 255
224 237 255
224 237 255
224 237 255
224 237 255
224 237 255
224 237 255
224 237 255
224 237 255
224 237 255
224 237 255
224 237 255
224 237 255
224 237 255
224 237 255
224 237 255
224 237 255
224 237 255
224 237 255
224 237 255
224 237 255
224 237 255
224 237 255
224 237 255
224 237 255
224 237 255
224 237 255
224 237 255
224 237 255
224 237 255
224 237 255
224 237 255
224 237 255
224 237 255
224 237 255
224 237 255
224 237 255
224 237 255
224 237 255
224 237 255
224 237 255
224 237 255
224 237 255
224 237 255
224 237 255
224 237 255
224 237 255
224 237 255
224 237 255
224 237 255
224 237 255
224 237 255
224 237 255
224 237 255
224 237 255
224 237 255
224 237 255
224 237 255
224 237 255
224 237 255
224 237 255
224 237 255
224 237 255
224 237 255
224 237 255
224 237 255
224 237 255
224 237 255
224 237 255
224 237 255
224 237 255
224 237 255
89 95 145
0 0 113
0 0 113
0 0 113
0 0 113
0 0 113
0 0 113
0 0 113
0 0 113
0 0 113
0 0 113
0 0 113
0 0 113
0 0 113
0 0 112
0 0 113
0 0 113
0 0 113
0 0 113
0 0 113
0 0 113
0 0 113
0 0 113
0 0 113
0 0 113
0 0 113
0 0 113
0 0 113
0 0 113
0 0 113
0 0 113
0 0 113
0 0 113
0 0 113
0 0 113
0 0 113
0 0 113
0 0 113
0 0 113
0 0 113
0 0 113
0 0 113
0 0 113
0 0 113
0 0 113
0 0 113
0 0 113
0 0 113
0 0 113
0 0 113
0 0 113
0 0 113
0 0 113
0 0 113
0 0 113
8 8 113
5 6 113
0 0 112
0 0 113
0 0 113
9 9 113
0 0 113
0 0 113
0 0 113
0 0 113
0 0 113
0 0 113
0 0 113
0 0 113
0 0 113
0 0 113
0 0 113
0 0 113
0 0 113
0 0 113
0 0 113
0 0 113
0 0 113
0 0 113
0 0 113
0 0 113
0 0 113
0 0 113
0 0 113
0 0 113
0 0 113
0 0 113
0 0 113
0 0 113
0 0 113
0 0 113
0 0 113
0 0 113
0 0 113
0 0 113
0 0 113
0 0 113
0 0 113
0 0 113
0 0 113
0 0 113
0 0 113
0 0 113
0 0 113
0 0 113
0 0 113
0 0 113
0 0 113
0 0 113
0 0 113
0 0 113
0 0 113
0 0 113
0 0 112
0 0 113
0 0 113
0 11 115
3 19 117
6 25 119
12 29 121
12 30 121
11 31 122
11 30 123
7 29 122
0 32 123
14 32 124
0 45 126
19 54 132
14 49 138
106 105 135
180 168 148
183 172 154
195 182 171
183 175 167
188 176 171
197 189 181
194 182 170
178 170 150
144 145 117
120 132 91
127 139 102
115 129 85
115 129 85
115 128 86
121 133 97
126 134 100
128 138 104
122 136 98
117 130 90
116 130 90
114 128 84
113 126 83
117 131 94
117 133 88
107 124 74
102 119 65
105 123 70
114 127 84
114 126 83
111 123 79
108 120 75
99 118 58
97 119 68
55 92 130
7 34 123
5 19 116
4 20 116
0 14 115
8 11 116
1 14 118
0 3 115
0 0 113
5 0 113
0 0 113
0 0 113
0 0 113
0 0 113
0 0 113
0 0 113
0 0 113
0 0 113
0 0 113
0 0 113
0 0 113
0 0 113
123 130 169
224 237 255
224 237 255
224 237 255
224 237 255
224 237 255
224 237 255
224 237 255
224 237 255
224 237 255
224 237 255
224 237 255
224 237 255
224 237 255
224 237 255
224 237 255
224 237 255
224 237 255
224 237 255
224 237 255
224 237 255
224 237 255
224 237 255
224 237 255
224 237 255
224 237 255
224 237 255
224 237 255
224 237 255
224 237 255
224 237 255
224 237 255
224 237 255
224 237 255
224 237 255
224 237 255
224 237 255
224 237 255
224 237 255
224 237 255
224 237 255
224 237 255
224 237 255
224 237 255
224 237 255
224 237 255
224 237 255
224 237 255
224 237 255
224 237 255
224 237 255
224 237 255
224 237 255
224 237 255
224 237 255
224 237 255
224 237 255
224 237 255
224 237 255
224 237 255
224 237 255
224 237 255
224 237 255
224 237 255
224 237 255
224 237 255
224 237 255
224 237 255
224 237 255
224 237 255
224 237 255
224 237 255
224 237 255
224 237 255
224 237 255
224 237 255
224 237 255
224 237 255
224 237 255
224 237 255
224 237 255
224 237 255
224 237 255
224 237 255
224 237 255
224 237 255
224 237 255
224 237 255
224 237 255
224 237 255
224 237 255
224 237 255
224 237 255
224 237 255
224 237 255
224 237 255
224 237 255
224 237 255
224 237 255
224 237 255
224 237 255
224 237 255
224 237 255
224 237 255
224 237 255
224 237 255
224 237 255
224 237 255
224 237 255
224 237 255
224 237 255
224 237 255
224 237 255
224 237 255
224 237 255
224 237 255
224 237 255
224 237 255
224 237 255
224 237 255
224 237 255
224 237 255
224 237 255
224 237 255
224 237 255
224 237 255
224 237 255
224 237 255
224 237 255
224 237 255
224 237 255
224 237 255
224 237 255
224 237 255
224 237 255
224 237 255
224 237 255
224 237 255
224 237 255
224 237 255
224 237 255
224 237 255
224 237 255
224 237 255
224 237 255
224 237 255
224 237 255
224 237 255
224 237 255
224 237 255
224 237 255
224 237 255
224 237 255
224 237 255
224 237 255
224 237 255
224 237 255
224 237 255
224 237 255
224 237 255
224 237 255
224 237 255
224 237 255
224 237 255
224 237 255
224 237 255
224 237 255
224 237 255
224 237 255
224 237 255
224 237 255
224 237 255
224 237 255
224 237 255
224 237 255
224 237 255
224 237 255
224 237 255
224 237 255
224 237 255
224 237 255
224 237 255
224 237 255
224 237 255
224 237 255
224 237 255
224 237 255
224 237 255
224 237 255
224 237 255
224 237 255
224 237 255
224 237 255
224 237 255
224 237 255
224 237 255
224 237 255
224 237 255
224 237 255
224 237 255
224 237 255
224 237 255
224 237 255
224 237 255
224 237 255
224 237 255
224 237 255
224 237 255
224 237 255
224 237 255
224 237 255
224 237 255
224 237 255
224 237 255
224 237 255
210 223 243
22 23 115
0 0 113
0 0 113
0 0 113
0 0 113
0 0 113
0 0 113
0 0 113
0 0 113
0 0 113
0 0 113
0 0 113
0 0 113
0 0 113
0 0 113
0 0 113
0 0 113
0 0 113
0 0 113
0 0 113
0 0 113
0 0 113
0 0 113
0 0 113
0 0 113
0 0 113
0 0 113
0 0 113
0 0 113
0 0 113
0 0 113
0 0 113
0 0 112
0 0 113
0 0 113
0 0 113
0 0 113
0 0 113
0 0 113
0 0 113
0 0 113
0 0 113
0 0 113
0 0 113
0 0 113
0 0 113
0 0 113
0 0 113
0 0 113
0 0 113
0 0 113
0 0 113
0 0 113
0 0 113
7 7 113
18 19 115
11 12 114
0 0 113
0 0 112
0 0 112
0 0 113
0 0 113
0 0 113
0 0 113
0 0 113
0 0 113
0 0 113
0 0 113
0 0 113
0 0 113
0 0 113
0 0 113
0 0 113
0 0 113
0 0 113
0 0 113
0 0 113
0 0 113
0 0 113
0 0 113
0 0 113
0 0 113
0 0 113
0 0 113
0 0 113
0 0 113
0 0 113
0 0 113
0 0 113
0 0 113
0 0 113
0 0 113
0 0 113
0 0 113
0 0 113
0 0 113
0 0 113
0 0 113
0 0 113
0 0 113
0 0 113
0 0 113
0 0 113
0 0 113
0 0 113
0 0 113
0 0 113
0 0 113
0 0 113
0 0 113
0 0 113
0 0 113
0 0 113
0 0 113
0 4 115
0 18 116
8 22 119
16 30 121
17 32 123
8 34 124
13 37 125
0 37 125
2 34 124
9 40 126
16 44 128
4 46 127
17 56 134
55 68 142
154 149 150
185 171 156
176 162 148
190 180 174
185 181 176
183 176 166
187 181 172
183 177 159
163 158 133
114 131 89
130 142 107
125 135 95
121 133 91
117 130 90
119 131 93
130 138 106
134 141 111
121 134 95
115 132 89
121 134 93
115 129 89
116 128 85
111 125 82
113 127 83
115 129 80
108 124 73
116 132 87
119 135 92
123 139 97
118 131 89
114 126 84
112 121 76
101 115 71
88 113 76
19 50 131
7 22 117
8 18 115
3 21 116
9 10 115
4 6 115
11 14 116
5 10 114
0 0 113
5 0 113
0 0 113
0 0 113
0 0 113
0 0 113
0 0 113
0 0 113
0 0 113
0 0 113
0 0 113
0 0 113
0 0 113
22 23 115
204 216 237
224 237 255
224 237 255
224 237 255
224 237 255
224 237 255
224 237 255
224 237 255
224 237 255
224 237 255
224 237 255
224 237 255
224 237 255
224 237 255
224 237 255
224 237 255
224 237 255
224 237 255
224 237 255
224 237 255
224 237 255
224 237 255
224 237 255
224 237 255
224 237 255
224 237 255
224 237 255
224 237 255
224 237 255
224 237 255
224 237 255
224 237 255
224 237 255
224 237 255
224 237 255
224 237 255
224 237 255
224 237 255
224 237 255
224 237 255
224 237 255
224 237 255
224 237 255
224 237 255
224 237 255
224 237 255
224 237 255
224 237 255
224 237 255
224 237 255
224 237 255
224 237 255
224 237 255
224 237 255
224 237 255
224 237 255
224 237 255
224 237 255
224 237 255
224 237 255
224 237 255
224 237 255
224 237 255
224 237 255
224 237 255
224 237 255
224 237 255
224 237 255
224 237 255
224 237 255
224 237 255
224 237 255
224 237 255
224 237 255
224 237 255
224 237 255
224 237 255
224 237 255
224 237 255
224 237 255
224 237 255
224 237 255
224 237 255
224 237 255
224 237 255
224 237 255
224 237 255
224 237 255
224 237 255
224 237 255
224 237 255
224 237 255
224 237 255
224 237 255
224 237 255
224 237 255
224 237 255
224 237 255
224 237 255
224 237 255
224 237 255
224 237 255
224 237 255
224 237 255
224 237 255
224 237 255
224 237 255
224 237 255
224 237 255
224 237 255
224 237 255
224 237 255
224 237 255
224 237 255
224 237 255
224 237 255
224 237 255
224 237 255
224 237 255
224 237 255
224 237 255
224 237 255
224 237 255
224 237 255
224 237 255
224 237 255
224 237 255
224 237 255
224 237 255
224 237 255
224 237 255
224 237 255
224 237 255
224 237 255
224 237 255
224 237 255
224 237 255
224 237 255
224 237 255
224 237 255
224 237 255
224 237 255
224 237 255
224 237 255
224 237 255
224 237 255
224 237 255
224 237 255
224 237 255
224 237 255
224 237 255
224 237 255
224 237 255
224 237 255
224 237 255
224 237 255
224 237 255
224 237 255
224 237 255
224 237 255
224 237 255
224 237 255
224 237 255
224 237 255
224 237 255
224 237 255
224 237 255
224 237 255
224 237 255
224 237 255
224 237 255
224 237 255
224 237 255
224 237 255
224 237 255
224 237 255
224 237 255
224 237 255
224 237 255
224 237 255
224 237 255
224 237 255
224 237 255
224 237 255
224 237 255
224 237 255
224 237 255
224 237 255
224 237 255
224 237 255
224 237 255
224 237 255
224 237 255
224 237 255
224 237 255
224 237 255
224 237 255
224 237 255
224 237 255
224 237 255
224 237 255
224 237 255
224 237 255
224 237 255
224 237 255
224 237 255
224 237 255
224 237 255
224 237 255
224 237 255
224 237 255
224 237 255
224 237 255
224 237 255
224 237 255
224 237 255
157 166 196
0 0 113
0 0 113
0 0 113
0 0 113
0 0 113
0 0 113
0 0 113
0 0 113
0 0 113
0 0 113
0 0 113
0 0 113
0 0 113
0 0 113
0 0 113
0 0 113
0 0 113
0 0 113
0 0 113
0 0 113
0 0 113
0 0 113
0 0 113
0 0 113
0 0 113
0 0 113
0 0 113
0 0 113
0 0 113
0 0 113
0 0 113
0 0 113
0 0 113
0 0 113
0 0 113
0 0 113
0 0 113
0 0 113
0 0 113
0 0 113
0 0 113
0 0 113
0 0 113
0 0 113
0 0 113
0 0 113
0 0 113
0 0 113
0 0 113
0 0 113
0 0 113
0 0 113
0 0 113
0 0 113
16 17 114
12 12 114
0 0 113
0 0 112
0 0 112
0 0 113
0 0 113
0 0 113
0 0 113
0 0 113
0 0 113
0 0 113
0 0 113
0 0 113
0 0 113
0 0 113
0 0 113
0 0 113
0 0 113
0 0 113
0 0 112
0 0 113
0 0 113
0 0 113
0 0 113
0 0 113
0 0 113
0 0 113
0 0 113
0 0 113
0 0 113
0 0 113
0 0 113
0 0 113
0 0 113
0 0 113
0 0 113
0 0 113
0 0 113
0 0 113
0 0 113
0 0 113
0 0 113
0 0 113
0 0 113
0 0 113
0 0 113
0 0 113
0 0 113
0 0 113
0 0 113
0 0 113
0 0 113
0 0 113
0 0 113
0 0 113
0 0 113
0 0 113
0 7 114
0 16 115
9 21 118
14 28 120
16 32 122
8 35 124
8 41 126
13 45 128
8 47 131
11 51 133
8 54 134
27 59 137
17 59 136
10 57 136
105 106 146
190 183 166
177 166 152
181 170 163
194 189 187
183 173 166
181 174 163
163 155 136
171 162 141
133 137 103
118 133 94
128 138 100
129 139 104
126 135 97
120 130 91
127 136 101
130 136 106
127 135 100
107 125 76
110 130 82
118 131 90
119 130 88
102 116 63
96 109 54
117 129 85
123 134 90
123 137 94
120 138 92
121 142 92
120 140 96
121 131 94
123 131 96
113 122 78
102 122 82
56 80 126
14 30 121
10 24 117
0 21 116
7 20 116
6 12 115
2 15 116
5 20 116
0 15 115
0 0 113
0 0 112
0 0 113
0 0 113
0 0 113
0 0 113
0 0 113
0 0 113
0 0 113
0 0 112
0 0 113
0 0 113
3 3 113
155 164 195
224 237 255
224 237 255
224 237 255
224 237 255
224 237 255
224 237 255
224 237 255
224 237 255
224 237 255
224 237 255
224 237 255
224 237 255
224 237 255
224 237 255
224 237 255
224 237 255
224 237 255
224 237 255
224 237 255
224 237 255
224 237 255
224 237 255
224 237 255
224 237 255
224 237 255
224 237 255
224 237 255
224 237 255
224 237 255
224 237 255
224 237 255
224 237 255
224 237 255
224 237 255
224 237 255
224 237 255
224 237 255
224 237 255
224 237 255
224 237 255
224 237 255
224 237 255
224 237 255
224 237 255
224 237 255
224 237 255
224 237 255
224 237 255
224 237 255
224 237 255
224 237 255
224 237 255
224 237 255
224 237 255
224 237 255
224 237 255
224 237 255
224 237 255
224 237 255
224 237 255
224 237 255
224 237 255
224 237 255
224 237 255
224 237 255
224 237 255
224 237 255
224 237 255
224 237 255
224 237 255
224 237 255
224 237 255
224 237 255
224 237 255
224 237 255
224 237 255
224 237 255
224 237 255
224 237 255
224 237 255
224 237 255
224 237 255
224 237 255
224 237 255
224 237 255
224 237 255
224 237 255
224 237 255
224 237 255
224 237 255
224 237 255
224 237 255
224 237 255
224 237 255
224 237 255
224 237 255
224 237 255
224 237 255
224 237 255
224 237 255
224 237 255
224 237 255
224 237 255
224 237 255
224 237 255
224 237 255
224 237 255
224 237 255
224 237 255
224 237 255
224 237 255
224 237 255
224 237 255
224 237 255
224 237 255
224 237 255
224 237 255
224 237 255
224 237 255
224 237 255
224 237 255
224 237 255
224 237 255
224 237 255
224 237 255
224 237 255
224 237 255
224 237 255
224 237 255
224 237 255
224 237 255
224 237 255
224 237 255
224 237 255
224 237 255
224 237 255
224 237 255
224 237 255
224 237 255
224 237 255
224 237 255
224 237 255
224 237 255
224 237 255
224 237 255
224 237 255
224 237 255
224 237 255
224 237 255
224 237 255
224 237 255
224 237 255
224 237 255
224 237 255
224 237 255
224 237 255
224 237 255
224 237 255
224 237 255
224 237 255
224 237 255
224 237 255
224 237 255
224 237 255
224 237 255
224 237 255
224 237 255
224 237 255
224 237 255
224 237 255
224 237 255
224 237 255
224 237 255
224 237 255
224 237 255
224 237 255
224 237 255
224 237 255
224 237 255
224 237 255
224 237 255
224 237 255
224 237 255
224 237 255
224 237 255
224 237 255
224 237 255
224 237 255
224 237 255
224 237 255
224 237 255
224 237 255
224 237 255
224 237 255
224 237 255
224 237 255
224 237 255
224 237 255
224 237 255
224 237 255
224 237 255
224 237 255
224 237 255
224 237 255
224 237 255
224 237 255
224 237 255
224 237 255
224 237 255
224 237 255
224 237 255
224 237 255
224 237 255
224 237 255
224 237 255
224 237 255
219 231 250
74 78 136
0 0 113
0 0 113
0 0 113
0 0 113
0 0 113
0 0 113
0 0 113
0 0 113
0 0 113
0 0 113
0 0 113
0 0 113
0 0 113
0 0 113
0 0 113
0 0 113
0 0 113
0 0 113
0 0 113
0 0 113
0 0 113
0 0 113
0 0 113
0 0 113
0 0 113
0 0 113
0 0 113
0 0 113
0 0 113
0 0 113
0 0 113
0 0 113
0 0 113
0 0 113
0 0 112
0 0 113
0 0 113
0 0 113
0 0 113
0 0 113
0 0 113
0 0 113
0 0 113
0 0 113
0 0 113
0 0 113
0 0 113
0 0 113
0 0 113
0 0 113
0 0 113
0 0 113
0 0 113
1 1 113
1 1 113
0 0 112
0 0 113
0 0 113
0 0 113
0 0 113
0 0 113
0 0 113
0 0 113
0 0 113
0 0 113
0 0 113
0 0 113
0 0 113
0 0 113
0 0 113
0 0 113
0 0 113
0 0 113
0 0 113
0 0 113
0 0 113
0 0 113
0 0 113
0 0 113
0 0 113
0 0 113
0 0 113
0 0 113
0 0 113
0 0 113
0 0 112
0 0 113
0 0 113
0 0 113
0 0 113
0 0 113
0 0 113
0 0 113
0 0 113
0 0 113
0 0 113
0 0 113
0 0 113
0 0 113
0 0 113
0 0 113
0 0 113
0 0 113
0 0 113
0 0 113
0 0 113
0 0 113
0 0 113
0 0 112
0 0 113
0 0 113
0 16 115
5 21 117
9 23 119
16 31 121
10 33 124
2 35 124
4 37 125
5 42 129
11 50 133
6 57 137
6 58 138
9 53 137
23 63 140
42 61 136
149 145 151
187 177 161
176 171 158
189 182 178
179 174 166
169 155 142
167 158 142
194 182 170
187 180 165
125 132 92
126 137 104
127 134 104
134 141 110
122 133 94
122 133 97
132 138 109
127 136 104
100 114 62
106 122 76
117 132 91
118 129 88
111 123 79
108 118 73
116 123 81
129 136 97
134 142 104
130 143 102
127 144 101
119 139 94
111 129 87
105 121 79
112 121 88
99 117 85
59 82 130
19 37 122
13 25 117
0 21 116
0 21 116
0 21 116
0 21 116
0 21 116
0 21 116
0 13 114
0 0 113
0 0 113
0 0 113
0 0 113
0 0 113
0 0 113
0 0 113
0 0 113
0 0 113
0 0 113
0 0 113
1 1 113
77 82 138
219 231 250
224 237 255
224 237 255
224 237 255
224 237 255
224 237 255
224 237 255
224 237 255
224 237 255
224 237 255
224 237 255
224 237 255
224 237 255
224 237 255
224 237 255
224 237 255
224 237 255
224 237 255
224 237 255
224 237 255
224 237 255
224 237 255
224 237 255
224 237 255
224 237 255
224 237 255
224 237 255
224 237 255
224 237 255
224 237 255
224 237 255
224 237 255
224 237 255
224 237 255
224 237 255
224 237 255
224 237 255
224 237 255
224 237 255
224 237 255
224 237 255
224 237 255
224 237 255
224 237 255
224 237 255
224 237 255
224 237 255
224 237 255
224 237 255
224 237 255
224 237 255
224 237 255
224 237 255
224 237 255
224 237 255
224 237 255
224 237 255
224 237 255
224 237 255
224 237 255
224 237 255
224 237 255
224 237 255
224 237 255
224 237 255
224 237 255
224 237 255
224 237 255
224 237 255
224 237 255
224 237 255
224 237 255
224 237 255
224 237 255
224 237 255
224 237 255
224 237 255
224 237 255
224 237 255
224 237 255
224 237 255
224 237 255
224 237 255
224 237 255
224 237 255
224 237 255
224 237 255
224 237 255
224 237 255
224 237 255
224 237 255
224 237 255
224 237 255
224 237 255
224 237 255
224 237 255
224 237 255
224 237 255
224 237 255
224 237 255
224 237 255
224 237 255
224 237 255
224 237 255
224 237 255
224 237 255
224 237 255
224 237 255
224 237 255
224 237 255
224 237 255
224 237 255
224 237 255
224 237 255
224 237 255
224 237 255
224 237 255
224 237 255
224 237 255
224 237 255
224 237 255
224 237 255
224 237 255
224 237 255
224 237 255
224 237 255
224 237 255
224 237 255
224 237 255
224 237 255
224 237 255
224 237 255
224 237 255
224 237 255
224 237 255
224 237 255
224 237 255
224 237 255
224 237 255
224 237 255
224 237 255
224 237 255
224 237 255
224 237 255
224 237 255
224 237 255
224 237 255
224 237 255
224 237 255
224 237 255
224 237 255
224 237 255
224 237 255
224 237 255
224 237 255
224 237 255
224 237 255
224 237 255
224 237 255
224 237 255
224 237 255
224 237 255
224 237 255
224 237 255
224 237 255
224 237 255
224 237 255
225 237 255
225 237 255
225 237 255
225 237 255
225 237 255
225 237 255
225 237 255
225 237 255
225 237 255
225 237 255
225 237 255
225 237 255
225 237 255
225 237 255
225 237 255
225 237 255
225 237 255
225 237 255
225 237 255
225 237 255
225 237 255
225 237 255
225 237 255
225 237 255
225 237 255
225 237 255
225 237 255
225 237 255
225 237 255
225 237 255
225 237 255
225 237 255
225 237 255
225 237 255
225 237 255
225 237 255
225 237 255
225 237 255
225 237 255
225 237 255
225 237 255
225 237 255
225 237 255
225 237 255
225 237 255
225 237 255
225 237 255
225 237 255
225 237 255
225 237 255
225 237 255
193 204 227
0 0 113
0 0 113
0 0 113
0 0 113
0 0 113
0 0 113
0 0 113
0 0 113
0 0 113
0 0 113
0 0 113
0 0 113
0 0 113
0 0 113
0 0 113
0 0 113
0 0 113
0 0 113
0 0 113
0 0 113
0 0 113
0 0 113
0 0 113
0 0 113
0 0 113
0 0 113
0 0 113
0 0 113
0 0 113
0 0 113
0 0 113
0 0 113
0 0 113
0 0 113
0 0 113
0 0 113
0 0 113
0 0 113
0 0 113
0 0 113
0 0 113
0 0 113
0 0 113
0 0 113
0 0 113
0 0 113
0 0 113
0 0 113
0 0 113
0 0 113
0 0 113
0 0 113
0 0 113
0 0 113
0 0 113
0 0 113
0 0 113
0 0 113
0 0 113
0 0 113
0 0 113
0 0 113
0 0 113
0 0 113
0 0 113
0 0 113
0 0 113
0 0 113
0 0 113
0 0 113
0 0 113
0 0 113
0 0 113
0 0 113
0 0 113
0 0 113
0 0 113
0 0 113
0 0 113
0 0 113
0 0 112
0 0 113
0 0 113
0 0 113
0 0 113
0 0 113
0 0 113
0 0 113
0 0 113
0 0 113
0 0 113
0 0 113
0 0 113
0 0 113
0 0 113
0 0 113
0 0 113
0 0 113
0 0 113
0 0 113
0 0 113
0 0 113
0 0 113
0 0 113
0 0 113
0 0 113
0 0 113
0 0 113
0 11 114
0 20 116
0 20 115
14 22 116
10 23 117
1 21 117
0 24 119
6 27 120
15 30 123
21 32 124
13 36 125
9 44 128
9 51 132
8 55 134
21 55 138
12 60 139
82 83 129
164 155 140
179 167 152
189 181 175
182 169 160
169 160 145
170 155 142
164 158 141
175 165 154
143 144 119
124 133 99
120 133 98
133 139 105
129 136 102
120 132 94
128 139 103
136 143 112
128 136 101
109 123 79
124 138 101
121 133 92
125 134 99
128 137 102
125 130 93
130 135 99
139 143 106
133 139 100
130 140 100
121 137 92
110 123 78
113 126 73
106 122 66
97 117 80
55 81 132
19 40 129
10 22 117
6 22 116
0 21 116
0 21 116
2 21 116
1 21 116
0 21 116
0 21 116
0 10 114
0 0 113
0 0 113
0 0 113
0 0 113
2 0 113
0 0 113
0 0 113
0 0 113
0 0 113
0 0 113
0 0 113
0 0 113
196 207 229
225 237 255
225 237 255
225 237 255
225 237 255
225 237 255
225 237 255
225 237 255
225 237 255
225 237 255
225 237 255
225 237 255
225 237 255
225 237 255
225 237 255
225 237 255
225 237 255
225 237 255
225 237 255
225 237 255
225 237 255
225 237 255
225 237 255
225 237 255
225 237 255
225 237 255
225 237 255
225 237 255
225 237 255
225 237 255
225 237 255
225 237 255
225 237 255
225 237 255
225 237 255
225 237 255
225 237 255
225 237 255
225 237 255
225 237 255
225 237 255
225 237 255
225 237 255
225 237 255
225 237 255
225 237 255
225 237 255
225 237 255
225 237 255
225 237 255
225 237 255
225 237 255
224 237 255
224 237 255
224 237 255
224 237 255
224 237 255
224 237 255
224 237 255
224 237 255
224 237 255
224 237 255
224 237 255
224 237 255
224 237 255
224 237 255
224 237 255
224 237 255
224 237 255
224 237 255
224 237 255
224 237 255
224 237 255
224 237 255
224 237 255
224 237 255
224 237 255
224 237 255
224 237 255
224 237 255
224 237 255
224 237 255
224 237 255
224 237 255
224 237 255
224 237 255
224 237 255
224 237 255
224 237 255
224 237 255
224 237 255
224 237 255
224 237 255
224 237 255
224 237 255
224 237 255
224 237 255
224 237 255
224 237 255
224 237 255
224 237 255
224 237 255
224 237 255
224 237 255
224 237 255
224 237 255
224 237 255
224 237 255
224 237 255
224 237 255
224 237 255
224 237 255
224 237 255
224 237 255
224 237 255
224 237 255
224 237 255
224 237 255
224 237 255
224 237 255
224 237 255
224 237 255
225 237 255
225 237 255
224 237 255
225 237 255
225 237 255
225 237 255
225 237 255
225 237 255
225 237 255
225 237 255
225 237 255
225 237 255
225 237 255
225 237 255
225 237 255
225 237 255
225 237 255
225 237 255
225 237 255
225 237 255
225 237 255
225 237 255
225 237 255
225 237 255
225 237 255
225 237 255
225 237 255
225 237 255
225 237 255
225 237 255
225 237 255
225 237 255
225 237 255
225 237 255
225 237 255
225 237 255
225 237 255
225 237 255
225 237 255
225 237 255
225 237 255
225 237 255
225 237 255
225 237 255
225 237 255
225 237 255
225 237 255
225 237 255
225 237 255
225 237 255
225 237 255
225 237 255
225 237 255
225 237 255
225 237 255
225 237 255
225 237 255
225 237 255
225 237 255
225 237 255
225 237 255
225 237 255
225 237 255
225 237 255
225 237 255
225 237 255
225 237 255
225 237 255
225 237 255
225 237 255
225 237 255
225 237 255
225 237 255
225 237 255
225 237 255
225 237 255
225 237 255
225 237 255
225 237 255
225 237 255
225 237 255
225 237 255
225 237 255
225 237 255
225 237 255
225 237 255
225 237 255
225 237 255
225 237 255
225 237 255
225 237 255
225 237 255
225 237 255
225 237 255
225 237 255
225 237 255
225 237 255
225 237 255
145 154 187
0 0 112
0 0 113
0 0 113
0 0 113
0 0 113
0 0 113
0 0 113
0 0 113
0 0 113
0 0 113
0 0 113
0 0 113
0 0 113
0 0 113
0 0 113
0 0 113
0 0 113
0 0 113
0 0 113
0 0 113
0 0 113
0 0 113
0 0 113
0 0 113
0 0 113
0 0 113
0 0 113
0 0 113
0 0 113
0 0 113
0 0 113
0 0 113
0 0 113
0 0 113
0 0 113
0 0 113
0 0 113
0 0 113
0 0 113
0 0 113
0 0 113
0 0 113
0 0 112
0 0 113
0 0 113
0 0 113
0 0 113
0 0 113
0 0 113
0 0 113
0 0 113
0 0 113
0 0 113
0 0 113
0 0 113
0 0 113
0 0 112
0 0 113
0 0 113
0 0 113
0 0 113
0 0 113
0 0 113
0 0 113
0 0 113
0 0 112
0 0 113
0 0 113
0 0 113
0 0 113
0 0 113
0 0 113
0 0 113
0 0 113
0 0 113
0 0 113
0 0 113
0 0 113
0 0 113
0 0 113
0 0 113
0 0 113
0 0 113
0 0 113
0 0 113
0 0 113
0 0 113
0 0 113
0 0 113
0 0 113
0 0 113
0 0 113
0 0 113
0 0 113
0 0 113
0 0 113
0 0 113
0 0 113
0 0 113
0 0 113
0 0 113
0 0 113
0 0 113
0 0 113
0 0 113
0 0 113
0 0 113
0 14 114
0 21 116
0 21 116
6 22 116
0 21 116
0 22 118
2 25 119
4 31 122
15 34 124
7 36 124
9 42 127
8 49 131
14 55 135
25 59 141
21 55 136
47 67 142
140 141 135
179 167 150
187 178 172
192 186 179
168 161 145
168 158 143
161 152 129
157 152 132
137 138 115
147 145 127
127 135 101
136 141 103
139 143 111
126 132 99
110 123 84
119 131 92
133 140 106
121 129 91
124 136 101
121 134 95
120 130 89
135 143 110
130 136 99
132 135 100
132 136 98
134 140 104
133 139 99
128 137 94
123 133 89
123 132 88
116 137 91
112 139 114
66 95 131
10 42 126
16 26 117
0 20 116
12 24 117
3 21 116
0 21 116
12 25 117
3 21 116
0 21 117
0 21 116
5 15 115
9 10 115
2 5 114
4 5 115
3 0 114
5 0 113
0 0 113
0 0 113
0 0 113
0 0 113
0 0 113
0 0 113
142 150 184
225 237 255
225 237 255
225 237 255
225 237 255
225 237 255
225 237 255
225 237 255
225 237 255
225 237 255
225 237 255
225 237 255
225 237 255
225 237 255
225 237 255
225 237 255
225 237 255
225 237 255
225 237 255
225 237 255
225 237 255
225 237 255
225 237 255
225 237 255
225 237 255
225 237 255
225 237 255
225 237 255
225 237 255
225 237 255
225 237 255
225 237 255
225 237 255
225 237 255
225 237 255
225 237 255
225 237 255
225 237 255
225 237 255
225 237 255
225 237 255
225 237 255
225 237 255
225 237 255
225 237 255
225 237 255
225 237 255
225 237 255
225 237 255
225 237 255
225 237 255
225 237 255
225 237 255
225 237 255
225 237 255
225 237 255
225 237 255
225 237 255
225 237 255
225 237 255
225 237 255
225 237 255
225 237 255
225 237 255
225 237 255
225 237 255
225 237 255
225 237 255
225 237 255
225 237 255
225 237 255
225 237 255
225 237 255
225 237 255
225 237 255
225 237 255
225 237 255
225 237 255
225 237 255
225 237 255
225 237 255
225 237 255
225 237 255
225 237 255
225 237 255
225 237 255
225 237 255
225 237 255
225 237 255
225 237 255
225 237 255
225 237 255
225 237 255
225 237 255
225 237 255
225 237 255
225 237 255
225 237 255
224 237 255
224 237 255
224 237 255
224 237 255
224 237 255
224 237 255
224 237 255
224 237 255
224 237 255
224 237 255
224 237 255
224 237 255
224 237 255
225 237 255
225 237 255
225 237 255
225 237 255
225 237 255
225 237 255
225 237 255
225 237 255
225 237 255
225 237 255
225 237 255
225 237 255
225 237 255
225 237 255
225 237 255
225 237 255
225 237 255
225 237 255
225 237 255
225 237 255
225 237 255
225 237 255
225 237 255
225 237 255
225 237 255
225 237 255
225 237 255
225 237 255
225 237 255
225 237 255
225 237 255
225 237 255
225 237 255
225 237 255
225 237 255
225 237 255
225 237 255
225 237 255
225 237 255
225 237 255
225 237 255
225 237 255
225 237 255
225 237 255
225 237 255
225 237 255
225 237 255
225 237 255
225 237 255
225 237 255
225 237 255
225 237 255
225 237 255
225 237 255
225 237 255
225 237 255
225 237 255
225 237 255
225 237 255
225 237 255
225 237 255
225 237 255
225 237 255
225 237 255
225 237 255
225 237 255
225 237 255
225 237 255
225 237 255
225 237 255
225 237 255
225 237 255
225 237 255
225 237 255
225 237 255
225 237 255
225 237 255
225 237 255
225 237 255
225 237 255
225 237 255
225 237 255
225 237 255
225 237 255
225 237 255
225 237 255
225 237 255
225 237 255
225 237 255
225 237 255
225 237 255
225 237 255
225 237 255
225 237 255
225 237 255
225 237 255
225 237 255
225 237 255
225 237 255
225 237 255
225 237 255
225 237 255
225 237 255
225 237 255
225 237 255
225 237 255
225 237 255
225 237 255
225 237 255
225 237 255
217 229 248
84 89 142
0 0 113
0 0 113
0 0 113
0 0 113
0 0 113
0 0 113
0 0 113
0 0 113
0 0 113
0 0 113
0 0 113
0 0 113
0 0 113
0 0 113
0 0 113
0 0 113
0 0 113
0 0 113
0 0 113
0 0 112
0 0 113
0 0 113
0 0 113
0 0 113
0 0 113
0 0 113
0 0 113
0 0 113
0 0 113
0 0 113
0 0 113
0 0 113
0 0 113
0 0 113
0 0 113
0 0 113
0 0 113
0 0 113
0 0 113
0 0 113
0 0 113
0 0 113
0 0 113
0 0 113
0 0 113
0 0 113
0 0 113
0 0 113
0 0 113
0 0 113
0 0 113
0 0 113
0 0 113
0 0 112
0 0 113
0 0 113
0 0 113
0 0 113
0 0 113
0 0 113
0 0 113
0 0 113
0 0 113
0 0 113
0 0 113
0 0 113
0 0 113
0 0 113
0 0 113
0 0 113
0 0 113
0 0 113
0 0 113
0 0 113
0 0 113
0 0 113
0 0 113
0 0 113
0 0 113
0 0 113
0 0 113
0 0 113
0 0 113
0 0 113
0 0 113
0 0 113
0 0 113
0 0 113
0 0 113
0 0 113
0 0 113
0 0 113
0 0 113
0 0 113
0 0 113
0 0 113
0 0 113
0 0 113
0 0 113
0 0 113
0 0 113
0 0 113
0 0 113
0 0 113
0 0 113
0 0 113
0 14 114
0 21 116
0 21 116
0 21 116
0 21 117
7 25 119
9 31 122
6 34 124
8 38 125
0 41 126
0 46 128
4 53 133
9 56 135
19 62 140
20 62 138
27 54 140
134 131 125
169 158 139
192 187 184
185 177 165
157 148 129
194 174 166
174 158 139
157 151 132
144 144 123
148 140 119
144 144 112
133 136 101
137 141 112
126 134 104
92 109 56
130 143 111
137 145 113
130 138 104
123 136 99
116 129 87
125 136 101
134 140 104
134 139 101
136 140 105
133 140 103
131 138 99
131 140 100
123 136 92
119 134 80
111 131 92
92 160 157
78 126 149
17 50 131
26 20 116
9 18 117
3 21 116
7 23 117
2 21 116
0 20 116
5 19 116
0 21 116
0 21 116
0 21 116
12 16 116
7 12 115
0 18 116
0 8 115
8 8 115
10 12 116
5 12 115
6 12 114
3 3 114
0 0 113
0 0 113
81 86 141
217 229 248
225 237 255
225 237 255
225 237 255
225 237 255
225 237 255
225 237 255
225 237 255
225 237 255
225 237 255
225 237 255
225 237 255
225 237 255
225 237 255
225 237 255
225 237 255
225 237 255
225 237 255
225 237 255
225 237 255
225 237 255
225 237 255
225 237 255
225 237 255
225 237 255
225 237 255
225 237 255
225 237 255
225 237 255
225 237 255
225 237 255
225 237 255
225 237 255
225 237 255
225 237 255
225 237 255
225 237 255
225 237 255
225 237 255
225 237 255
225 237 255
225 237 255
225 237 255
225 237 255
225 237 255
225 237 255
225 237 255
225 237 255
225 237 255
225 237 255
225 237 255
225 237 255
225 237 255
225 237 255
225 237 255
225 237 255
225 237 255
225 237 255
225 237 255
225 237 255
225 237 255
225 237 255
225 237 255
225 237 255
225 237 255
225 237 255
225 237 255
225 237 255
225 237 255
225 237 255
225 237 255
225 237 255
225 237 255
225 237 255
225 237 255
225 237 255
225 237 255
225 237 255
225 237 255
225 237 255
225 237 255
225 237 255
225 237 255
225 237 255
225 237 255
225 237 255
225 237 255
225 237 255
225 237 255
225 237 255
225 237 255
225 237 255
225 237 255
225 237 255
225 237 255
225 237 255
225 237 255
225 237 255
225 237 255
225 237 255
225 237 255
225 237 255
225 237 255
225 237 255
225 237 255
225 237 255
225 237 255
225 237 255
225 237 255
225 237 255
225 237 255
225 237 255
225 237 255
225 237 255
225 237 255
225 237 255
225 237 255
225 237 255
225 237 255
225 237 255
225 237 255
225 237 255
225 237 255
225 237 255
225 237 255
225 237 255
225 237 255
225 237 255
225 237 255
225 237 255
225 237 255
225 237 255
225 237 255
225 237 255
225 237 255
225 237 255
225 237 255
225 237 255
225 237 255
225 237 255
225 237 255
225 237 255
225 237 255
225 237 255
225 237 255
225 237 255
225 237 255
225 237 255
225 237 255
225 237 255
225 237 255
225 237 255
225 237 255
225 237 255
225 237 255
225 237 255
225 237 255
225 237 255
225 237 255
225 237 255
225 237 255
225 237 255
225 237 255
225 237 255
225 237 255
225 237 255
225 237 255
225 237 255
225 237 255
225 237 255
225 237 255
225 237 255
225 237 255
225 237 255
225 237 255
225 237 255
225 237 255
225 237 255
225 237 255
225 237 255
225 237 255
225 237 255
225 237 255
225 237 255
225 237 255
225 237 255
225 237 255
225 237 255
225 237 255
225 237 255
225 237 255
225 237 255
225 237 255
225 237 255
225 237 255
225 237 255
225 237 255
225 237 255
225 237 255
225 237 255
225 237 255
225 237 255
225 237 255
225 237 255
225 238 255
225 237 255
225 238 255
225 238 255
225 238 255
225 238 255
225 238 255
225 238 255
225 238 255
225 238 255
225 238 255
225 238 255
225 238 255
225 238 255
225 238 255
225 238 255
225 238 255
225 238 255
193 204 227
0 0 113
0 0 113
0 0 113
0 0 113
0 0 113
0 0 113
0 0 113
0 0 113
0 0 113
0 0 113
0 0 113
0 0 113
0 0 113
0 0 113
0 0 113
0 0 113
0 0 113
0 0 113
0 0 113
0 0 113
0 0 113
0 0 113
0 0 113
0 0 113
0 0 113
0 0 113
0 0 113
0 0 113
0 0 113
0 0 113
0 0 113
0 0 113
0 0 113
0 0 113
0 0 113
0 0 113
0 0 113
0 0 113
0 0 112
0 0 113
0 0 113
0 0 113
0 0 113
0 0 113
0 0 113
0 0 113
0 0 113
0 0 113
0 0 113
0 0 113
0 0 113
0 0 113
0 0 113
0 0 113
0 0 112
0 0 113
0 0 113
0 0 113
0 0 113
0 0 113
0 0 113
0 0 113
0 0 113
0 0 113
0 0 113
0 0 113
0 0 113
0 0 113
0 0 113
0 0 113
0 0 113
0 0 113
0 0 113
0 0 113
0 0 113
0 0 113
0 0 113
0 0 113
0 0 113
0 0 113
0 0 113
0 0 113
0 0 112
0 0 113
0 0 113
0 0 113
0 0 113
0 0 113
0 0 113
0 0 113
0 0 113
0 0 113
0 0 113
0 0 113
0 0 113
0 0 113
0 0 113
0 0 113
0 0 113
0 0 113
0 0 113
0 0 113
0 0 113
0 0 113
0 0 113
0 0 113
0 18 115
0 21 116
0 21 116
0 22 117
3 25 119
10 29 120
5 33 123
10 35 124
0 40 125
6 42 127
0 47 130
7 51 133
11 53 135
13 59 139
14 58 136
66 86 135
147 142 133
167 160 144
191 187 178
172 164 146
171 167 146
188 172 157
152 146 129
151 145 127
134 137 108
139 140 111
135 138 107
134 138 108
139 145 115
115 130 86
108 129 84
137 149 117
140 149 116
131 142 109
118 132 93
123 136 99
130 141 104
135 141 103
141 146 114
137 144 109
126 137 99
127 137 97
127 139 98
122 133 88
123 134 92
97 154 159
67 117 150
12 51 133
9 22 117
11 19 118
6 20 117
0 21 116
0 21 116
0 21 116
0 21 116
0 21 116
0 21 116
0 21 116
0 21 116
0 21 116
0 19 116
0 19 116
0 9 114
5 20 116
0 21 116
2 21 116
10 15 116
0 0 114
0 3 113
6 10 114
197 209 231
225 238 255
225 238 255
225 238 255
225 238 255
225 238 255
225 238 255
225 238 255
225 238 255
225 238 255
225 238 255
225 238 255
225 238 255
225 238 255
225 238 255
225 238 255
225 237 255
225 237 255
225 237 255
225 237 255
225 237 255
225 237 255
225 237 255
225 237 255
225 237 255
225 237 255
225 237 255
225 237 255
225 237 255
225 237 255
225 237 255
225 237 255
225 237 255
225 237 255
225 237 255
225 237 255
225 237 255
225 237 255
225 237 255
225 237 255
225 237 255
225 237 255
225 237 255
225 237 255
225 237 255
225 237 255
225 237 255
225 237 255
225 237 255
225 237 255
225 237 255
225 237 255
225 237 255
225 237 255
225 237 255
225 237 255
225 237 255
225 237 255
225 237 255
225 237 255
225 237 255
225 237 255
225 237 255
225 237 255
225 237 255
225 237 255
225 237 255
225 237 255
225 237 255
225 237 255
225 237 255
225 237 255
225 237 255
225 237 255
225 237 255
225 237 255
225 237 255
225 237 255
225 237 255
225 237 255
225 237 255
225 237 255
225 237 255
225 237 255
225 237 255
225 237 255
225 237 255
225 237 255
225 237 255
225 237 255
225 237 255
225 237 255
225 237 255
225 237 255
225 237 255
225 237 255
225 237 255
225 237 255
225 237 255
225 237 255
225 237 255
225 237 255
225 237 255
225 237 255
225 237 255
225 237 255
225 237 255
225 237 255
225 237 255
225 237 255
225 237 255
225 237 255
225 237 255
225 237 255
225 237 255
225 237 255
225 237 255
225 237 255
225 237 255
225 237 255
225 237 255
225 237 255
225 237 255
225 237 255
225 237 255
225 237 255
225 237 255
225 237 255
225 237 255
225 237 255
225 237 255
225 237 255
225 237 255
225 237 255
225 237 255
225 237 255
225 237 255
225 237 255
225 237 255
225 237 255
225 237 255
225 237 255
225 237 255
225 237 255
225 237 255
225 237 255
225 237 255
225 237 255
225 237 255
225 237 255
225 237 255
225 237 255
225 237 255
225 237 255
225 237 255
225 237 255
225 237 255
225 238 255
225 238 255
225 238 255
225 238 255
225 238 255
225 238 255
225 238 255
225 238 255
225 238 255
225 238 255
225 238 255
225 238 255
225 238 255
225 238 255
225 238 255
225 238 255
225 238 255
225 238 255
225 238 255
225 238 255
225 238 255
225 238 255
225 238 255
225 238 255
225 238 255
225 238 255
225 238 255
225 238 255
225 238 255
225 238 255
225 238 255
225 238 255
225 238 255
225 238 255
225 238 255
225 238 255
225 238 255
225 238 255
225 238 255
225 238 255
225 238 255
225 238 255
225 238 255
225 238 255
225 238 255
225 238 255
225 238 255
225 238 255
225 238 255
225 238 255
225 238 255
225 238 255
225 238 255
225 238 255
225 238 255
225 238 255
225 238 255
225 238 255
225 238 255
225 238 255
225 238 255
225 238 255
225 238 255
225 238 255
225 238 255
225 238 255
225 238 255
165 174 203
0 0 113
0 0 112
0 0 113
2 2 113
0 0 113
0 0 113
0 0 113
0 0 113
0 0 113
0 0 113
0 0 113
0 0 113
0 0 113
0 0 113
0 0 113
0 0 113
0 0 113
0 0 113
0 0 113
0 0 113
0 0 113
0 0 113
0 0 112
0 0 113
0 0 112
0 0 113
0 0 113
0 0 113
0 0 113
0 0 113
0 0 113
0 0 113
0 0 113
0 0 113
0 0 113
0 0 113
0 0 113
0 0 113
0 0 113
0 0 113
0 0 113
0 0 113
0 0 113
0 0 113
0 0 113
0 0 113
0 0 113
0 0 113
0 0 113
0 0 113
0 0 113
0 0 113
0 0 113
0 0 113
0 0 113
0 0 113
0 0 113
0 0 113
0 0 113
0 0 113
0 0 113
0 0 113
0 0 113
0 0 113
0 0 113
0 0 113
0 0 113
0 0 113
0 0 112
0 0 113
0 0 113
0 0 113
0 0 113
0 0 113
0 0 113
0 0 113
0 0 113
0 0 113
0 0 113
0 0 113
0 0 113
0 0 113
0 0 113
0 0 113
0 0 113
0 0 112
0 0 113
0 0 113
0 0 113
0 0 113
0 0 113
0 0 113
0 0 113
0 0 113
0 0 113
0 0 113
0 0 113
0 0 112
0 0 113
0 0 113
0 0 113
0 0 113
0 0 113
0 0 113
0 0 113
0 18 115
0 21 116
4 21 116
7 25 118
7 27 120
7 30 122
0 33 124
6 37 125
4 41 127
11 43 127
0 44 130
7 49 133
8 53 135
21 54 141
32 64 142
123 134 118
155 147 127
194 188 181
179 165 150
165 155 140
186 181 163
180 171 161
146 140 122
143 141 122
131 135 108
129 134 104
134 136 108
144 147 119
150 151 121
143 150 116
137 148 115
138 152 117
138 150 117
131 140 105
126 136 100
126 137 101
129 140 101
138 145 108
138 147 110
126 136 98
128 140 103
124 138 98
124 137 97
112 133 83
97 147 134
53 116 160
16 61 140
12 26 121
9 25 114
7 20 116
0 21 116
0 21 116
0 21 116
0 21 116
0 21 116
0 21 116
0 21 116
0 21 116
0 21 116
0 21 116
0 21 116
0 18 115
0 18 115
0 21 116
0 21 116
6 20 116
7 11 116
4 18 116
8 15 115
156 165 196
225 238 255
225 238 255
225 238 255
225 238 255
225 238 255
225 238 255
225 238 255
225 238 255
225 238 255
225 238 255
225 238 255
225 238 255
225 238 255
225 238 255
225 238 255
225 238 255
225 238 255
225 238 255
225 238 255
225 238 255
225 238 255
225 238 255
225 238 255
225 238 255
225 238 255
225 238 255
225 238 255
225 238 255
225 238 255
225 238 255
225 238 255
225 238 255
225 238 255
225 238 255
225 238 255
225 238 255
225 238 255
225 238 255
225 238 255
225 238 255
225 238 255
225 238 255
225 238 255
225 238 255
225 238 255
225 238 255
225 238 255
225 238 255
225 238 255
225 238 255
225 238 255
225 238 255
225 238 255
225 238 255
225 238 255
225 238 255
225 238 255
225 238 255
225 238 255
225 238 255
225 238 255
225 238 255
225 238 255
225 238 255
225 238 255
225 238 255
225 238 255
225 238 255
225 237 255
225 238 255
225 238 255
225 237 255
225 237 255
225 237 255
225 237 255
225 237 255
225 237 255
225 237 255
225 237 255
225 237 255
225 237 255
225 237 255
225 237 255
225 237 255
225 237 255
225 237 255
225 237 255
225 237 255
225 237 255
225 237 255
225 237 255
225 237 255
225 237 255
225 237 255
225 237 255
225 237 255
225 237 255
225 237 255
225 237 255
225 237 255
225 237 255
225 237 255
225 237 255
225 237 255
225 237 255
225 237 255
225 237 255
225 237 255
225 237 255
225 237 255
225 237 255
225 237 255
225 237 255
225 237 255
225 237 255
225 237 255
225 238 255
225 238 255
225 238 255
225 238 255
225 238 255
225 238 255
225 238 255
225 238 255
225 238 255
225 238 255
225 238 255
225 238 255
225 238 255
225 238 255
225 238 255
225 238 255
225 238 255
225 238 255
225 238 255
225 238 255
225 238 255
225 238 255
225 238 255
225 238 255
225 238 255
225 238 255
225 238 255
225 238 255
225 238 255
225 238 255
225 238 255
225 238 255
225 238 255
225 238 255
225 238 255
225 238 255
225 238 255
225 238 255
225 238 255
225 238 255
225 238 255
225 238 255
225 238 255
225 238 255
225 238 255
225 238 255
225 238 255
225 238 255
225 238 255
225 238 255
225 238 255
225 238 255
225 238 255
225 238 255
225 238 255
225 238 255
225 238 255
225 238 255
225 238 255
225 238 255
225 238 255
225 238 255
225 238 255
225 238 255
225 238 255
225 238 255
225 238 255
225 238 255
225 238 255
225 238 255
225 238 255
225 238 255
225 238 255
225 238 255
225 238 255
225 238 255
225 238 255
225 238 255
225 238 255
225 238 255
225 238 255
225 238 255
225 238 255
225 238 255
225 238 255
225 238 255
225 238 255
225 238 255
225 238 255
225 238 255
225 238 255
225 238 255
225 238 255
225 238 255
225 238 255
225 238 255
225 238 255
225 238 255
225 238 255
225 238 255
225 238 255
225 238 255
225 238 255
225 238 255
225 238 255
225 238 255
225 238 255
225 238 255
220 233 251
108 114 158
0 0 113
0 0 113
1 1 113
0 0 113
5 6 113
0 0 113
0 0 113
0 0 113
0 0 113
0 0 113
0 0 113
0 0 113
0 0 113
0 0 113
0 0 113
0 0 113
0 0 113
0 0 113
0 0 113
0 0 113
0 0 113
0 0 113
0 0 113
0 0 113
0 0 113
0 0 113
0 0 113
0 0 113
0 0 113
0 0 113
0 0 113
0 0 113
0 0 113
0 0 113
0 0 113
0 0 113
0 0 113
0 0 113
0 0 113
0 0 113
0 0 113
0 0 113
0 0 112
0 0 113
0 0 113
0 0 113
0 0 113
0 0 112
0 0 113
0 0 113
0 0 113
0 0 113
0 0 113
0 0 113
0 0 113
0 0 113
0 0 113
0 0 113
0 0 113
0 0 113
0 0 113
0 0 113
0 0 113
0 0 113
0 0 113
0 0 113
0 0 113
0 0 113
0 0 113
0 0 113
0 0 113
0 0 113
0 0 113
0 0 113
0 0 113
0 0 113
0 0 113
0 0 113
0 0 113
0 0 113
0 0 113
0 0 113
0 0 113
0 0 113
6 6 113
11 12 114
0 0 113
0 0 113
0 0 113
0 0 113
0 0 113
0 0 113
0 0 113
0 0 113
0 0 113
0 0 113
0 0 113
0 0 113
0 0 113
0 0 112
0 0 113
15 0 113
18 0 113
10 0 114
0 11 115
1 19 117
11 25 120
10 30 123
18 32 122
9 34 124
6 38 126
0 46 130
11 52 134
14 51 133
6 48 132
9 55 136
10 59 135
12 59 142
24 67 150
131 137 120
171 169 159
206 203 202
173 162 146
152 146 119
172 165 146
174 164 146
169 163 148
145 142 120
134 136 109
135 139 114
146 147 123
156 157 132
149 152 121
148 155 124
145 152 122
139 151 116
133 144 106
134 145 109
130 141 103
131 141 106
132 142 100
132 143 101
134 147 106
121 135 91
121 136 94
127 141 102
127 137 93
111 135 122
47 111 163
30 71 149
9 34 124
10 17 115
2 22 117
0 20 117
0 21 117
0 22 118
5 23 118
0 23 119
0 21 118
0 21 116
0 21 116
0 21 116
0 21 116
1 21 116
5 22 116
0 17 115
0 20 116
0 21 116
0 21 116
4 17 116
0 19 116
2 21 116
100 108 155
223 235 253
225 238 255
225 238 255
225 238 255
225 238 255
225 238 255
225 238 255
225 238 255
225 238 255
225 238 255
225 238 255
225 238 255
225 238 255
225 238 255
225 238 255
225 238 255
225 238 255
225 238 255
225 238 255
225 238 255
225 238 255
225 238 255
225 238 255
225 238 255
225 238 255
225 238 255
225 238 255
225 238 255
225 238 255
225 238 255
225 238 255
225 238 255
225 238 255
225 238 255
225 238 255
225 238 255
225 238 255
225 238 255
225 238 255
225 238 255
225 238 255
225 238 255
225 238 255
225 238 255
225 238 255
225 238 255
225 238 255
225 238 255
225 238 255
225 238 255
225 238 255
225 238 255
225 238 255
225 238 255
225 238 255
225 238 255
225 238 255
225 238 255
225 238 255
225 238 255
225 238 255
225 238 255
225 238 255
225 238 255
225 238 255
225 238 255
225 238 255
225 238 255
225 238 255
225 238 255
225 238 255
225 238 255
225 238 255
225 238 255
225 238 255
225 238 255
225 238 255
225 238 255
225 238 255
225 238 255
225 238 255
225 238 255
225 238 255
225 238 255
225 238 255
225 238 255
225 238 255
225 238 255
225 238 255
225 238 255
225 238 255
225 238 255
225 238 255
225 238 255
225 238 255
225 238 255
225 238 255
225 238 255
225 238 255
225 238 255
225 238 255
225 238 255
225 238 255
225 238 255
225 238 255
225 238 255
225 238 255
225 238 255
225 238 255
225 237 255
225 237 255
225 237 255
225 237 255
225 238 255
225 238 255
225 238 255
225 238 255
225 238 255
225 238 255
225 238 255
225 238 255
225 238 255
225 238 255
225 238 255
225 238 255
225 238 255
225 238 255
225 238 255
225 238 255
225 238 255
225 238 255
225 238 255
225 238 255
225 238 255
225 238 255
225 238 255
225 238 255
225 238 255
225 238 255
225 238 255
225 238 255
225 238 255
225 238 255
225 238 255
225 238 255
225 238 255
225 238 255
225 238 255
225 238 255
225 238 255
225 238 255
225 238 255
225 238 255
225 238 255
225 238 255
225 238 255
225 238 255
225 238 255
225 238 255
225 238 255
225 238 255
225 238 255
225 238 255
225 238 255
225 238 255
225 238 255
225 238 255
225 238 255
225 238 255
225 238 255
225 238 255
225 238 255
225 238 255
225 238 255
225 238 255
225 238 255
225 238 255
225 238 255
225 238 255
225 238 255
225 238 255
225 238 255
225 238 255
225 238 255
225 238 255
225 238 255
225 238 255
225 238 255
225 238 255
225 238 255
225 238 255
225 238 255
225 238 255
225 238 255
225 238 255
225 238 255
225 238 255
225 238 255
225 238 255
225 238 255
225 238 255
225 238 255
225 238 255
225 238 255
225 238 255
225 238 255
225 238 255
225 238 255
225 238 255
225 238 255
225 238 255
225 238 255
225 238 255
225 238 255
225 238 255
225 238 255
225 238 255
225 238 255
225 238 255
225 238 255
225 238 255
225 238 255
225 238 255
225 238 255
225 238 255
225 238 255
211 223 243
45 47 122
0 0 114
0 0 114
0 0 113
0 0 113
0 0 113
0 0 113
0 0 113
0 0 113
0 0 113
0 0 113
0 0 113
0 0 113
0 0 113
0 0 113
0 0 113
0 0 113
0 0 113
0 0 113
0 0 113
0 0 113
0 0 112
0 0 113
0 0 113
0 0 113
0 0 113
0 0 113
0 0 113
0 0 113
0 0 113
0 0 113
0 0 113
0 0 113
0 0 113
0 0 113
0 0 113
0 0 113
0 0 113
0 0 113
0 0 113
0 0 113
0 0 113
0 0 113
0 0 113
0 0 113
0 0 113
0 0 113
0 0 113
0 0 113
0 0 113
0 0 113
0 0 113
0 0 113
0 0 113
0 0 113
0 0 113
0 0 113
0 0 113
0 0 113
0 0 113
0 0 113
0 0 113
0 0 113
0 0 113
0 0 113
0 0 113
0 0 113
0 0 113
0 0 113
0 0 113
0 0 113
0 0 113
0 0 113
0 0 113
0 0 113
0 0 113
0 0 113
0 0 113
0 0 113
0 0 113
0 0 113
0 0 113
0 0 113
0 0 113
0 0 113
0 0 113
0 0 113
0 0 113
0 0 113
0 0 113
0 0 113
0 0 113
0 0 113
0 0 113
0 0 113
0 0 113
0 13 114
0 17 115
0 16 115
0 15 115
0 17 115
9 10 114
11 0 114
0 5 116
0 21 119
1 29 122
12 35 124
13 37 125
13 34 124
0 37 125
12 45 130
13 55 134
0 60 137
4 57 135
6 57 136
10 61 139
10 61 140
24 66 142
44 71 140
115 122 116
169 169 160
201 198 198
173 163 150
159 154 127
181 173 159
182 175 159
160 153 134
136 136 113
136 136 110
139 139 114
148 145 120
157 158 135
146 153 124
148 154 127
145 152 123
138 149 114
130 141 94
139 150 109
134 146 107
129 143 99
130 142 98
134 145 108
130 142 100
126 140 96
123 139 99
118 134 90
110 129 92
48 119 162
21 72 147
24 55 130
12 23 119
7 25 118
4 22 119
0 25 119
0 26 119
7 27 120
13 30 121
8 26 119
8 21 118
6 20 117
0 20 118
5 22 117
6 24 118
3 21 116
4 20 116
0 17 116
0 21 116
0 21 116
0 21 116
7 18 116
0 21 116
45 52 125
216 228 247
225 238 255
225 238 255
225 238 255
225 238 255
225 238 255
225 238 255
225 238 255
225 238 255
225 238 255
225 238 255
225 238 255
225 238 255
225 238 255
225 238 255
225 238 255
225 238 255
225 238 255
225 238 255
225 238 255
225 238 255
225 238 255
225 238 255
225 238 255
225 238 255
225 238 255
225 238 255
225 238 255
225 238 255
225 238 255
225 238 255
225 238 255
225 238 255
225 238 255
225 238 255
225 238 255
225 238 255
225 238 255
225 238 255
225 238 255
225 238 255
225 238 255
225 238 255
225 238 255
225 238 255
225 238 255
225 238 255
225 238 255
225 238 255
225 238 255
225 238 255
225 238 255
225 238 255
225 238 255
225 238 255
225 238 255
225 238 255
225 238 255
225 238 255
225 238 255
225 238 255
225 238 255
225 238 255
225 238 255
225 238 255
225 238 255
225 238 255
225 238 255
225 238 255
225 238 255
225 238 255
225 238 255
225 238 255
225 238 255
225 238 255
225 238 255
225 238 255
225 238 255
225 238 255
225 238 255
225 238 255
225 238 255
225 238 255
225 238 255
225 238 255
225 238 255
225 238 255
225 238 255
225 238 255
225 238 255
225 238 255
225 238 255
225 238 255
225 238 255
225 238 255
225 238 255
225 238 255
225 238 255
225 238 255
225 238 255
225 238 255
225 238 255
225 238 255
225 238 255
225 238 255
225 238 255
225 238 255
225 238 255
225 238 255
225 238 255
225 238 255
225 238 255
225 238 255
225 238 255
225 238 255
225 238 255
225 238 255
225 238 255
225 238 255
225 238 255
225 238 255
225 238 255
225 238 255
225 238 255
225 238 255
225 238 255
225 238 255
225 238 255
225 238 255
225 238 255
225 238 255
225 238 255
225 238 255
225 238 255
225 238 255
225 238 255
225 238 255
225 238 255
225 238 255
225 238 255
225 238 255
225 238 255
225 238 255
225 238 255
225 238 255
225 238 255
225 238 255
225 238 255
225 238 255
225 238 255
225 238 255
225 238 255
225 238 255
225 238 255
225 238 255
225 238 255
225 238 255
225 238 255
225 238 255
225 238 255
225 238 255
225 238 255
225 238 255
225 238 255
225 238 255
225 238 255
225 238 255
225 238 255
225 238 255
225 238 255
225 238 255
225 238 255
225 238 255
225 238 255
225 238 255
225 238 255
225 238 255
225 238 255
225 238 255
225 238 255
225 238 255
225 238 255
225 238 255
225 238 255
225 238 255
225 238 255
225 238 255
225 238 255
225 238 255
225 238 255
225 238 255
225 238 255
225 238 255
225 238 255
225 238 255
225 238 255
225 238 255
225 238 255
225 238 255
225 238 255
225 238 255
225 238 255
225 238 255
225 238 255
225 238 255
225 238 255
225 238 255
225 238 255
225 238 255
225 238 255
225 238 255
225 238 255
225 238 255
225 238 255
225 238 255
225 238 255
225 238 255
225 238 255
225 238 255
225 238 255
225 238 255
225 238 255
225 238 255
225 238 255
225 238 255
225 238 255
225 238 255
225 238 255
188 199 223
22 23 116
0 8 115
0 7 115
0 0 114
0 0 113
0 0 113
0 0 113
0 0 113
0 0 113
0 0 112
0 0 113
0 0 113
0 0 113
0 0 113
0 0 113
0 0 113
0 0 113
0 0 113
0 0 113
0 0 113
0 0 113
0 0 113
0 0 113
0 0 113
0 0 113
0 0 113
0 0 113
0 0 113
0 0 113
0 0 113
0 0 112
0 0 113
0 0 113
0 0 113
0 0 113
0 0 113
0 0 113
0 0 113
0 0 113
0 0 113
0 0 113
0 0 113
0 0 113
0 0 113
0 0 113
0 0 113
0 0 113
0 0 113
0 0 113
0 0 113
0 0 113
0 0 113
0 0 113
0 0 113
0 0 113
0 0 113
0 0 113
0 0 113
0 0 113
0 0 113
0 0 113
0 0 113
0 0 113
0 0 113
0 0 113
0 0 113
0 0 113
0 0 113
0 0 113
0 0 113
0 0 113
0 0 113
0 0 113
0 0 113
0 0 113
0 0 113
0 0 113
0 0 113
0 0 113
4 5 113
11 17 115
9 17 115
7 13 114
0 7 113
0 7 113
0 0 114
0 0 113
0 0 114
0 0 114
0 0 113
0 8 114
0 7 113
0 8 114
0 8 114
0 9 114
0 16 115
0 21 116
0 21 116
0 21 116
0 20 116
0 14 117
0 14 118
0 23 120
0 30 123
0 37 125
10 43 127
12 41 126
4 36 125
1 40 127
17 51 133
20 61 139
16 61 139
17 59 138
15 60 140
20 65 143
14 68 146
12 66 142
54 85 137
120 126 95
170 172 167
209 210 217
160 154 136
165 159 141
162 154 138
163 157 142
139 137 112
143 141 118
148 144 123
149 148 124
160 156 134
153 154 130
144 151 123
150 154 127
148 154 122
140 150 110
109 121 57
125 137 95
132 147 110
126 143 101
133 143 103
138 146 106
136 146 105
127 141 100
118 134 92
103 126 96
56 123 158
15 80 148
21 53 135
0 32 121
8 27 120
8 26 120
5 25 119
2 27 120
0 31 123
3 36 124
12 32 122
8 25 119
12 23 119
8 24 119
11 21 120
3 23 117
0 24 117
0 21 116
0 21 116
0 21 116
0 20 117
0 20 117
0 21 116
0 21 116
0 24 118
191 202 226
225 238 255
225 238 255
225 238 255
225 238 255
225 238 255
225 238 255
225 238 255
225 238 255
225 238 255
225 238 255
225 238 255
225 238 255
225 238 255
225 238 255
225 238 255
225 238 255
225 238 255
225 238 255
225 238 255
225 238 255
225 238 255
225 238 255
225 238 255
225 238 255
225 238 255
225 238 255
225 238 255
225 238 255
225 238 255
225 238 255
225 238 255
225 238 255
225 238 255
225 238 255
225 238 255
225 238 255
225 238 255
225 238 255
225 238 255
225 238 255
225 238 255
225 238 255
225 238 255
225 238 255
225 238 255
225 238 255
225 238 255
225 238 255
225 238 255
225 238 255
225 238 255
225 238 255
225 238 255
225 238 255
225 238 255
225 238 255
225 238 255
225 238 255
225 238 255
225 238 255
225 238 255
225 238 255
225 238 255
225 238 255
225 238 255
225 238 255
225 238 255
225 238 255
225 238 255
225 238 255
225 238 255
225 238 255
225 238 255
225 238 255
225 238 255
225 238 255
225 238 255
225 238 255
225 238 255
225 238 255
225 238 255
225 238 255
225 238 255
225 238 255
225 238 255
225 238 255
225 238 255
225 238 255
225 238 255
225 238 255
225 238 255
225 238 255
225 238 255
225 238 255
225 238 255
225 238 255
225 238 255
225 238 255
225 238 255
225 238 255
225 238 255
225 238 255
225 238 255
225 238 255
225 238 255
225 238 255
225 238 255
225 238 255
225 238 255
225 238 255
225 238 255
225 238 255
225 238 255
225 238 255
225 238 255
225 238 255
225 238 255
225 238 255
225 238 255
225 238 255
225 238 255
225 238 255
225 238 255
225 238 255
225 238 255
225 238 255
225 238 255
225 238 255
225 238 255
225 238 255
225 238 255
225 238 255
225 238 255
225 238 255
225 238 255
225 238 255
225 238 255
225 238 255
225 238 255
225 238 255
225 238 255
225 238 255
225 238 255
225 238 255
225 238 255
225 238 255
225 238 255
225 238 255
225 238 255
225 238 255
225 238 255
225 238 255
225 238 255
225 238 255
225 238 255
225 238 255
225 238 255
225 238 255
225 238 255
225 238 255
225 238 255
225 238 255
225 238 255
225 238 255
225 238 255
225 238 255
225 238 255
225 238 255
225 238 255
225 238 255
225 238 255
225 238 255
225 238 255
225 238 255
225 238 255
225 238 255
225 238 255
225 238 255
225 238 255
225 238 255
225 238 255
225 238 255
225 238 255
225 238 255
225 238 255
225 238 255
225 238 255
225 238 255
225 238 255
225 238 255
225 238 255
225 238 255
225 238 255
225 238 255
225 238 255
225 238 255
225 238 255
225 238 255
225 238 255
225 238 255
225 238 255
225 238 255
225 238 255
225 238 255
225 238 255
225 238 255
225 238 255
225 238 255
225 238 255
225 238 255
225 238 255
225 238 255
225 238 255
225 238 255
225 238 255
225 238 255
225 238 255
225 238 255
225 238 255
225 238 255
225 238 255
225 238 255
225 238 255
225 238 255
225 238 255
225 238 255
225 238 255
225 238 255
225 238 255
162 171 201
5 11 115
4 17 116
0 11 115
0 15 115
0 13 114
0 0 113
0 0 113
0 0 113
0 0 113
2 3 113
7 7 113
0 0 113
0 0 113
0 0 113
0 0 113
0 0 113
0 0 113
0 0 113
0 0 113
0 0 113
0 0 113
0 0 113
0 0 113
0 0 113
6 0 113
9 0 113
0 0 113
0 3 113
0 5 113
0 0 113
0 0 113
0 0 113
0 0 113
0 0 113
0 0 113
0 0 113
0 0 113
0 0 113
0 0 113
0 0 113
0 0 113
0 0 113
0 0 113
0 0 113
0 0 113
0 0 113
0 0 113
0 0 113
0 0 113
0 0 113
0 0 113
0 0 113
0 0 113
0 0 113
0 0 113
0 0 112
0 0 113
0 0 113
0 0 113
0 0 113
0 0 113
0 0 113
0 0 113
0 0 113
0 0 113
0 0 113
0 0 113
0 0 113
0 0 113
0 0 113
0 0 113
0 0 113
0 0 113
0 2 113
0 5 113
0 6 113
0 8 113
0 6 113
0 8 113
0 21 116
0 21 116
0 20 116
0 20 116
0 19 116
0 6 115
0 5 115
0 5 115
0 7 115
0 8 115
0 18 116
0 19 116
0 20 116
0 20 116
0 20 116
0 18 116
6 22 116
5 22 116
6 22 116
0 19 116
0 16 117
6 20 119
5 28 120
0 34 123
0 40 125
1 43 127
2 43 127
0 44 127
0 48 130
8 54 135
16 60 141
16 63 141
12 63 140
0 65 142
7 76 148
16 79 151
18 72 149
82 111 112
122 129 93
178 185 188
206 207 212
148 146 127
153 149 131
147 145 126
144 141 119
133 138 112
148 144 122
160 154 132
155 153 129
158 154 131
148 148 121
144 150 119
142 148 116
141 148 113
138 149 109
124 136 92
110 123 78
113 141 105
135 147 98
139 146 104
134 148 102
130 142 100
120 137 93
94 133 123
22 114 169
20 84 152
10 42 128
7 32 122
5 28 121
14 33 122
11 30 121
11 29 121
5 32 123
8 38 125
0 34 124
4 30 122
4 28 121
2 33 123
12 34 124
9 22 120
0 25 120
0 21 117
2 22 117
0 21 116
10 20 118
11 21 119
3 21 117
6 21 117
10 23 119
157 168 199
225 238 255
225 238 255
225 238 255
225 238 255
225 238 255
225 238 255
225 238 255
225 238 255
225 238 255
225 238 255
225 238 255
225 238 255
225 238 255
225 238 255
225 238 255
225 238 255
225 238 255
225 238 255
225 238 255
225 238 255
225 238 255
225 238 255
225 238 255
225 238 255
225 238 255
225 238 255
225 238 255
225 238 255
225 238 255
225 238 255
225 238 255
225 238 255
225 238 255
225 238 255
225 238 255
225 238 255
225 238 255
225 238 255
225 238 255
225 238 255
225 238 255
225 238 255
225 238 255
225 238 255
225 238 255
225 238 255
225 238 255
225 238 255
225 238 255
225 238 255
225 238 255
225 238 255
225 238 255
225 238 255
225 238 255
225 238 255
225 238 255
225 238 255
225 238 255
225 238 255
225 238 255
225 238 255
225 238 255
225 238 255
225 238 255
225 238 255
225 238 255
225 238 255
225 238 255
225 238 255
225 238 255
225 238 255
225 238 255
225 238 255
225 238 255
225 238 255
225 238 255
225 238 255
225 238 255
225 238 255
225 238 255
225 238 255
225 238 255
225 238 255
225 238 255
225 238 255
225 238 255
225 238 255
225 238 255
225 238 255
225 238 255
225 238 255
225 238 255
225 238 255
225 238 255
225 238 255
225 238 255
225 238 255
225 238 255
225 238 255
225 238 255
225 238 255
225 238 255
225 238 255
225 238 255
225 238 255
225 238 255
225 238 255
225 238 255
225 238 255
225 238 255
225 238 255
225 238 255
225 238 255
225 238 255
225 238 255
225 238 255
225 238 255
225 238 255
225 238 255
225 238 255
225 238 255
225 238 255
225 238 255
225 238 255
225 238 255
225 238 255
225 238 255
225 238 255
225 238 255
225 238 255
225 238 255
225 238 255
225 238 255
225 238 255
225 238 255
225 238 255
225 238 255
225 238 255
225 238 255
225 238 255
225 238 255
225 238 255
225 238 255
225 238 255
225 238 255
225 238 255
225 238 255
225 238 255
225 238 255
225 238 255
225 238 255
225 238 255
225 238 255
225 238 255
225 238 255
225 238 255
225 238 255
225 238 255
225 238 255
225 238 255
225 238 255
225 238 255
225 238 255
225 238 255
225 238 255
225 238 255
225 238 255
225 238 255
225 238 255
225 238 255
225 238 255
225 238 255
225 238 255
225 238 255
225 238 255
225 238 255
225 238 255
225 238 255
225 238 255
225 238 255
225 238 255
225 238 255
225 238 255
225 238 255
225 238 255
225 238 255
225 238 255
225 238 255
225 238 255
225 238 255
225 238 255
225 238 255
225 238 255
225 238 255
225 238 255
225 238 255
225 238 255
225 238 255
225 238 255
225 238 255
225 238 255
225 238 255
225 238 255
225 238 255
225 238 255
225 238 255
225 238 255
225 238 255
225 238 255
225 238 255
225 238 255
225 238 255
225 238 255
225 238 255
225 238 255
225 238 255
225 238 255
225 238 255
225 238 255
225 238 255
225 238 255
225 238 255
225 238 255
225 238 255
225 238 255
225 238 255
225 238 255
225 238 255
225 238 255
225 238 255
110 118 161
4 21 116
0 21 116
0 20 116
0 13 114
0 2 113
0 0 113
0 0 113
0 0 113
0 0 114
13 14 115
5 5 113
0 0 113
0 0 112
0 0 113
0 0 113
0 0 113
0 0 113
0 0 113
0 0 113
0 0 113
0 0 113
0 0 113
0 0 113
0 0 113
0 0 113
0 0 113
0 6 113
0 15 115
0 5 113
0 0 113
0 0 113
0 0 113
0 0 113
0 0 113
0 0 113
0 0 113
0 0 113
0 0 113
0 0 113
0 0 113
0 0 113
0 0 113
0 0 113
0 0 113
0 0 112
0 0 113
0 0 113
0 0 113
0 0 113
0 0 113
0 0 113
0 0 113
0 0 113
0 0 113
0 0 113
0 0 113
0 0 113
0 0 113
0 0 113
0 0 113
0 0 113
0 0 113
0 0 113
0 0 113
0 0 113
0 0 113
0 0 113
2 0 113
2 0 113
0 0 113
0 0 113
0 0 113
0 6 113
0 21 116
0 21 116
0 21 116
0 21 116
0 21 116
0 18 116
0 20 116
0 21 116
0 21 116
0 21 116
0 21 116
0 21 116
0 21 116
0 21 116
0 21 116
9 23 117
11 24 117
10 24 117
11 24 117
11 24 117
6 22 116
14 26 117
18 28 118
15 27 117
7 22 117
10 20 117
13 25 118
17 32 121
10 35 123
9 39 125
3 43 128
10 46 128
13 48 130
1 50 132
0 56 136
10 65 143
13 70 146
9 78 149
0 83 151
13 92 154
20 79 154
56 90 140
109 130 88
128 132 101
198 206 214
198 201 201
145 140 121
146 144 120
143 141 124
139 138 116
143 144 118
156 150 131
154 152 128
154 152 127
143 144 114
140 144 111
132 139 105
135 143 112
135 145 108
136 147 106
132 144 102
121 137 104
88 158 165
105 157 151
119 141 102
118 139 108
118 137 108
91 138 133
47 111 163
2 72 145
14 40 128
19 27 121
2 30 123
6 37 125
10 41 127
7 35 124
0 34 124
2 34 123
2 39 125
0 37 125
3 36 125
2 38 125
2 44 127
9 39 126
14 30 121
3 26 120
3 21 118
9 24 118
6 23 117
9 23 119
12 27 120
14 28 121
15 29 121
119 129 171
225 238 255
225 238 255
225 238 255
225 238 255
225 238 255
225 238 255
225 238 255
225 238 255
225 238 255
225 238 255
225 238 255
225 238 255
225 238 255
225 238 255
225 238 255
225 238 255
225 238 255
225 238 255
225 238 255
225 238 255
225 238 255
225 238 255
225 238 255
225 238 255
225 238 255
225 238 255
225 238 255
225 238 255
225 238 255
225 238 255
225 238 255
225 238 255
225 238 255
225 238 255
225 238 255
225 238 255
225 238 255
225 238 255
225 238 255
225 238 255
225 238 255
225 238 255
225 238 255
225 238 255
225 238 255
225 238 255
225 238 255
225 238 255
225 238 255
225 238 255
225 238 255
225 238 255
225 238 255
225 238 255
225 238 255
225 238 255
225 238 255
225 238 255
225 238 255
225 238 255
225 238 255
225 238 255
225 238 255
225 238 255
225 238 255
225 238 255
225 238 255
225 238 255
225 238 255
225 238 255
225 238 255
225 238 255
225 238 255
225 238 255
225 238 255
225 238 255
225 238 255
225 238 255
225 238 255
225 238 255
225 238 255
225 238 255
225 238 255
225 238 255
225 238 255
225 238 255
225 238 255
225 238 255
225 238 255
225 238 255
225 238 255
225 238 255
225 238 255
225 238 255
225 238 255
225 238 255
225 238 255
225 238 255
225 238 255
225 238 255
225 238 255
225 238 255
225 238 255
225 238 255
225 238 255
225 238 255
225 238 255
225 238 255
225 238 255
225 238 255
225 238 255
225 238 255
225 238 255
225 238 255
225 238 255
225 238 255
225 238 255
225 238 255
225 238 255
225 238 255
225 238 255
225 238 255
225 238 255
225 238 255
225 238 255
225 238 255
225 238 255
225 238 255
225 238 255
225 238 255
225 238 255
225 238 255
225 238 255
225 238 255
225 238 255
225 238 255
225 238 255
225 238 255
225 238 255
225 238 255
225 238 255
225 238 255
225 238 255
225 238 255
225 238 255
225 238 255
225 238 255
225 238 255
225 238 255
225 238 255
225 238 255
225 238 255
225 238 255
225 238 255
225 238 255
225 238 255
225 238 255
225 238 255
225 238 255
225 238 255
225 238 255
225 238 255
225 238 255
225 238 255
225 238 255
225 238 255
225 238 255
225 238 255
225 238 255
225 238 255
225 238 255
225 238 255
225 238 255
225 238 255
225 238 255
225 238 255
225 238 255
225 238 255
225 238 255
225 238 255
225 238 255
225 238 255
225 238 255
225 238 255
225 238 255
225 238 255
225 238 255
225 238 255
225 238 255
225 238 255
225 238 255
225 238 255
225 238 255
225 238 255
225 238 255
225 238 255
225 238 255
225 238 255
225 238 255
225 238 255
225 238 255
225 238 255
225 238 255
225 238 255
225 238 255
225 238 255
225 238 255
225 238 255
225 238 255
225 238 255
225 238 255
225 238 255
225 238 255
225 238 255
225 238 255
225 238 255
225 238 255
225 238 255
225 238 255
225 238 255
225 238 255
225 238 255
225 238 255
225 238 255
225 238 255
225 238 255
225 238 255
225 238 255
225 238 255
225 238 255
225 238 255
225 238 255
216 228 247
93 100 149
0 21 116
0 21 116
0 17 116
0 0 114
0 0 114
0 0 113
0 0 113
0 0 113
8 9 115
12 12 114
0 0 113
0 0 113
0 0 113
0 0 113
0 0 113
0 0 113
0 0 113
0 0 113
0 0 113
0 0 113
0 0 113
0 0 113
0 0 113
0 0 113
0 0 113
0 11 114
0 21 116
0 17 115
0 13 114
0 11 114
0 9 114
0 5 113
0 0 113
0 0 113
0 0 112
0 0 113
0 0 113
0 0 113
0 0 113
0 0 113
0 0 113
0 0 113
0 0 113
0 0 113
0 0 113
0 0 113
0 0 113
0 0 113
0 0 113
0 0 113
0 0 113
0 0 113
0 0 113
0 0 113
0 0 113
0 0 113
0 0 113
0 0 114
0 0 115
0 0 115
0 0 115
0 0 115
0 0 115
0 0 115
0 0 115
0 0 115
2 0 115
12 0 113
0 0 113
9 9 115
12 13 116
10 18 116
0 21 116
0 21 116
0 21 116
0 16 118
0 15 118
0 17 115
0 17 116
0 19 116
0 21 116
0 21 116
0 21 116
0 21 116
0 21 116
0 21 116
0 21 116
3 21 116
2 21 116
3 21 116
3 21 116
3 21 116
1 15 118
12 21 119
11 29 120
7 27 120
0 25 119
0 32 120
18 34 123
20 34 124
17 35 125
16 40 127
17 38 127
0 44 127
12 43 128
8 50 132
9 65 140
13 71 147
11 78 152
12 91 159
14 90 158
22 90 157
16 74 153
93 118 103
114 129 85
157 163 156
217 225 235
172 171 158
149 144 128
144 144 122
143 141 126
146 145 122
151 149 126
150 145 125
151 152 126
143 147 119
137 144 109
131 142 106
112 126 83
113 126 84
124 136 94
126 138 94
125 137 94
129 142 103
106 144 130
51 153 186
63 159 182
31 145 181
46 122 169
10 104 164
17 75 146
4 47 129
14 35 122
3 31 122
0 34 124
12 42 126
11 40 126
5 35 124
0 34 124
5 39 125
12 43 127
10 41 127
13 44 128
3 48 130
4 52 131
9 40 126
13 31 122
2 23 119
6 26 120
11 30 121
9 28 120
8 30 121
10 33 123
5 34 123
98 110 159
216 228 248
225 238 255
225 238 255
225 238 255
225 238 255
225 238 255
225 238 255
225 238 255
225 238 255
225 238 255
225 238 255
225 238 255
225 238 255
225 238 255
225 238 255
225 238 255
225 238 255
225 238 255
225 238 255
225 238 255
225 238 255
225 238 255
225 238 255
225 238 255
225 238 255
225 238 255
225 238 255
225 238 255
225 238 255
225 238 255
225 238 255
225 238 255
225 238 255
225 238 255
225 238 255
225 238 255
225 238 255
225 238 255
225 238 255
225 238 255
225 238 255
225 238 255
225 238 255
225 238 255
225 238 255
225 238 255
225 238 255
225 238 255
225 238 255
225 238 255
225 238 255
225 238 255
225 238 255
225 238 255
225 238 255
225 238 255
225 238 255
225 238 255
225 238 255
225 238 255
225 238 255
225 238 255
225 238 255
225 238 255
225 238 255
225 238 255
225 238 255
225 238 255
225 238 255
225 238 255
225 238 255
225 238 255
225 238 255
225 238 255
225 238 255
225 238 255
225 238 255
225 238 255
225 238 255
225 238 255
225 238 255
225 238 255
225 238 255
225 238 255
225 238 255
225 238 255
225 238 255
225 238 255
225 238 255
225 238 255
225 238 255
225 238 255
225 238 255
225 238 255
225 238 255
225 238 255
225 238 255
225 238 255
225 238 255
225 238 255
225 238 255
225 238 255
225 238 255
225 238 255
225 238 255
225 238 255
225 238 255
225 238 255
225 238 255
225 238 255
225 238 255
225 238 255
225 238 255
225 238 255
225 238 255
225 238 255
225 238 255
225 238 255
225 238 255
225 238 255
225 238 255
225 238 255
225 238 255
225 238 255
225 238 255
225 238 255
225 238 255
225 238 255
225 238 255
225 238 255
225 238 255
225 238 255
225 238 255
225 238 255
225 238 255
225 238 255
225 238 255
225 238 255
225 238 255
225 238 255
225 238 255
225 238 255
225 238 255
225 238 255
225 238 255
225 238 255
225 238 255
225 238 255
225 238 255
225 238 255
225 238 255
225 238 255
225 238 255
225 238 255
225 238 255
225 238 255
225 238 255
225 238 255
225 238 255
225 238 255
225 238 255
225 238 255
225 238 255
225 238 255
225 238 255
225 238 255
225 238 255
225 238 255
225 238 255
225 238 255
225 238 255
225 238 255
225 238 255
225 238 255
225 238 255
225 238 255
225 238 255
225 238 255
225 238 255
225 238 255
225 238 255
225 238 255
225 238 255
225 238 255
225 238 255
225 238 255
225 238 255
225 238 255
225 238 255
225 238 255
225 238 255
225 238 255
225 238 255
225 238 255
225 238 255
225 238 255
225 238 255
225 238 255
225 238 255
225 238 255
225 238 255
225 238 255
225 238 255
225 238 255
225 238 255
225 238 255
225 238 255
225 238 255
225 238 255
225 238 255
225 238 255
225 238 255
225 238 255
225 238 255
225 238 255
225 238 255
225 238 255
225 238 255
225 238 255
225 238 255
225 238 255
225 238 255
225 238 255
225 238 255
225 238 255
225 238 255
225 238 255
225 238 255
225 238 255
225 238 255
225 238 255
225 238 255
225 238 255
225 238 255
203 214 235
63 70 133
4 22 116
0 21 116
0 17 116
0 14 116
0 8 115
9 9 115
7 8 115
8 8 114
5 5 114
5 5 113
0 0 113
0 0 113
0 0 113
0 0 113
0 0 113
0 0 113
0 0 113
0 0 113
0 0 113
0 0 113
0 0 113
0 0 113
0 0 113
0 2 113
0 12 114
0 21 116
3 21 116
2 21 116
0 21 116
0 21 116
0 17 115
0 0 113
0 0 113
0 0 113
0 0 113
0 0 113
0 0 113
0 0 113
0 0 113
0 0 113
0 0 113
0 0 113
0 0 113
0 0 113
0 0 113
0 0 113
0 0 113
0 0 113
0 0 113
0 0 113
0 0 113
0 0 113
0 0 113
0 0 113
0 0 113
0 0 113
0 0 114
0 0 115
0 0 115
0 0 115
0 0 115
0 0 115
0 0 115
0 0 115
0 0 115
0 0 115
0 0 113
0 0 113
0 4 114
0 13 115
0 16 115
0 21 116
0 21 116
0 21 116
0 16 118
0 15 118
7 22 117
2 21 116
0 21 116
0 21 116
0 21 116
0 21 116
0 21 116
0 21 116
0 21 116
0 21 116
0 21 116
0 21 116
0 21 116
0 21 116
0 21 116
10 18 119
14 23 120
14 30 121
11 29 120
0 27 120
0 33 120
20 34 123
14 32 123
2 36 125
16 41 128
17 42 130
0 45 130
16 46 132
19 56 137
18 70 144
4 69 146
18 86 155
12 91 158
19 86 155
19 78 153
55 89 124
105 127 67
123 131 100
214 219 226
191 193 190
162 154 129
148 143 118
142 142 121
146 145 126
148 144 119
147 144 121
140 141 117
140 146 118
137 145 112
133 143 105
126 138 100
115 129 88
114 128 86
116 131 89
120 134 89
118 129 86
117 132 92
98 157 146
45 162 189
38 143 181
35 108 169
21 85 154
22 61 141
8 43 128
11 37 122
12 33 123
14 31 121
3 36 125
10 42 127
9 44 128
5 40 127
5 42 127
9 46 130
8 47 131
3 45 129
6 51 133
12 55 135
11 49 130
9 37 125
4 32 122
9 24 118
9 28 120
8 34 124
2 34 124
6 39 125
6 41 126
78 91 148
215 227 247
225 238 255
225 238 255
225 238 255
225 238 255
225 238 255
225 238 255
225 238 255
225 238 255
225 238 255
225 238 255
225 238 255
225 238 255
225 238 255
225 238 255
225 238 255
225 238 255
225 238 255
225 238 255
225 238 255
225 238 255
225 238 255
225 238 255
225 238 255
225 238 255
225 238 255
225 238 255
225 238 255
225 238 255
225 238 255
225 238 255
225 238 255
225 238 255
225 238 255
225 238 255
225 238 255
225 238 255
225 238 255
225 238 255
225 238 255
225 238 255
225 238 255
225 238 255
225 238 255
225 238 255
225 238 255
225 238 255
225 238 255
225 238 255
225 238 255
225 238 255
225 238 255
225 238 255
225 238 255
225 238 255
225 238 255
225 238 255
225 238 255
225 238 255
225 238 255
225 238 255
225 238 255
225 238 255
225 238 255
225 238 255
225 238 255
225 238 255
225 238 255
225 238 255
225 238 255
225 238 255
225 238 255
225 238 255
225 238 255
225 238 255
225 238 255
225 238 255
225 238 255
225 238 255
225 238 255
225 238 255
225 238 255
225 238 255
225 238 255
225 238 255
225 238 255
225 238 255
225 238 255
225 238 255
225 238 255
225 238 255
225 238 255
225 238 255
225 238 255
225 238 255
225 238 255
225 238 255
225 238 255
225 238 255
225 238 255
225 238 255
225 238 255
225 238 255
225 238 255
225 238 255
225 238 255
225 238 255
225 238 255
225 238 255
225 238 255
225 238 255
225 238 255
225 238 255
225 238 255
225 238 255
225 238 255
225 238 255
225 238 255
225 238 255
225 238 255
225 238 255
225 238 255
225 238 255
225 238 255
225 238 255
225 238 255
225 238 255
225 238 255
225 238 255
225 238 255
225 238 255
225 238 255
225 238 255
225 238 255
225 238 255
225 238 255
225 238 255
225 238 255
225 238 255
225 238 255
225 238 255
225 238 255
225 238 255
225 238 255
225 238 255
225 238 255
225 238 255
225 238 255
225 238 255
225 238 255
225 238 255
225 238 255
225 238 255
225 238 255
225 238 255
225 238 255
225 238 255
225 238 255
225 238 255
225 238 255
225 238 255
225 238 255
225 238 255
225 238 255
225 238 255
225 238 255
225 238 255
225 238 255
225 238 255
225 238 255
225 238 255
225 238 255
225 238 255
225 238 255
225 238 255
225 238 255
225 238 255
225 238 255
225 238 255
225 238 255
225 238 255
225 238 255
225 238 255
225 238 255
225 238 255
225 238 255
225 238 255
225 238 255
225 238 255
225 238 255
225 238 255
225 238 255
225 238 255
225 238 255
225 238 255
225 238 255
225 238 255
225 238 255
225 238 255
225 238 255
225 238 255
225 238 255
225 238 255
225 238 255
225 238 255
225 238 255
225 238 255
225 238 255
225 238 255
225 238 255
225 238 255
225 238 255
225 238 255
225 238 255
225 238 255
225 238 255
225 238 255
225 238 255
225 238 255
225 238 255
225 238 255
225 238 255
225 238 255
225 238 255
225 238 255
225 238 255
225 238 255
225 238 255
225 238 255
225 238 255
225 238 255
225 238 255
225 238 255
225 238 255
225 238 255
225 238 255
194 205 228
32 41 123
4 22 117
0 21 116
0 21 116
0 21 116
1 21 116
4 19 116
9 19 116
3 13 116
0 8 115
0 5 115
0 0 115
0 0 113
0 0 113
0 0 113
0 0 113
0 0 113
0 0 113
0 0 115
0 0 115
0 6 115
0 17 115
0 17 115
0 15 115
9 15 116
1 20 116
8 23 117
7 24 117
3 22 116
3 21 116
0 21 116
0 7 113
0 0 113
0 0 113
0 0 113
0 0 113
0 0 113
0 0 113
0 0 113
0 0 114
0 0 114
0 0 114
0 0 114
0 0 113
0 0 113
0 0 113
0 0 113
0 0 113
0 0 113
0 0 113
0 0 113
0 0 113
0 0 113
0 0 113
0 0 113
0 0 113
0 0 113
0 0 115
0 0 115
0 0 115
0 0 115
0 0 115
0 0 115
0 0 115
0 0 115
0 0 115
9 10 114
12 12 114
10 16 114
0 20 116
0 19 116
0 21 116
0 21 116
0 21 116
0 16 118
0 15 118
13 25 117
8 23 117
0 21 116
0 21 116
0 21 116
0 21 116
0 21 116
0 21 116
0 21 116
0 21 116
0 22 117
0 22 117
0 21 116
0 22 116
0 20 117
5 16 119
12 23 119
8 27 120
5 27 120
0 28 120
10 31 120
20 34 124
8 36 124
10 42 127
18 52 133
5 58 135
3 58 135
8 56 137
7 66 142
8 70 145
3 71 147
13 83 154
0 81 151
3 70 147
37 73 136
94 119 70
111 123 80
170 179 175
228 234 243
168 164 143
164 155 132
151 148 124
146 144 124
154 152 132
153 148 126
139 139 115
135 139 113
138 142 112
138 145 114
138 147 114
128 139 102
120 131 92
115 127 84
107 121 73
109 125 80
107 125 74
114 132 85
96 143 131
28 126 177
16 100 162
19 86 152
10 63 140
18 53 135
13 45 128
15 44 128
9 36 124
15 36 124
6 40 126
9 51 133
10 52 133
7 50 131
5 48 131
12 52 133
6 48 130
11 51 132
10 54 134
5 50 132
9 42 127
0 43 128
0 35 123
3 31 122
10 36 125
9 38 126
7 43 128
5 44 127
23 51 131
195 207 231
225 238 255
225 238 255
225 238 255
225 238 255
225 238 255
225 238 255
225 238 255
225 238 255
225 238 255
225 238 255
225 238 255
225 238 255
225 238 255
225 238 255
225 238 255
225 238 255
225 238 255
225 238 255
225 238 255
225 238 255
225 238 255
225 238 255
225 238 255
225 238 255
225 238 255
225 238 255
225 238 255
225 238 255
225 238 255
225 238 255
225 238 255
225 238 255
225 238 255
225 238 255
225 238 255
225 238 255
225 238 255
225 238 255
225 238 255
225 238 255
225 238 255
225 238 255
225 238 255
225 238 255
225 238 255
225 238 255
225 238 255
225 238 255
225 238 255
225 238 255
225 238 255
225 238 255
225 238 255
225 238 255
225 238 255
225 238 255
225 238 255
225 238 255
225 238 255
225 238 255
225 238 255
225 238 255
225 238 255
225 238 255
225 238 255
225 238 255
225 238 255
225 238 255
225 238 255
225 238 255
225 238 255
225 238 255
225 238 255
225 238 255
225 238 255
225 238 255
225 238 255
225 238 255
225 238 255
225 238 255
225 238 255
225 238 255
225 238 255
225 238 255
225 238 255
225 238 255
225 238 255
225 238 255
225 238 255
225 238 255
225 238 255
225 238 255
225 238 255
225 238 255
225 238 255
225 238 255
225 238 255
225 238 255
225 238 255
225 238 255
225 238 255
225 238 255
225 238 255
225 238 255
225 238 255
225 238 255
225 238 255
225 238 255
225 238 255
225 238 255
225 238 255
225 238 255
225 238 255
225 238 255
225 238 255
225 238 255
225 238 255
225 238 255
225 238 255
225 238 255
225 238 255
225 238 255
225 238 255
225 238 255
225 238 255
225 238 255
225 238 255
225 238 255
225 238 255
225 238 255
225 238 255
225 238 255
225 238 255
225 238 255
225 238 255
225 238 255
225 238 255
225 238 255
225 238 255
225 238 255
225 238 255
225 238 255
225 238 255
225 238 255
225 238 255
225 238 255
225 238 255
225 238 255
225 238 255
225 238 255
225 238 255
225 238 255
225 238 255
225 238 255
225 238 255
225 238 255
225 238 255
225 238 255
225 238 255
225 238 255
225 238 255
225 238 255
225 238 255
225 238 255
225 238 255
225 238 255
225 238 255
225 238 255
225 238 255
225 238 255
225 238 255
225 238 255
225 238 255
225 238 255
225 238 255
225 238 255
225 238 255
225 238 255
225 238 255
225 238 255
225 238 255
225 238 255
225 238 255
225 238 255
225 238 255
225 238 255
225 238 255
225 238 255
225 238 255
225 238 255
225 238 255
225 238 255
225 238 255
225 238 255
225 238 255
225 238 255
225 238 255
225 238 255
225 238 255
225 238 255
225 238 255
225 238 255
225 238 255
225 238 255
225 238 255
225 238 255
225 238 255
225 238 255
225 238 255
225 238 255
225 238 255
225 238 255
225 238 255
225 238 255
225 238 255
225 238 255
225 238 255
225 238 255
225 238 255
225 238 255
225 238 255
225 238 255
225 238 255
225 238 255
225 238 255
225 238 255
225 238 255
225 238 255
225 238 255
225 238 255
225 238 255
225 238 255
225 238 255
225 238 255
225 238 255
225 238 255
225 238 255
194 205 228
24 36 121
6 23 117
7 21 117
4 21 116
5 21 117
0 21 116
0 20 116
0 20 116
0 20 116
0 18 116
0 21 116
0 18 116
0 6 115
0 0 114
0 6 113
0 10 114
0 7 113
0 4 115
0 0 115
0 0 115
0 17 116
0 21 116
0 21 116
9 19 116
9 19 116
2 21 116
13 26 117
4 26 117
6 24 117
0 19 116
8 15 115
10 10 115
0 0 115
9 9 115
12 12 114
2 2 113
1 1 113
10 10 113
6 12 115
0 10 115
0 5 115
0 0 115
0 0 114
0 0 113
0 0 113
0 0 113
3 3 113
0 0 113
0 0 113
0 0 113
0 0 113
0 0 113
0 0 113
0 0 113
0 0 113
0 0 113
0 0 115
0 0 115
0 0 115
0 0 115
0 0 115
0 0 115
0 0 115
0 0 115
0 0 115
8 8 114
9 13 114
3 21 114
0 21 116
0 21 116
0 21 116
0 21 116
0 21 116
0 16 118
0 15 118
0 20 117
0 21 116
0 21 116
0 21 116
0 21 116
0 21 116
0 21 116
0 21 116
0 21 116
0 22 117
0 26 119
0 26 119
0 26 119
0 26 119
6 24 119
10 18 119
8 22 119
0 26 119
1 26 119
2 29 120
14 31 121
16 34 124
5 37 125
6 46 128
13 53 133
0 57 135
14 59 136
18 56 137
11 65 141
7 68 145
3 70 147
10 81 152
8 73 147
32 67 142
86 112 85
113 128 77
149 155 149
220 228 237
207 211 216
167 161 141
162 155 129
157 152 129
150 149 126
150 146 124
143 140 115
133 135 110
135 138 109
138 141 113
139 144 117
138 144 111
139 146 110
133 143 108
125 136 98
122 135 94
117 134 91
117 133 86
115 131 88
65 120 149
16 101 162
0 75 148
23 65 142
4 52 132
0 46 129
8 52 132
12 50 132
4 43 127
0 46 128
9 53 132
12 54 134
13 52 132
2 50 131
7 53 134
7 51 132
11 50 132
5 51 133
8 54 135
5 44 129
11 46 129
2 48 130
8 44 128
4 38 126
3 45 128
7 46 129
7 47 129
40 65 137
180 193 219
225 238 255
225 238 255
225 238 255
225 238 255
225 238 255
225 238 255
225 238 255
225 238 255
225 238 255
225 238 255
225 238 255
225 238 255
225 238 255
225 238 255
225 238 255
225 238 255
225 238 255
225 238 255
225 238 255
225 238 255
225 238 255
225 238 255
225 238 255
225 238 255
225 238 255
225 238 255
225 238 255
225 238 255
225 238 255
225 238 255
225 238 255
225 238 255
225 238 255
225 238 255
225 238 255
225 238 255
225 238 255
225 238 255
225 238 255
225 238 255
225 238 255
225 238 255
225 238 255
225 238 255
225 238 255
225 238 255
225 238 255
225 238 255
225 238 255
225 238 255
225 238 255
225 238 255
225 238 255
225 238 255
225 238 255
225 238 255
225 238 255
225 238 255
225 238 255
225 238 255
225 238 255
225 238 255
225 238 255
225 238 255
225 238 255
225 238 255
225 238 255
225 238 255
225 238 255
225 238 255
225 238 255
225 238 255
225 238 255
225 238 255
225 238 255
225 238 255
225 238 255
225 238 255
225 238 255
225 238 255
225 238 255
225 238 255
225 238 255
225 238 255
225 238 255
225 238 255
225 238 255
225 238 255
225 238 255
225 238 255
225 238 255
225 238 255
225 238 255
225 238 255
225 238 255
225 238 255
225 238 255
225 238 255
225 238 255
225 238 255
225 238 255
225 238 255
225 238 255
225 238 255
225 238 255
225 238 255
225 238 255
225 238 255
225 238 255
225 238 255
225 238 255
225 238 255
225 238 255
225 238 255
225 238 255
225 238 255
225 238 255
225 238 255
225 238 255
225 238 255
225 238 255
225 238 255
225 238 255
225 238 255
225 238 255
225 238 255
225 238 255
225 238 255
225 238 255
225 238 255
225 238 255
225 238 255
225 238 255
225 238 255
225 238 255
225 238 255
225 238 255
225 238 255
225 238 255
225 238 255
225 238 255
225 238 255
225 238 255
225 238 255
225 238 255
225 238 255
225 238 255
225 238 255
225 238 255
225 238 255
225 238 255
225 238 255
225 238 255
225 238 255
225 238 255
225 238 255
225 238 255
225 238 255
225 238 255
225 238 255
225 238 255
225 238 255
225 238 255
225 238 255
225 238 255
225 238 255
225 238 255
225 238 255
225 238 255
225 238 255
225 238 255
225 238 255
225 238 255
225 238 255
225 238 255
225 238 255
225 238 255
225 238 255
225 238 255
225 238 255
225 238 255
225 238 255
225 238 255
225 238 255
225 238 255
225 238 255
225 238 255
225 238 255
225 238 255
225 238 255
225 238 255
225 238 255
225 238 255
225 238 255
225 238 255
225 238 255
225 238 255
225 238 255
225 238 255
225 238 255
225 238 255
225 238 255
225 238 255
225 238 255
225 238 255
225 238 255
225 238 255
225 238 255
225 238 255
225 238 255
225 238 255
225 238 255
225 238 255
225 238 255
225 238 255
225 238 255
225 238 255
225 238 255
225 238 255
225 238 255
225 238 255
225 238 255
225 238 255
225 238 255
225 238 255
225 238 255
225 238 255
225 238 255
225 238 255
225 238 255
225 238 255
225 238 255
225 238 255
225 238 255
225 238 255
225 238 255
225 238 255
225 238 255
225 238 255
186 197 221
23 35 121
10 23 119
8 22 118
9 21 118
3 21 117
0 21 116
0 20 116
0 23 117
5 22 116
7 22 116
0 21 116
0 18 116
0 11 115
0 10 115
0 19 116
0 21 116
0 21 116
0 20 116
0 19 116
0 19 116
0 21 116
0 21 116
0 21 116
12 17 116
4 21 116
9 23 117
9 25 117
0 22 116
0 21 116
3 20 116
13 15 116
3 3 115
4 4 115
14 15 116
13 14 114
0 0 113
5 5 113
12 15 114
0 20 116
0 17 116
3 4 115
0 0 113
0 0 113
0 0 113
0 0 113
13 13 114
6 20 116
0 20 116
0 14 114
0 0 113
10 0 113
6 0 113
0 0 113
0 0 115
10 13 115
4 7 115
8 8 115
12 13 116
11 12 116
11 11 116
0 0 115
0 0 115
0 0 115
0 0 115
0 7 114
0 11 113
0 11 114
0 15 116
0 15 116
0 19 116
0 21 116
0 21 116
0 19 117
0 18 117
0 16 116
0 15 115
0 16 115
0 19 116
0 19 116
0 21 116
0 21 116
0 21 116
0 21 116
0 22 117
0 26 119
0 26 119
3 26 120
7 29 120
8 26 120
11 23 119
8 24 119
0 26 119
8 28 120
7 31 121
13 33 123
7 33 124
2 33 124
15 42 127
17 46 130
5 51 133
12 56 135
14 58 139
18 61 142
15 64 139
0 77 143
22 82 157
24 75 148
69 96 109
105 121 83
108 120 81
198 204 211
200 202 203
171 168 154
157 149 129
149 144 122
148 145 124
138 137 112
148 145 122
142 140 114
136 137 111
136 138 114
134 140 104
135 136 107
133 141 111
139 149 108
130 142 100
125 139 100
128 138 101
121 134 99
111 133 104
71 121 146
16 91 160
12 74 148
9 65 141
17 56 136
9 53 130
1 54 132
8 56 135
14 56 135
9 53 134
10 53 133
14 54 134
0 50 132
5 51 131
0 54 134
5 55 135
5 51 133
12 51 133
12 54 135
13 53 134
14 48 131
5 51 132
11 53 133
13 51 132
9 48 131
10 51 133
7 50 132
12 53 133
177 190 218
225 238 255
225 238 255
225 238 255
225 238 255
225 238 255
225 238 255
225 238 255
225 238 255
225 238 255
225 238 255
225 238 255
225 238 255
225 238 255
225 238 255
225 238 255
225 238 255
225 238 255
225 238 255
225 238 255
225 238 255
225 238 255
225 238 255
225 238 255
225 238 255
225 238 255
225 238 255
225 238 255
225 238 255
225 238 255
225 238 255
225 238 255
225 238 255
225 238 255
225 238 255
225 238 255
225 238 255
225 238 255
225 238 255
225 238 255
225 238 255
225 238 255
225 238 255
225 238 255
225 238 255
225 238 255
225 238 255
225 238 255
225 238 255
225 238 255
225 238 255
225 238 255
225 238 255
225 238 255
225 238 255
225 238 255
225 238 255
225 238 255
225 238 255
225 238 255
225 238 255
225 238 255
225 238 255
225 238 255
225 238 255
225 238 255
225 238 255
225 238 255
225 238 255
225 238 255
225 238 255
225 238 255
225 238 255
225 238 255
225 238 255
225 238 255
225 238 255
225 238 255
225 238 255
225 238 255
225 238 255
225 238 255
225 238 255
225 238 255
225 238 255
225 238 255
225 238 255
225 238 255
225 238 255
225 238 255
225 238 255
225 238 255
225 238 255
225 238 255
225 238 255
225 238 255
225 238 255
225 238 255
225 238 255
225 238 255
225 238 255
225 238 255
225 238 255
225 238 255
225 238 255
225 238 255
225 238 255
225 238 255
225 238 255
225 238 255
225 238 255
225 238 255
225 238 255
225 238 255
225 238 255
225 238 255
225 238 255
225 238 255
225 238 255
225 238 255
225 238 255
225 238 255
225 238 255
225 238 255
225 238 255
225 238 255
225 238 255
225 238 255
225 238 255
225 238 255
225 238 255
225 238 255
225 238 255
225 238 255
225 238 255
225 238 255
225 238 255
225 238 255
225 238 255
225 238 255
225 238 255
225 238 255
225 238 255
225 238 255
225 238 255
225 238 255
225 238 255
225 238 255
225 238 255
225 238 255
225 238 255
225 238 255
225 238 255
225 238 255
225 238 255
225 238 255
225 238 255
225 238 255
225 238 255
225 238 255
225 238 255
225 238 255
225 238 255
225 238 255
225 238 255
225 238 255
225 238 255
225 238 255
225 238 255
225 238 255
225 238 255
225 238 255
225 238 255
225 238 255
225 238 255
225 238 255
225 238 255
225 238 255
225 238 255
225 238 255
225 238 255
225 238 255
225 238 255
225 238 255
225 238 255
225 238 255
225 238 255
225 238 255
225 238 255
225 238 255
225 238 255
225 238 255
225 238 255
225 238 255
225 238 255
225 238 255
225 238 255
225 238 255
225 238 255
225 238 255
225 238 255
225 238 255
225 238 255
225 238 255
225 238 255
225 238 255
225 238 255
225 238 255
225 238 255
225 238 255
225 238 255
225 238 255
225 238 255
225 238 255
225 238 255
225 238 255
225 238 255
225 238 255
225 238 255
225 238 255
225 238 255
225 238 255
225 238 255
225 238 255
225 238 255
225 238 255
225 238 255
225 238 255
225 238 255
225 238 255
225 238 255
225 238 255
225 238 255
225 238 255
225 238 255
225 238 255
225 238 255
225 238 255
225 238 255
225 238 255
225 238 255
225 238 255
169 179 208
7 25 119
0 24 119
1 24 118
0 21 116
0 21 116
0 21 116
0 22 117
5 25 117
6 22 116
0 16 117
8 19 116
13 19 117
5 19 117
4 16 116
0 21 116
0 21 116
0 21 116
0 21 116
0 21 116
0 21 116
0 21 116
0 21 116
9 19 116
10 18 116
1 21 116
13 25 117
3 22 116
0 21 116
0 21 116
9 19 116
9 9 116
0 0 115
10 11 116
14 15 115
14 14 115
6 7 114
3 4 114
1 18 116
0 21 116
12 15 116
10 10 114
0 0 113
0 0 113
0 0 113
11 11 114
12 17 115
0 21 116
0 18 115
0 0 113
0 0 113
0 0 113
4 4 113
2 11 115
0 21 116
0 14 115
6 7 115
14 15 116
13 14 116
0 0 115
0 0 115
0 0 115
0 0 115
0 0 115
0 0 115
0 0 115
0 0 115
0 0 115
0 0 115
0 16 116
0 21 116
0 21 116
0 21 116
0 21 116
0 20 116
0 20 116
0 20 116
0 20 116
0 20 116
0 21 116
0 21 116
0 21 116
0 21 116
0 22 116
0 25 117
0 25 118
2 26 119
2 28 120
10 26 120
6 25 119
0 26 119
0 26 119
6 29 120
0 31 122
2 33 123
0 33 124
0 34 124
8 40 126
13 44 128
0 49 130
0 54 134
4 58 138
15 59 140
17 60 144
9 78 151
18 86 155
57 95 101
88 108 64
102 114 75
156 164 155
194 197 197
158 153 134
160 151 131
167 156 136
157 150 127
148 143 122
145 143 122
141 140 116
131 133 106
126 133 103
134 138 110
131 141 105
138 146 113
142 144 108
135 141 110
129 137 102
130 136 102
127 134 104
109 131 114
63 109 143
19 80 150
15 66 147
9 64 141
12 58 137
14 54 133
0 51 131
12 52 134
12 54 135
6 58 137
9 56 136
7 52 133
7 52 134
6 51 132
8 55 135
3 56 136
8 53 134
10 53 133
8 51 132
11 59 137
12 59 139
4 58 137
11 59 137
12 57 136
15 54 135
8 55 136
7 52 134
7 54 135
169 181 211
225 238 255
225 238 255
225 238 255
225 238 255
225 238 255
225 238 255
225 238 255
225 238 255
225 238 255
225 238 255
225 238 255
225 238 255
225 238 255
225 238 255
225 238 255
225 238 255
225 238 255
225 238 255
225 238 255
225 238 255
225 238 255
225 238 255
225 238 255
225 238 255
225 238 255
225 238 255
225 238 255
225 238 255
225 238 255
225 238 255
225 238 255
225 238 255
225 238 255
225 238 255
225 238 255
225 238 255
225 238 255
225 238 255
225 238 255
225 238 255
225 238 255
225 238 255
225 238 255
225 238 255
225 238 255
225 238 255
225 238 255
225 238 255
225 238 255
225 238 255
225 238 255
225 238 255
225 238 255
225 238 255
225 238 255
225 238 255
225 238 255
225 238 255
225 238 255
225 238 255
225 238 255
225 238 255
225 238 255
225 238 255
225 238 255
225 238 255
225 238 255
225 238 255
225 238 255
225 238 255
225 238 255
225 238 255
225 238 255
225 238 255
225 238 255
225 238 255
225 238 255
225 238 255
225 238 255
225 238 255
225 238 255
225 238 255
225 238 255
225 238 255
225 238 255
225 238 255
225 238 255
225 238 255
225 238 255
225 238 255
225 238 255
225 238 255
225 238 255
225 238 255
225 238 255
225 238 255
225 238 255
225 238 255
225 238 255
225 238 255
225 238 255
225 238 255
225 238 255
225 238 255
225 238 255
225 238 255
225 238 255
225 238 255
225 238 255
225 238 255
225 238 255
225 238 255
225 238 255
225 238 255
225 238 255
225 238 255
225 238 255
225 238 255
225 238 255
225 238 255
225 238 255
225 238 255
225 238 255
225 238 255
225 238 255
225 238 255
225 238 255
225 238 255
225 238 255
225 238 255
225 238 255
225 238 255
225 238 255
225 238 255
225 238 255
225 238 255
225 238 255
225 238 255
225 238 255
225 238 255
225 238 255
225 238 255
225 238 255
225 238 255
225 238 255
225 238 255
225 238 255
225 238 255
225 238 255
225 238 255
225 238 255
225 238 255
225 238 255
225 238 255
225 238 255
225 238 255
225 238 255
225 238 255
225 238 255
225 238 255
225 238 255
225 238 255
225 238 255
225 238 255
225 238 255
225 238 255
225 238 255
225 238 255
225 238 255
225 238 255
225 238 255
225 238 255
225 238 255
225 238 255
225 238 255
225 238 255
225 238 255
225 238 255
225 238 255
225 238 255
225 238 255
225 238 255
225 238 255
225 238 255
225 238 255
225 238 255
225 238 255
225 238 255
225 238 255
225 238 255
225 238 255
225 238 255
225 238 255
225 238 255
225 238 255
225 238 255
225 238 255
225 238 255
225 238 255
225 238 255
225 238 255
225 238 255
225 238 255
225 238 255
225 238 255
225 238 255
225 238 255
225 238 255
225 238 255
225 238 255
225 238 255
225 238 255
225 238 255
225 238 255
225 238 255
225 238 255
225 238 255
225 238 255
225 238 255
225 238 255
225 238 255
225 238 255
225 238 255
225 238 255
225 238 255
225 238 255
225 238 255
225 238 255
225 238 255
225 238 255
225 238 255
225 238 255
225 238 255
225 238 255
225 238 255
225 238 255
225 238 255
225 238 255
225 238 255
225 238 255
225 238 255
225 238 255
225 238 255
172 182 210
7 25 120
11 28 121
9 24 119
3 21 116
4 22 116
0 21 116
0 22 118
7 26 118
9 21 118
8 21 118
8 18 117
11 21 117
14 24 118
13 21 117
0 21 116
0 21 116
0 20 116
0 21 116
0 21 116
0 18 116
0 18 116
0 19 117
11 18 117
3 21 116
8 23 117
10 25 117
0 23 117
0 21 116
2 21 116
13 15 116
2 2 115
6 6 115
13 13 116
10 11 116
14 14 116
11 11 116
0 12 115
0 21 116
9 18 116
11 11 115
2 2 114
0 0 115
0 0 115
5 5 115
13 16 116
0 21 116
0 21 116
0 6 113
0 0 113
0 0 113
9 10 113
8 19 115
0 21 116
0 16 116
14 15 116
20 21 117
19 20 117
11 11 116
8 8 115
9 9 116
8 9 116
7 8 115
7 9 115
0 11 115
0 11 115
0 11 115
0 10 115
0 15 116
0 21 116
0 21 116
0 21 116
0 21 116
0 21 116
0 21 116
0 21 116
0 21 116
0 21 116
0 21 116
0 21 116
0 21 116
0 21 116
0 21 116
0 21 116
0 21 117
0 23 119
0 26 119
11 23 119
4 26 119
0 26 119
10 28 120
11 32 121
11 36 124
6 34 124
0 37 125
13 42 127
14 43 127
9 42 127
0 46 129
0 48 132
14 54 135
15 58 134
24 60 142
24 85 149
33 81 150
76 99 81
103 115 70
105 115 77
160 168 165
170 170 160
160 154 130
161 148 126
162 153 132
156 150 127
144 139 117
140 138 118
137 137 115
133 138 112
125 133 100
119 127 98
129 141 104
131 149 115
137 146 112
129 138 112
111 131 127
82 118 137
67 101 155
29 90 154
19 78 153
6 72 146
7 65 142
21 59 138
10 53 134
9 51 132
12 48 131
14 51 134
10 56 136
11 62 140
13 61 140
5 55 135
8 53 135
9 57 137
2 58 137
16 59 138
13 60 138
4 58 136
3 61 140
6 66 143
3 65 143
2 61 141
11 62 140
7 59 138
5 59 138
11 60 138
12 58 136
161 173 204
225 238 255
225 238 255
225 238 255
225 238 255
225 238 255
225 238 255
225 238 255
225 238 255
225 238 255
225 238 255
225 238 255
225 238 255
225 238 255
225 238 255
225 238 255
225 238 255
225 238 255
225 238 255
225 238 255
225 238 255
225 238 255
225 238 255
225 238 255
225 238 255
225 238 255
225 238 255
225 238 255
225 238 255
225 238 255
225 238 255
225 238 255
225 238 255
225 238 255
225 238 255
225 238 255
225 238 255
225 238 255
225 238 255
225 238 255
225 238 255
225 238 255
225 238 255
225 238 255
225 238 255
225 238 255
225 238 255
225 238 255
225 238 255
225 238 255
225 238 255
225 238 255
225 238 255
225 238 255
225 238 255
225 238 255
225 238 255
225 238 255
225 238 255
225 238 255
225 238 255
225 238 255
225 238 255
225 238 255
225 238 255
225 238 255
225 238 255
225 238 255
225 238 255
225 238 255
225 238 255
225 238 255
225 238 255
225 238 255
225 238 255
225 238 255
225 238 255
225 238 255
225 238 255
225 238 255
225 238 255
225 238 255
225 238 255
225 238 255
225 238 255
225 238 255
225 238 255
225 238 255
225 238 255
225 238 255
225 238 255
225 238 255
225 238 255
225 238 255
225 238 255
225 238 255
225 238 255
225 238 255
225 238 255
225 238 255
225 238 255
225 238 255
225 238 255
225 238 255
225 238 255
225 238 255
225 238 255
225 238 255
225 238 255
225 238 255
225 238 255
225 238 255
225 238 255
225 238 255
225 238 255
225 238 255
225 238 255
225 238 255
225 238 255
225 238 255
225 238 255
225 238 255
225 238 255
225 238 255
225 238 255
225 238 255
225 238 255
225 238 255
225 238 255
225 238 255
225 238 255
225 238 255
225 238 255
225 238 255
225 238 255
225 238 255
225 238 255
225 238 255
225 238 255
225 238 255
225 238 255
225 238 255
225 238 255
225 238 255
225 238 255
225 238 255
225 238 255
225 238 255
225 238 255
225 238 255
225 238 255
225 238 255
225 238 255
225 238 255
225 238 255
225 238 255
225 238 255
225 238 255
225 238 255
225 238 255
225 238 255
225 238 255
225 238 255
225 238 255
225 238 255
225 238 255
225 238 255
225 238 255
225 238 255
225 238 255
225 238 255
225 238 255
225 238 255
225 238 255
225 238 255
225 238 255
225 238 255
225 238 255
225 238 255
225 238 255
225 238 255
225 238 255
225 238 255
225 238 255
225 238 255
225 238 255
225 238 255
225 238 255
225 238 255
225 238 255
225 238 255
225 238 255
225 238 255
225 238 255
225 238 255
225 238 255
225 238 255
225 238 255
225 238 255
225 238 255
225 238 255
225 238 255
225 238 255
225 238 255
225 238 255
225 238 255
225 238 255
225 238 255
225 238 255
225 238 255
225 238 255
225 238 255
225 238 255
225 238 255
225 238 255
225 238 255
225 238 255
225 238 255
225 238 255
225 238 255
225 238 255
225 238 255
225 238 255
225 238 255
225 238 255
225 238 255
225 238 255
225 238 255
225 238 255
225 238 255
225 238 255
225 238 255
225 238 255
225 238 255
225 238 255
225 238 255
225 238 255
225 238 255
225 238 255
225 238 255
225 238 255
225 238 255
226 238 255
225 238 255
225 238 255
225 238 255
159 170 201
7 28 120
13 30 122
12 27 121
10 25 117
13 25 117
6 22 116
9 27 119
9 29 120
10 24 120
7 24 119
9 24 120
11 22 118
8 22 116
1 21 117
0 21 117
0 20 117
0 21 116
0 21 116
0 21 116
11 24 117
13 20 119
13 21 119
2 21 116
0 19 118
10 28 121
12 26 118
9 23 117
0 20 116
6 15 116
6 6 115
9 10 116
13 14 116
7 10 115
8 9 115
12 12 116
7 9 115
0 18 116
0 15 115
0 4 115
0 0 113
0 0 115
0 0 115
0 0 115
13 14 116
7 20 116
0 21 116
0 12 114
0 0 113
0 3 113
6 11 113
6 21 115
5 22 116
0 17 116
1 2 115
5 5 115
5 6 115
3 3 115
11 11 115
14 15 116
14 15 116
14 15 116
14 15 116
2 21 116
0 21 116
0 21 116
0 21 116
0 21 116
0 21 116
0 21 116
0 21 116
0 21 116
0 21 116
0 21 116
0 21 116
0 21 116
0 21 116
0 21 116
0 21 116
0 21 116
0 21 116
0 21 116
0 21 116
0 19 117
4 19 118
2 25 119
10 24 119
0 26 119
4 26 120
13 29 120
12 35 122
4 32 123
0 35 124
1 38 125
9 41 126
14 45 128
5 47 129
7 46 130
3 48 132
14 57 136
15 63 139
17 62 149
8 68 148
39 77 147
92 115 81
115 126 90
124 135 113
185 190 193
176 175 165
159 153 130
162 153 135
158 152 131
149 145 122
140 138 115
137 136 114
133 133 110
132 133 108
125 131 104
123 128 98
141 144 105
93 149 156
32 110 164
21 92 158
23 90 159
14 87 156
12 79 151
20 74 149
10 74 148
10 66 143
16 61 140
17 61 139
5 58 136
10 55 131
4 53 132
13 56 136
3 61 139
16 66 142
13 65 141
11 61 140
16 60 139
8 55 136
4 59 139
5 61 139
8 62 140
7 64 142
9 67 144
6 67 145
5 64 142
0 64 142
6 63 140
8 62 140
6 61 139
9 59 137
156 169 201
226 238 255
225 238 255
225 238 255
225 238 255
225 238 255
225 238 255
225 238 255
225 238 255
225 238 255
225 238 255
225 238 255
225 238 255
225 238 255
225 238 255
225 238 255
225 238 255
225 238 255
225 238 255
225 238 255
225 238 255
225 238 255
225 238 255
225 238 255
225 238 255
225 238 255
225 238 255
225 238 255
225 238 255
225 238 255
225 238 255
225 238 255
225 238 255
225 238 255
225 238 255
225 238 255
225 238 255
225 238 255
225 238 255
225 238 255
225 238 255
225 238 255
225 238 255
225 238 255
225 238 255
225 238 255
225 238 255
225 238 255
225 238 255
225 238 255
225 238 255
225 238 255
225 238 255
225 238 255
225 238 255
225 238 255
225 238 255
225 238 255
225 238 255
225 238 255
225 238 255
225 238 255
225 238 255
225 238 255
225 238 255
225 238 255
225 238 255
225 238 255
225 238 255
225 238 255
225 238 255
225 238 255
225 238 255
225 238 255
225 238 255
225 238 255
225 238 255
225 238 255
225 238 255
225 238 255
225 238 255
225 238 255
225 238 255
225 238 255
225 238 255
225 238 255
225 238 255
225 238 255
225 238 255
225 238 255
225 238 255
225 238 255
225 238 255
225 238 255
225 238 255
225 238 255
225 238 255
225 238 255
225 238 255
225 238 255
225 238 255
225 238 255
225 238 255
225 238 255
225 238 255
225 238 255
225 238 255
225 238 255
225 238 255
225 238 255
225 238 255
225 238 255
225 238 255
225 238 255
225 238 255
225 238 255
225 238 255
225 238 255
225 238 255
225 238 255
225 238 255
225 238 255
225 238 255
225 238 255
225 238 255
225 238 255
225 238 255
225 238 255
225 238 255
225 238 255
225 238 255
225 238 255
225 238 255
225 238 255
225 238 255
225 238 255
225 238 255
225 238 255
225 238 255
225 238 255
225 238 255
225 238 255
225 238 255
225 238 255
225 238 255
225 238 255
225 238 255
225 238 255
225 238 255
225 238 255
225 238 255
225 238 255
225 238 255
225 238 255
225 238 255
225 238 255
225 238 255
225 238 255
225 238 255
225 238 255
225 238 255
225 238 255
225 238 255
225 238 255
225 238 255
225 238 255
225 238 255
225 238 255
225 238 255
225 238 255
225 238 255
225 238 255
225 238 255
225 238 255
225 238 255
225 238 255
225 238 255
225 238 255
225 238 255
225 238 255
225 238 255
225 238 255
225 238 255
225 238 255
225 238 255
225 238 255
225 238 255
225 238 255
225 238 255
225 238 255
225 238 255
225 238 255
225 238 255
225 238 255
225 238 255
226 238 255
226 238 255
226 238 255
226 238 255
226 238 255
226 238 255
226 238 255
226 238 255
226 238 255
226 238 255
226 238 255
226 238 255
226 238 255
226 238 255
226 238 255
226 238 255
226 238 255
226 238 255
226 238 255
226 238 255
226 238 255
226 238 255
226 238 255
226 238 255
226 238 255
226 238 255
226 238 255
226 238 255
226 238 255
226 238 255
226 238 255
226 238 255
226 238 255
226 238 255
226 238 255
226 238 255
226 238 255
226 238 255
226 238 255
226 238 255
226 238 255
226 238 255
226 238 255
226 238 255
226 238 255
226 238 255
226 238 255
226 238 255
226 238 255
226 238 255
226 238 255
226 238 255
226 238 255
163 173 203
13 29 120
17 34 123
6 29 121
5 24 119
5 22 117
6 23 116
11 32 121
10 29 120
10 28 120
10 30 122
6 32 123
2 29 120
7 25 118
8 25 119
4 26 119
7 26 119
0 22 117
0 21 117
2 18 117
3 14 118
7 12 118
2 19 117
0 20 116
0 23 118
12 28 119
13 25 117
0 21 116
3 21 116
11 19 116
11 17 116
6 13 115
1 13 115
0 12 115
0 0 115
0 0 115
0 0 115
0 0 115
0 0 115
0 0 115
0 0 115
0 0 115
0 0 115
5 5 115
3 9 115
0 11 114
4 10 114
11 11 113
10 13 113
5 20 115
8 19 115
7 19 116
5 20 116
10 18 116
4 15 116
0 13 115
0 11 115
8 14 116
13 16 116
12 17 116
13 16 116
13 16 116
4 21 116
0 21 116
0 21 116
0 21 116
0 21 116
0 21 116
0 21 116
0 21 116
0 21 116
0 21 116
0 21 116
0 21 116
0 21 116
3 21 116
0 21 116
0 21 116
0 21 116
0 21 116
3 21 116
4 21 117
10 20 118
14 21 119
6 25 119
10 23 119
0 26 119
10 28 120
16 31 121
14 35 122
1 35 124
11 41 125
7 40 126
20 46 128
16 52 131
11 52 132
5 48 132
1 49 132
12 58 136
10 59 141
13 68 138
11 63 135
40 79 143
93 113 77
103 120 85
135 142 132
153 151 146
150 148 122
152 148 125
150 143 121
158 152 131
157 152 129
144 142 122
140 138 120
133 135 110
129 131 107
121 128 100
126 133 104
118 145 132
44 126 168
18 87 157
7 84 155
13 89 156
15 85 154
5 76 149
17 76 149
7 65 141
2 60 139
9 63 141
1 66 143
14 60 138
7 49 131
6 55 135
0 62 139
2 65 140
9 63 141
1 66 143
8 64 143
12 63 141
2 63 140
9 63 140
7 62 141
7 64 141
8 65 142
2 66 143
1 66 143
7 66 143
11 65 142
9 60 138
8 60 139
10 58 137
167 180 210
226 238 255
226 238 255
226 238 255
226 238 255
226 238 255
226 238 255
226 238 255
226 238 255
226 238 255
226 238 255
226 238 255
226 238 255
226 238 255
226 238 255
226 238 255
226 238 255
226 238 255
226 238 255
226 238 255
226 238 255
226 238 255
226 238 255
226 238 255
226 238 255
226 238 255
226 238 255
226 238 255
226 238 255
226 238 255
226 238 255
226 238 255
226 238 255
226 238 255
226 238 255
226 238 255
226 238 255
226 238 255
226 238 255
226 238 255
226 238 255
226 238 255
226 238 255
226 238 255
226 238 255
226 238 255
226 238 255
226 238 255
226 238 255
226 238 255
226 238 255
226 238 255
226 238 255
226 238 255
225 238 255
226 238 255
225 238 255
225 238 255
225 238 255
225 238 255
225 238 255
225 238 255
225 238 255
225 238 255
225 238 255
225 238 255
225 238 255
225 238 255
225 238 255
225 238 255
225 238 255
225 238 255
225 238 255
225 238 255
225 238 255
225 238 255
225 238 255
225 238 255
225 238 255
225 238 255
225 238 255
225 238 255
225 238 255
225 238 255
225 238 255
225 238 255
225 238 255
225 238 255
225 238 255
225 238 255
225 238 255
225 238 255
225 238 255
225 238 255
225 238 255
225 238 255
225 238 255
225 238 255
225 238 255
225 238 255
225 238 255
225 238 255
225 238 255
225 238 255
225 238 255
225 238 255
225 238 255
225 238 255
225 238 255
225 238 255
225 238 255
225 238 255
225 238 255
225 238 255
225 238 255
225 238 255
225 238 255
225 238 255
225 238 255
225 238 255
225 238 255
225 238 255
225 238 255
225 238 255
225 238 255
225 238 255
225 238 255
225 238 255
225 238 255
225 238 255
225 238 255
225 238 255
225 238 255
225 238 255
225 238 255
225 238 255
225 238 255
225 238 255
225 238 255
225 238 255
225 238 255
225 238 255
225 238 255
225 238 255
225 238 255
225 238 255
225 238 255
225 238 255
225 238 255
225 238 255
225 238 255
225 238 255
225 238 255
225 238 255
225 238 255
225 238 255
226 238 255
225 238 255
226 238 255
226 238 255
226 238 255
226 238 255
226 238 255
226 238 255
226 238 255
226 238 255
226 238 255
226 238 255
226 238 255
226 238 255
226 238 255
226 238 255
226 238 255
226 238 255
226 238 255
226 238 255
226 238 255
226 238 255
226 238 255
226 238 255
226 238 255
226 238 255
226 238 255
226 238 255
226 238 255
226 238 255
226 238 255
226 238 255
226 238 255
226 238 255
226 238 255
226 238 255
226 238 255
226 238 255
226 238 255
226 238 255
226 238 255
226 238 255
226 238 255
226 238 255
226 238 255
226 238 255
226 238 255
226 238 255
226 238 255
226 238 255
226 238 255
226 238 255
226 238 255
226 238 255
226 238 255
226 238 255
226 238 255
226 238 255
226 238 255
226 238 255
226 238 255
226 238 255
226 238 255
226 238 255
226 238 255
226 238 255
226 238 255
226 238 255
226 238 255
226 238 255
226 238 255
226 238 255
226 238 255
226 238 255
226 238 255
226 238 255
226 238 255
226 238 255
226 238 255
226 238 255
226 238 255
226 238 255
226 238 255
226 238 255
226 238 255
226 238 255
226 238 255
226 238 255
226 238 255
226 238 255
226 238 255
226 238 255
226 238 255
226 238 255
157 166 197
11 29 121
8 34 124
5 29 121
8 29 121
6 24 118
2 23 118
5 31 121
9 30 120
11 31 122
11 38 125
10 41 126
5 32 123
14 30 121
17 33 122
13 29 120
3 26 119
0 22 118
0 24 119
8 19 119
12 19 119
2 19 116
0 21 116
0 21 116
0 23 117
14 26 117
5 22 116
7 22 116
14 26 117
8 23 117
0 20 116
0 15 115
0 15 115
0 6 115
0 0 115
0 0 115
4 4 115
2 2 115
0 0 115
0 0 115
0 0 115
0 0 115
0 0 115
0 0 115
0 0 114
0 0 114
10 10 114
14 15 115
3 21 116
0 18 116
0 17 115
2 20 116
3 22 116
0 21 116
0 21 116
0 21 116
0 21 116
0 21 116
0 21 116
0 21 116
0 21 116
0 21 116
0 21 116
0 21 116
0 21 116
0 21 116
0 21 116
0 21 116
0 21 116
0 21 116
0 21 116
0 21 116
0 21 116
2 21 116
9 23 117
0 21 116
0 21 116
0 21 116
0 21 116
7 22 118
9 24 119
9 24 119
10 24 119
12 25 120
5 26 120
6 27 120
14 30 121
17 32 121
17 34 122
11 36 124
8 39 125
5 40 126
5 44 127
7 51 133
3 52 133
0 50 133
10 53 134
15 54 139
12 60 137
5 60 145
23 66 132
70 100 76
103 122 81
110 127 116
160 164 161
139 133 104
148 141 116
150 141 118
155 144 122
159 148 125
153 145 124
152 146 120
146 141 116
129 135 117
126 137 105
127 135 102
127 137 115
65 118 153
11 87 156
13 90 158
9 93 159
18 88 156
4 84 153
15 80 150
11 66 143
15 65 142
9 62 141
7 68 144
0 67 144
14 54 136
15 57 138
6 65 141
0 67 141
8 66 141
5 66 142
8 65 141
14 65 143
0 66 142
6 62 139
11 64 141
18 70 144
8 66 143
8 68 144
9 65 143
7 64 142
10 61 139
11 56 136
8 59 137
11 58 137
167 180 210
226 238 255
226 238 255
226 238 255
226 238 255
226 238 255
226 238 255
226 238 255
226 238 255
226 238 255
226 238 255
226 238 255
226 238 255
226 238 255
226 238 255
226 238 255
226 238 255
226 238 255
226 238 255
226 238 255
226 238 255
226 238 255
226 238 255
226 238 255
226 238 255
226 238 255
226 238 255
226 238 255
226 238 255
226 238 255
226 238 255
226 238 255
226 238 255
226 238 255
226 238 255
226 238 255
226 238 255
226 238 255
226 238 255
226 238 255
226 238 255
226 238 255
226 238 255
226 238 255
226 238 255
226 238 255
226 238 255
226 238 255
226 238 255
226 238 255
226 238 255
226 238 255
226 238 255
226 238 255
226 238 255
226 238 255
226 238 255
226 238 255
226 238 255
226 238 255
226 238 255
226 238 255
226 238 255
226 238 255
226 238 255
226 238 255
226 238 255
226 238 255
226 238 255
226 238 255
226 238 255
226 238 255
226 238 255
226 238 255
226 238 255
226 238 255
226 238 255
226 238 255
226 238 255
226 238 255
226 238 255
226 238 255
226 238 255
226 238 255
226 238 255
226 238 255
226 238 255
226 238 255
226 238 255
226 238 255
226 238 255
226 238 255
226 238 255
226 238 255
225 238 255
225 238 255
225 238 255
225 238 255
225 238 255
225 238 255
225 238 255
225 238 255
225 238 255
225 238 255
225 238 255
225 238 255
225 238 255
225 238 255
225 238 255
225 238 255
225 238 255
225 238 255
225 238 255
225 238 255
225 238 255
225 238 255
225 238 255
225 238 255
225 238 255
225 238 255
225 238 255
225 238 255
225 238 255
225 238 255
225 238 255
225 238 255
226 238 255
226 238 255
225 238 255
226 238 255
226 238 255
226 238 255
226 238 255
226 238 255
226 238 255
226 238 255
226 238 255
226 238 255
226 238 255
226 238 255
226 238 255
226 238 255
226 238 255
226 238 255
226 238 255
226 238 255
226 238 255
226 238 255
226 238 255
226 238 255
226 238 255
226 238 255
226 238 255
226 238 255
226 238 255
226 238 255
226 238 255
226 238 255
226 238 255
226 238 255
226 238 255
226 238 255
226 238 255
226 238 255
226 238 255
226 238 255
226 238 255
226 238 255
226 238 255
226 238 255
226 238 255
226 238 255
226 238 255
226 238 255
226 238 255
226 238 255
226 238 255
226 238 255
226 238 255
226 238 255
226 238 255
226 238 255
226 238 255
226 238 255
226 238 255
226 238 255
226 238 255
226 238 255
226 238 255
226 238 255
226 238 255
226 238 255
226 238 255
226 238 255
226 238 255
226 238 255
226 238 255
226 238 255
226 238 255
226 238 255
226 238 255
226 238 255
226 238 255
226 238 255
226 238 255
226 238 255
226 238 255
226 238 255
226 238 255
226 238 255
226 238 255
226 238 255
226 238 255
226 238 255
226 238 255
226 238 255
226 238 255
226 238 255
226 238 255
226 238 255
226 238 255
226 238 255
226 238 255
226 238 255
226 238 255
226 238 255
226 238 255
226 238 255
226 238 255
226 238 255
226 238 255
226 238 255
226 238 255
226 238 255
226 238 255
226 238 255
226 238 255
226 238 255
226 238 255
226 238 255
226 238 255
226 238 255
226 238 255
226 238 255
226 238 255
226 238 255
226 238 255
226 238 255
226 238 255
226 238 255
226 238 255
226 238 255
175 185 212
10 32 123
8 35 125
12 33 122
8 32 123
5 26 120
5 26 120
5 33 121
7 28 120
10 29 121
11 42 127
12 39 126
9 37 125
11 39 126
5 33 123
12 26 120
12 28 120
10 27 120
8 25 119
11 23 119
5 22 118
0 21 117
0 21 116
0 21 116
2 22 116
3 20 116
0 21 116
8 23 117
9 23 117
0 21 116
0 21 116
0 19 116
0 12 115
0 0 115
0 0 115
11 11 116
14 15 116
14 14 116
13 14 116
7 18 116
0 19 116
0 19 116
0 18 116
0 12 115
0 12 115
0 11 115
3 12 115
5 17 116
0 21 116
10 24 117
2 21 116
0 18 116
0 21 116
0 21 116
0 21 116
0 21 116
0 21 116
0 21 116
0 21 116
0 21 116
0 21 116
0 21 116
0 21 116
0 21 116
0 21 116
0 21 116
0 21 116
0 21 116
0 21 116
0 20 115
0 21 116
0 21 116
0 21 116
0 21 116
0 19 117
0 18 118
0 18 117
0 19 117
2 22 118
2 26 119
9 28 120
13 30 120
14 30 121
5 31 120
9 33 121
9 33 121
11 35 121
8 35 123
13 36 125
7 39 126
0 39 125
0 43 127
0 48 131
4 50 133
6 53 134
13 55 134
17 56 135
12 62 141
4 65 139
54 84 103
108 128 87
106 126 100
163 176 177
151 153 142
144 136 116
147 140 118
152 144 121
150 142 119
148 141 116
147 138 121
150 147 122
143 139 130
63 79 142
78 96 141
72 111 141
57 102 153
21 85 153
13 86 156
9 89 157
8 88 156
18 83 153
12 73 147
16 64 142
11 69 145
12 68 144
8 62 140
13 75 147
7 66 141
3 62 140
6 65 144
2 68 145
9 67 144
10 67 143
2 66 143
3 65 143
11 64 143
12 66 142
11 63 140
16 69 144
8 71 146
5 66 144
5 60 139
13 62 140
9 60 139
9 53 135
9 59 138
9 60 138
172 185 214
226 238 255
226 238 255
226 238 255
226 238 255
226 238 255
226 238 255
226 238 255
226 238 255
226 238 255
226 238 255
226 238 255
226 238 255
226 238 255
226 238 255
226 238 255
226 238 255
226 238 255
226 238 255
226 238 255
226 238 255
226 238 255
226 238 255
226 238 255
226 238 255
226 238 255
226 238 255
226 238 255
226 238 255
226 238 255
226 238 255
226 238 255
226 238 255
226 238 255
226 238 255
226 238 255
226 238 255
226 238 255
226 238 255
226 238 255
226 238 255
226 238 255
226 238 255
226 238 255
226 238 255
226 238 255
226 238 255
226 238 255
226 238 255
226 238 255
226 238 255
226 238 255
226 238 255
226 238 255
226 238 255
226 238 255
226 238 255
226 238 255
226 238 255
226 238 255
226 238 255
226 238 255
226 238 255
226 238 255
226 238 255
226 238 255
226 238 255
226 238 255
226 238 255
226 238 255
226 238 255
226 238 255
226 238 255
226 238 255
226 238 255
226 238 255
226 238 255
226 238 255
226 238 255
226 238 255
226 238 255
226 238 255
226 238 255
226 238 255
226 238 255
226 238 255
226 238 255
226 238 255
226 238 255
226 238 255
226 238 255
226 238 255
226 238 255
226 238 255
226 238 255
226 238 255
226 238 255
226 238 255
226 238 255
226 238 255
226 238 255
226 238 255
226 238 255
226 238 255
226 238 255
226 238 255
226 238 255
226 238 255
226 238 255
226 238 255
226 238 255
226 238 255
226 238 255
226 238 255
226 238 255
226 238 255
226 238 255
226 238 255
226 238 255
226 238 255
226 238 255
226 238 255
226 238 255
226 238 255
226 238 255
225 238 255
226 238 255
226 238 255
226 238 255
226 238 255
226 238 255
226 238 255
226 238 255
226 238 255
226 238 255
226 238 255
226 238 255
226 238 255
226 238 255
226 238 255
226 238 255
226 238 255
226 238 255
226 238 255
226 238 255
226 238 255
226 238 255
226 238 255
226 238 255
226 238 255
226 238 255
226 238 255
226 238 255
226 238 255
226 238 255
226 238 255
226 238 255
226 238 255
226 238 255
226 238 255
226 238 255
226 238 255
226 238 255
226 238 255
226 238 255
226 238 255
226 238 255
226 238 255
226 238 255
226 238 255
226 238 255
226 238 255
226 238 255
226 238 255
226 238 255
226 238 255
226 238 255
226 238 255
226 238 255
226 238 255
226 238 255
226 238 255
226 238 255
226 238 255
226 238 255
226 238 255
226 238 255
226 238 255
226 238 255
226 238 255
226 238 255
226 238 255
226 238 255
226 238 255
226 238 255
226 238 255
226 238 255
226 238 255
226 238 255
226 238 255
226 238 255
226 238 255
226 238 255
226 238 255
226 238 255
226 238 255
226 238 255
226 238 255
226 238 255
226 238 255
226 238 255
226 238 255
226 238 255
226 238 255
226 238 255
226 238 255
226 238 255
226 238 255
226 238 255
226 238 255
226 238 255
226 238 255
226 238 255
226 238 255
226 238 255
226 238 255
226 238 255
226 238 255
226 238 255
226 238 255
226 238 255
226 238 255
226 238 255
226 238 255
226 238 255
226 238 255
226 238 255
226 238 255
226 238 255
226 238 255
226 238 255
226 238 255
226 238 255
226 238 255
226 238 255
226 238 255
226 238 255
226 238 255
226 238 255
226 238 255
226 238 255
226 238 255
226 238 255
226 238 255
173 184 211
34 48 127
8 39 125
5 35 124
5 31 122
9 27 120
2 30 120
6 36 121
9 28 120
9 29 121
11 44 128
5 37 123
5 42 127
12 44 127
8 36 123
9 29 120
10 28 120
3 25 119
12 28 119
7 27 121
0 26 120
4 22 117
0 21 116
3 22 116
0 22 117
0 20 117
11 18 116
0 21 115
4 21 116
0 21 116
0 21 116
0 17 116
0 11 115
0 11 115
4 10 115
14 16 116
14 15 116
14 15 116
11 18 116
0 21 116
0 21 116
0 21 116
0 20 116
0 20 116
0 21 116
0 21 116
0 21 116
0 21 116
10 24 117
6 22 116
0 21 116
0 21 116
0 21 116
0 21 116
0 21 116
0 21 116
0 21 116
0 21 116
0 21 116
0 21 116
0 21 116
0 21 116
0 21 116
0 21 116
0 21 116
0 21 116
0 21 116
0 21 116
0 20 117
0 19 117
0 18 117
9 20 118
10 21 118
0 20 119
0 20 119
0 22 119
0 21 119
10 26 120
14 30 121
14 30 121
14 30 121
16 32 121
0 34 123
0 34 122
0 35 123
0 35 123
0 33 123
10 36 125
3 40 126
6 42 126
9 46 128
9 48 130
5 50 131
8 51 134
4 53 134
18 63 141
5 65 148
19 67 139
73 107 87
78 113 100
128 146 136
171 176 177
164 162 151
156 147 129
156 148 124
167 160 140
149 142 122
145 140 114
152 143 121
160 149 130
131 132 129
44 77 139
40 92 152
25 85 154
9 82 152
8 81 151
13 84 154
16 82 153
8 76 148
16 65 143
18 69 145
6 77 149
10 75 150
8 69 146
8 68 145
14 65 143
10 69 143
9 68 146
9 69 146
11 70 146
2 67 145
0 66 143
5 66 143
14 69 145
12 65 143
15 71 145
13 83 150
13 71 145
12 67 143
8 61 139
0 59 137
5 60 137
10 60 138
8 57 135
25 66 142
182 195 221
226 238 255
226 238 255
226 238 255
226 238 255
226 238 255
226 238 255
226 238 255
226 238 255
226 238 255
226 238 255
226 238 255
226 238 255
226 238 255
226 238 255
226 238 255
226 238 255
226 238 255
226 238 255
226 238 255
226 238 255
226 238 255
226 238 255
226 238 255
226 238 255
226 238 255
226 238 255
226 238 255
226 238 255
226 238 255
226 238 255
226 238 255
226 238 255
226 238 255
226 238 255
226 238 255
226 238 255
226 238 255
226 238 255
226 238 255
226 238 255
226 238 255
226 238 255
226 238 255
226 238 255
226 238 255
226 238 255
226 238 255
226 238 255
226 238 255
226 238 255
226 238 255
226 238 255
226 238 255
226 238 255
226 238 255
226 238 255
226 238 255
226 238 255
226 238 255
226 238 255
226 238 255
226 238 255
226 238 255
226 238 255
226 238 255
226 238 255
226 238 255
226 238 255
226 238 255
226 238 255
226 238 255
226 238 255
226 238 255
226 238 255
226 238 255
226 238 255
226 238 255
226 238 255
226 238 255
226 238 255
226 238 255
226 238 255
226 238 255
226 238 255
226 238 255
226 238 255
226 238 255
226 238 255
226 238 255
226 238 255
226 238 255
226 238 255
226 238 255
226 238 255
226 238 255
226 238 255
226 238 255
226 238 255
226 238 255
226 238 255
226 238 255
226 238 255
226 238 255
226 238 255
226 238 255
226 238 255
226 238 255
226 238 255
226 238 255
226 238 255
226 238 255
226 238 255
226 238 255
226 238 255
226 238 255
226 238 255
226 238 255
226 238 255
226 238 255
226 238 255
226 238 255
226 238 255
226 238 255
226 238 255
226 238 255
226 238 255
226 238 255
226 238 255
226 238 255
226 238 255
226 238 255
226 238 255
226 238 255
226 238 255
226 238 255
226 238 255
226 238 255
226 238 255
226 238 255
226 238 255
226 238 255
226 238 255
226 238 255
226 238 255
226 238 255
226 238 255
226 238 255
226 238 255
226 238 255
226 238 255
226 238 255
226 238 255
226 238 255
226 238 255
226 238 255
226 238 255
226 238 255
226 238 255
226 238 255
226 238 255
226 238 255
226 238 255
226 238 255
226 238 255
226 238 255
226 238 255
226 238 255
226 238 255
226 238 255
226 238 255
226 238 255
226 238 255
226 238 255
226 238 255
226 238 255
226 238 255
226 238 255
226 238 255
226 238 255
226 238 255
226 238 255
226 238 255
226 238 255
226 238 255
226 238 255
226 238 255
226 238 255
226 238 255
226 238 255
226 238 255
226 238 255
226 238 255
226 238 255
226 238 255
226 238 255
226 238 255
226 238 255
226 238 255
226 238 255
226 238 255
226 238 255
226 238 255
226 238 255
226 238 255
226 238 255
226 238 255
226 238 255
226 238 255
226 238 255
226 238 255
226 238 255
226 238 255
226 238 255
226 238 255
226 238 255
226 238 255
226 238 255
226 238 255
226 238 255
226 238 255
226 238 255
226 238 255
226 238 255
226 238 255
226 238 255
226 238 255
226 238 255
226 238 255
226 238 255
226 238 255
226 238 255
226 238 255
226 238 255
226 238 255
226 238 255
226 238 255
226 238 255
226 238 255
226 238 255
226 238 255
226 238 255
226 238 255
226 238 255
226 238 255
226 238 255
226 238 255
226 238 255
226 238 255
226 238 255
226 238 255
226 238 255
226 238 255
226 238 255
226 238 255
226 238 255
193 204 228
64 79 142
11 44 127
9 33 122
15 31 121
15 29 120
12 32 121
10 33 121
4 29 120
10 34 123
8 40 126
11 36 124
9 39 126
7 39 125
10 34 123
19 33 121
11 28 120
7 26 119
10 28 120
3 32 123
3 26 120
0 22 117
4 22 116
13 26 117
5 25 119
6 20 117
9 24 117
8 25 117
3 22 117
13 25 117
5 21 116
0 19 116
0 21 116
0 21 116
6 22 116
0 21 116
1 21 116
4 21 116
0 21 116
0 21 116
0 21 116
0 21 116
0 21 116
0 21 116
0 21 116
0 21 116
7 23 116
0 20 116
7 21 117
3 19 117
0 17 117
6 21 117
8 22 117
4 21 116
8 23 117
5 22 117
0 24 118
5 24 117
6 22 117
2 21 116
4 22 116
0 21 116
2 21 116
2 21 116
0 21 116
0 21 116
0 21 116
7 19 118
11 20 119
14 21 119
14 21 119
14 21 119
10 28 120
10 28 120
10 28 120
10 28 120
11 30 120
11 32 121
10 33 121
13 35 122
11 35 122
1 34 124
0 33 124
0 33 124
6 35 124
8 35 124
11 37 125
2 38 125
1 40 126
8 44 127
7 43 128
5 46 130
0 50 133
1 55 136
5 68 144
14 70 146
44 85 124
54 95 109
58 97 128
189 201 207
152 150 137
154 147 125
157 150 128
163 154 131
171 164 145
157 150 129
156 148 125
151 143 122
146 144 121
111 118 131
103 122 137
47 89 150
16 70 145
8 76 148
19 83 153
10 80 151
12 67 143
1 64 141
5 73 147
3 81 154
0 81 152
9 73 148
13 70 146
10 65 144
2 71 146
11 76 150
8 70 147
2 69 146
12 73 147
5 67 144
5 64 143
6 68 144
15 71 146
16 68 145
17 72 147
19 72 145
16 67 143
16 65 141
17 67 143
16 59 139
10 64 141
12 61 139
46 74 143
190 203 227
226 238 255
226 238 255
226 238 255
226 238 255
226 238 255
226 238 255
226 238 255
226 238 255
226 238 255
226 238 255
226 238 255
226 238 255
226 238 255
226 238 255
226 238 255
226 238 255
226 238 255
226 238 255
226 238 255
226 238 255
226 238 255
226 238 255
226 238 255
226 238 255
226 238 255
226 238 255
226 238 255
226 238 255
226 238 255
226 238 255
226 238 255
226 238 255
226 238 255
226 238 255
226 238 255
226 238 255
226 238 255
226 238 255
226 238 255
226 238 255
226 238 255
226 238 255
226 238 255
226 238 255
226 238 255
226 238 255
226 238 255
226 238 255
226 238 255
226 238 255
226 238 255
226 238 255
226 238 255
226 238 255
226 238 255
226 238 255
226 238 255
226 238 255
226 238 255
226 238 255
226 238 255
226 238 255
226 238 255
226 238 255
226 238 255
226 238 255
226 238 255
226 238 255
226 238 255
226 238 255
226 238 255
226 238 255
226 238 255
226 238 255
226 238 255
226 238 255
226 238 255
226 238 255
226 238 255
226 238 255
226 238 255
226 238 255
226 238 255
226 238 255
226 238 255
226 238 255
226 238 255
226 238 255
226 238 255
226 238 255
226 238 255
226 238 255
226 238 255
226 238 255
226 238 255
226 238 255
226 238 255
226 238 255
226 238 255
226 238 255
226 238 255
226 238 255
226 238 255
226 238 255
226 238 255
226 238 255
226 238 255
226 238 255
226 238 255
226 238 255
226 238 255
226 238 255
226 238 255
226 238 255
226 238 255
226 238 255
226 238 255
226 238 255
226 238 255
226 238 255
226 238 255
226 238 255
226 238 255
226 238 255
226 238 255
226 238 255
226 238 255
226 238 255
226 238 255
226 238 255
226 238 255
226 238 255
226 238 255
226 238 255
226 238 255
226 238 255
226 238 255
226 238 255
226 238 255
226 238 255
226 238 255
226 238 255
226 238 255
226 238 255
226 238 255
226 238 255
226 238 255
226 238 255
226 238 255
226 238 255
226 238 255
226 238 255
226 238 255
226 238 255
226 238 255
226 238 255
226 238 255
226 238 255
226 238 255
226 238 255
226 238 255
226 238 255
226 238 255
226 238 255
226 238 255
226 238 255
226 238 255
226 238 255
226 238 255
226 238 255
226 238 255
226 238 255
226 238 255
226 238 255
226 238 255
226 238 255
226 238 255
226 238 255
226 238 255
226 238 255
226 238 255
226 238 255
226 238 255
226 238 255
226 238 255
226 238 255
226 238 255
226 238 255
226 238 255
226 238 255
226 238 255
226 238 255
226 238 255
226 238 255
226 238 255
226 238 255
226 238 255
226 238 255
226 238 255
226 238 255
226 238 255
226 238 255
226 238 255
226 238 255
226 238 255
226 238 255
226 238 255
226 238 255
226 238 255
226 238 255
226 238 255
226 238 255
226 238 255
226 238 255
226 238 255
226 238 255
226 238 255
226 238 255
226 238 255
226 238 255
226 238 255
226 238 255
226 238 255
226 238 255
226 238 255
226 238 255
226 238 255
226 238 255
226 238 255
226 238 255
226 238 255
226 238 255
226 238 255
226 238 255
226 238 255
226 238 255
226 238 255
226 238 255
226 238 255
226 238 255
226 238 255
226 238 255
226 238 255
226 238 255
226 238 255
226 238 255
226 238 255
226 238 255
226 238 255
226 238 255
226 238 255
226 238 255
226 238 255
226 238 255
226 238 255
226 238 255
226 238 255
212 224 244
69 85 146
6 48 130
11 35 123
11 29 121
12 31 121
8 32 122
7 33 123
12 31 121
12 33 122
13 40 125
9 37 125
14 36 126
11 35 125
17 33 123
16 28 120
8 27 120
12 28 120
13 33 122
12 36 124
11 30 121
8 23 117
4 22 116
8 24 117
9 22 119
12 22 119
6 30 120
5 28 120
5 25 119
11 25 117
4 21 116
9 23 117
11 24 117
12 25 117
2 21 116
0 21 116
0 21 116
0 21 116
0 21 116
0 21 116
0 21 116
7 22 117
2 20 117
0 17 116
2 21 116
12 22 117
7 22 116
11 23 119
12 24 120
12 24 119
10 23 119
11 24 119
5 21 118
8 22 117
10 26 120
11 34 124
17 34 123
14 25 120
1 21 118
13 29 119
4 20 117
8 19 118
8 23 118
0 21 118
0 23 118
0 24 118
12 28 119
18 32 121
17 31 121
14 30 121
12 29 120
14 30 121
14 30 121
15 30 121
19 33 121
17 31 121
14 30 121
19 33 121
7 34 123
4 34 124
6 33 123
0 33 123
7 35 124
8 39 125
13 42 126
14 43 127
4 40 126
5 40 126
13 43 127
7 45 129
5 49 132
8 56 137
14 65 141
15 72 148
23 72 142
53 96 81
40 75 132
139 154 154
165 175 179
152 146 129
155 147 125
154 148 124
163 154 132
161 152 129
163 154 135
163 156 127
154 146 123
107 122 140
49 90 148
28 71 150
16 78 148
27 83 152
7 81 152
9 68 146
15 64 141
13 56 136
8 76 147
0 81 152
2 78 151
8 78 149
9 73 147
15 71 147
15 70 146
12 73 146
20 74 148
13 70 146
6 70 146
8 68 144
7 66 143
12 68 144
8 71 146
13 69 144
17 66 143
7 69 145
18 71 146
12 68 144
12 74 147
14 66 142
8 67 143
11 62 140
91 106 160
202 214 236
226 238 255
226 238 255
226 238 255
226 238 255
226 238 255
226 238 255
226 238 255
226 238 255
226 238 255
226 238 255
226 238 255
226 238 255
226 238 255
226 238 255
226 238 255
226 238 255
226 238 255
226 238 255
226 238 255
226 238 255
226 238 255
226 238 255
226 238 255
226 238 255
226 238 255
226 238 255
226 238 255
226 238 255
226 238 255
226 238 255
226 238 255
226 238 255
226 238 255
226 238 255
226 238 255
226 238 255
226 238 255
226 238 255
226 238 255
226 238 255
226 238 255
226 238 255
226 238 255
226 238 255
226 238 255
226 238 255
226 238 255
226 238 255
226 238 255
226 238 255
226 238 255
226 238 255
226 238 255
226 238 255
226 238 255
226 238 255
226 238 255
226 238 255
226 238 255
226 238 255
226 238 255
226 238 255
226 238 255
226 238 255
226 238 255
226 238 255
226 238 255
226 238 255
226 238 255
226 238 255
226 238 255
226 238 255
226 238 255
226 238 255
226 238 255
226 238 255
226 238 255
226 238 255
226 238 255
226 238 255
226 238 255
226 238 255
226 238 255
226 238 255
226 238 255
226 238 255
226 238 255
226 238 255
226 238 255
226 238 255
226 238 255
226 238 255
226 238 255
226 238 255
226 238 255
226 238 255
226 238 255
226 238 255
226 238 255
226 238 255
226 238 255
226 238 255
226 238 255
226 238 255
226 238 255
226 238 255
226 238 255
226 238 255
226 238 255
226 238 255
226 238 255
226 238 255
226 238 255
226 238 255
226 238 255
226 238 255
226 238 255
226 238 255
226 238 255
226 238 255
226 238 255
226 238 255
226 238 255
226 238 255
226 238 255
226 238 255
226 238 255
226 238 255
226 238 255
226 238 255
226 238 255
226 238 255
226 238 255
226 238 255
226 238 255
226 238 255
226 238 255
226 238 255
226 238 255
226 238 255
226 238 255
226 238 255
226 238 255
226 238 255
226 238 255
226 238 255
226 238 255
226 238 255
226 238 255
226 238 255
226 238 255
226 238 255
226 238 255
226 238 255
226 238 255
226 238 255
226 238 255
226 238 255
226 238 255
226 238 255
226 238 255
226 238 255
226 238 255
226 238 255
226 238 255
226 238 255
226 238 255
226 238 255
226 238 255
226 238 255
226 238 255
226 238 255
226 238 255
226 238 255
226 238 255
226 238 255
226 238 255
226 238 255
226 238 255
226 238 255
226 238 255
226 238 255
226 238 255
226 238 255
226 238 255
226 238 255
226 238 255
226 238 255
226 238 255
226 238 255
226 238 255
226 238 255
226 238 255
226 238 255
226 238 255
226 238 255
226 238 255
226 238 255
226 238 255
226 238 255
226 238 255
226 238 255
226 238 255
226 238 255
226 238 255
226 238 255
226 238 255
226 238 255
226 238 255
226 238 255
226 238 255
226 238 255
226 238 255
226 238 255
226 238 255
226 238 255
226 238 255
226 238 255
226 238 255
226 238 255
226 238 255
226 238 255
226 238 255
226 238 255
226 238 255
226 238 255
226 238 255
226 238 255
226 238 255
226 238 255
226 238 255
226 238 255
226 238 255
226 238 255
226 238 255
226 238 255
226 238 255
226 238 255
226 238 255
226 238 255
226 238 255
226 238 255
226 238 255
226 238 255
226 238 255
226 238 255
226 238 255
226 238 255
226 238 255
226 238 255
226 238 255
226 238 255
226 238 255
226 238 255
226 238 255
226 238 255
226 238 255
226 238 255
226 238 255
215 228 247
100 114 164
15 51 132
8 38 125
6 35 124
6 40 125
2 34 123
7 35 124
14 37 125
6 34 124
3 34 124
14 42 127
11 46 129
14 42 126
14 37 125
10 30 122
9 30 121
14 34 123
7 37 124
10 31 122
12 24 118
13 26 118
0 20 117
2 19 116
4 18 119
0 26 120
0 32 123
8 31 122
15 30 120
17 28 118
6 25 117
6 25 117
6 26 117
11 26 117
11 24 117
3 22 116
0 21 116
0 19 117
0 18 117
12 23 118
14 24 118
8 17 119
4 19 118
0 24 119
1 25 119
13 17 118
14 24 119
2 29 120
7 33 122
6 27 119
0 28 120
0 34 121
0 28 120
8 32 123
13 35 124
18 33 123
8 27 120
6 33 122
16 38 124
13 33 123
8 28 121
0 26 120
0 26 119
0 26 119
11 29 120
13 30 120
15 31 121
15 31 121
15 31 121
18 32 121
10 31 122
10 32 122
13 33 123
14 34 123
14 32 122
17 33 122
9 34 123
0 34 124
6 34 124
6 34 124
0 34 124
0 38 125
6 41 126
0 41 126
0 41 126
0 41 126
11 42 127
4 46 129
9 51 131
2 54 135
3 62 139
14 62 145
6 66 140
28 71 137
27 72 137
103 123 137
177 188 189
163 169 164
154 145 122
157 150 126
155 148 124
165 158 135
174 163 137
165 155 130
149 146 125
130 130 129
39 79 151
12 73 144
26 75 152
10 78 148
8 77 151
17 74 149
19 66 142
6 54 134
2 62 139
11 71 146
6 69 146
8 71 147
12 72 147
13 67 144
15 70 145
13 63 141
13 66 142
6 66 143
5 64 141
20 63 141
19 63 140
12 67 144
9 77 151
10 72 146
11 67 144
18 74 148
14 77 149
14 70 146
9 67 144
11 68 144
10 67 144
15 65 142
113 128 173
209 222 242
226 238 255
226 238 255
226 238 255
226 238 255
226 238 255
226 238 255
226 238 255
226 238 255
226 238 255
226 238 255
226 238 255
226 238 255
226 238 255
226 238 255
226 238 255
226 238 255
226 238 255
226 238 255
226 238 255
226 238 255
226 238 255
226 238 255
226 238 255
226 238 255
226 238 255
226 238 255
226 238 255
226 238 255
226 238 255
226 238 255
226 238 255
226 238 255
226 238 255
226 238 255
226 238 255
226 238 255
226 238 255
226 238 255
226 238 255
226 238 255
226 238 255
226 238 255
226 238 255
226 238 255
226 238 255
226 238 255
226 238 255
226 238 255
226 238 255
226 238 255
226 238 255
226 238 255
226 238 255
226 238 255
226 238 255
226 238 255
226 238 255
226 238 255
226 238 255
226 238 255
226 238 255
226 238 255
226 238 255
226 238 255
226 238 255
226 238 255
226 238 255
226 238 255
226 238 255
226 238 255
226 238 255
226 238 255
226 238 255
226 238 255
226 238 255
226 238 255
226 238 255
226 238 255
226 238 255
226 238 255
226 238 255
226 238 255
226 238 255
226 238 255
226 238 255
226 238 255
226 238 255
226 238 255
226 238 255
226 238 255
226 238 255
226 238 255
226 238 255
226 238 255
226 238 255
226 238 255
226 238 255
226 238 255
226 238 255
226 238 255
226 238 255
226 238 255
226 238 255
226 238 255
226 238 255
226 238 255
226 238 255
226 238 255
226 238 255
226 238 255
226 238 255
226 238 255
226 238 255
226 238 255
226 238 255
226 238 255
226 238 255
226 238 255
226 238 255
226 238 255
226 238 255
226 238 255
226 238 255
226 238 255
226 238 255
226 238 255
226 238 255
226 238 255
226 238 255
226 238 255
226 238 255
226 238 255
226 238 255
226 238 255
226 238 255
226 238 255
226 238 255
226 238 255
226 238 255
226 238 255
226 238 255
226 238 255
226 238 255
226 238 255
226 238 255
226 238 255
226 238 255
226 238 255
226 238 255
226 238 255
226 238 255
226 238 255
226 238 255
226 238 255
226 238 255
226 238 255
226 238 255
226 238 255
226 238 255
226 238 255
226 238 255
226 238 255
226 238 255
226 238 255
226 238 255
226 238 255
226 238 255
226 238 255
226 238 255
226 238 255
226 238 255
226 238 255
226 238 255
226 238 255
226 238 255
226 238 255
226 238 255
226 238 255
226 238 255
226 238 255
226 238 255
226 238 255
226 238 255
226 238 255
226 238 255
226 238 255
226 238 255
226 238 255
226 238 255
226 238 255
226 238 255
226 238 255
226 238 255
226 238 255
226 238 255
226 238 255
226 238 255
226 238 255
226 238 255
226 238 255
226 238 255
226 238 255
226 238 255
226 238 255
226 238 255
226 238 255
226 238 255
226 238 255
226 238 255
226 238 255
226 238 255
226 238 255
226 238 255
226 238 255
226 238 255
226 238 255
226 238 255
226 238 255
226 238 255
226 238 255
226 238 255
226 238 255
226 238 255
226 238 255
226 238 255
226 238 255
226 238 255
226 238 255
226 238 255
226 238 255
226 238 255
226 238 255
226 238 255
226 238 255
226 238 255
226 238 255
226 238 255
226 238 255
226 238 255
226 238 255
226 238 255
226 238 255
226 238 255
226 238 255
226 238 255
226 238 255
226 238 255
226 238 255
226 238 255
226 238 255
226 238 255
226 238 255
226 238 255
226 238 255
226 238 255
226 238 255
226 238 255
226 238 255
226 238 255
226 238 255
226 238 255
223 235 253
145 159 194
13 56 135
12 41 126
12 50 131
13 52 132
8 41 126
7 42 126
9 45 128
9 44 127
12 43 126
12 49 130
10 50 131
8 48 130
6 41 127
14 34 124
14 35 124
7 31 123
8 36 124
18 30 122
17 30 121
5 29 121
13 31 121
14 23 120
7 20 119
14 29 120
4 31 122
12 32 122
11 26 119
11 26 118
2 21 116
10 25 117
8 23 117
18 28 118
14 26 117
4 21 116
6 20 118
2 17 119
13 21 119
14 21 119
10 18 119
16 26 120
14 32 121
0 34 121
12 29 120
6 26 120
0 26 121
0 27 122
5 24 118
4 26 119
10 34 122
13 36 124
11 41 126
8 35 124
13 30 121
18 32 122
12 36 123
10 37 122
7 34 121
0 30 121
5 27 120
7 27 120
11 29 120
14 30 120
15 32 121
13 36 122
12 36 122
12 36 122
8 35 121
3 34 124
11 36 124
9 35 124
2 33 124
10 33 123
7 34 123
0 34 124
0 35 124
5 36 124
6 35 124
0 38 125
13 42 127
15 45 128
0 45 129
3 45 129
6 46 130
0 44 129
0 50 131
13 54 134
11 57 137
10 60 138
10 65 135
16 67 141
44 91 111
60 106 132
154 172 172
185 193 197
166 163 149
156 148 120
152 145 118
156 149 123
164 155 128
172 163 134
149 145 123
118 130 127
55 81 146
13 73 145
20 83 152
10 75 147
15 73 149
10 74 149
4 67 143
13 54 133
5 55 134
3 62 139
8 72 147
9 70 147
3 68 144
12 63 141
8 63 141
4 65 140
10 60 140
13 63 142
18 68 144
7 68 145
7 65 140
18 66 143
4 76 150
11 73 149
4 70 145
9 76 150
11 77 150
14 68 144
8 65 142
11 64 141
13 68 143
12 62 139
143 157 193
223 235 253
226 238 255
226 238 255
226 238 255
226 238 255
226 238 255
226 238 255
226 238 255
226 238 255
226 238 255
226 238 255
226 238 255
226 238 255
226 238 255
226 238 255
226 238 255
226 238 255
226 238 255
226 238 255
226 238 255
226 238 255
226 238 255
226 238 255
226 238 255
226 238 255
226 238 255
226 238 255
226 238 255
226 238 255
226 238 255
226 238 255
226 238 255
226 238 255
226 238 255
226 238 255
226 238 255
226 238 255
226 238 255
226 238 255
226 238 255
226 238 255
226 238 255
226 238 255
226 238 255
226 238 255
226 238 255
226 238 255
226 238 255
226 238 255
226 238 255
226 238 255
226 238 255
226 238 255
226 238 255
226 238 255
226 238 255
226 238 255
226 238 255
226 238 255
226 238 255
226 238 255
226 238 255
226 238 255
226 238 255
226 238 255
226 238 255
226 238 255
226 238 255
226 238 255
226 238 255
226 238 255
226 238 255
226 238 255
226 238 255
226 238 255
226 238 255
226 238 255
226 238 255
226 238 255
226 238 255
226 238 255
226 238 255
226 238 255
226 238 255
226 238 255
226 238 255
226 238 255
226 238 255
226 238 255
226 238 255
226 238 255
226 238 255
226 238 255
226 238 255
226 238 255
226 238 255
226 238 255
226 238 255
226 238 255
226 238 255
226 238 255
226 238 255
226 238 255
226 238 255
226 238 255
226 238 255
226 238 255
226 238 255
226 238 255
226 238 255
226 238 255
226 238 255
226 238 255
226 238 255
226 238 255
226 238 255
226 238 255
226 238 255
226 238 255
226 238 255
226 238 255
226 238 255
226 238 255
226 238 255
226 238 255
226 238 255
226 238 255
226 238 255
226 238 255
226 238 255
226 238 255
226 238 255
226 238 255
226 238 255
226 238 255
226 238 255
226 238 255
226 238 255
226 238 255
226 238 255
226 238 255
226 238 255
226 238 255
226 238 255
226 238 255
226 238 255
226 238 255
226 238 255
226 238 255
226 238 255
226 238 255
226 238 255
226 238 255
226 238 255
226 238 255
226 238 255
226 238 255
226 238 255
226 238 255
226 238 255
226 238 255
226 238 255
226 238 255
226 238 255
226 238 255
226 238 255
226 238 255
226 238 255
226 238 255
226 238 255
226 238 255
226 238 255
226 238 255
226 238 255
226 238 255
226 238 255
226 238 255
226 238 255
226 238 255
226 238 255
226 238 255
226 238 255
226 238 255
226 238 255
226 238 255
226 238 255
226 238 255
226 238 255
226 238 255
226 238 255
226 238 255
226 238 255
226 238 255
226 238 255
226 238 255
226 238 255
226 238 255
226 238 255
226 238 255
226 238 255
226 238 255
226 238 255
226 238 255
226 238 255
226 238 255
226 238 255
226 238 255
226 238 255
226 238 255
226 238 255
226 238 255
226 238 255
226 238 255
226 238 255
226 238 255
226 238 255
226 238 255
226 238 255
226 238 255
226 238 255
226 238 255
226 238 255
226 238 255
226 238 255
226 238 255
226 238 255
226 238 255
226 238 255
226 238 255
226 238 255
226 238 255
226 238 255
226 238 255
226 238 255
226 238 255
226 238 255
226 238 255
226 238 255
226 238 255
226 238 255
226 238 255
226 238 255
226 238 255
226 238 255
226 238 255
226 238 255
226 238 255
226 238 255
226 238 255
226 238 255
226 238 255
226 238 255
226 238 255
226 238 255
226 238 255
226 238 255
226 238 255
226 238 255
226 238 255
226 238 255
226 238 255
226 238 255
226 238 255
226 238 255
226 238 255
184 196 222
57 82 148
11 48 130
11 55 135
10 58 137
12 55 134
6 53 132
0 51 131
8 49 131
7 47 130
9 53 132
13 52 133
12 54 134
9 50 131
14 45 127
17 43 127
16 42 127
12 39 126
14 33 123
13 38 124
11 43 126
11 43 127
16 34 123
6 23 118
6 22 117
15 31 121
13 29 120
17 28 118
16 27 118
15 27 118
7 22 116
4 21 116
4 22 116
1 18 116
9 23 117
6 25 120
3 26 120
7 25 120
2 25 120
8 26 120
7 27 119
15 32 121
17 34 121
10 28 120
4 26 120
12 28 121
12 27 119
10 25 119
0 24 120
5 30 122
11 35 124
8 36 124
16 34 122
15 35 122
8 37 122
4 35 120
10 29 119
8 29 119
9 30 120
8 31 122
8 32 122
8 33 122
7 33 122
0 33 121
0 35 122
0 36 122
7 36 122
13 36 124
12 37 124
13 38 125
4 34 124
0 33 124
0 34 123
0 34 123
0 39 125
8 41 125
4 39 125
0 39 125
4 40 125
3 43 127
0 44 128
2 46 130
7 49 130
0 50 130
12 54 133
6 54 135
7 54 136
17 59 140
9 62 148
39 85 130
67 103 121
138 163 166
173 183 187
152 153 138
157 150 122
159 149 120
157 151 121
160 153 122
157 151 128
105 119 139
54 94 150
27 75 144
22 67 144
7 68 144
10 70 145
9 70 146
7 71 147
13 73 147
9 57 136
3 57 136
0 60 138
12 69 144
17 79 151
12 74 147
7 66 142
13 65 143
14 66 141
14 65 141
15 71 145
5 72 146
12 75 148
21 77 149
8 72 145
7 70 146
3 70 146
10 71 146
7 76 148
11 71 145
16 60 139
12 63 140
11 64 141
11 66 142
46 75 144
171 184 212
226 238 255
226 238 255
226 238 255
226 238 255
226 238 255
226 238 255
226 238 255
226 238 255
226 238 255
226 238 255
226 238 255
226 238 255
226 238 255
226 238 255
226 238 255
226 238 255
226 238 255
226 238 255
226 238 255
226 238 255
226 238 255
226 238 255
226 238 255
226 238 255
226 238 255
226 238 255
226 238 255
226 238 255
226 238 255
226 238 255
226 238 255
226 238 255
226 238 255
226 238 255
226 238 255
226 238 255
226 238 255
226 238 255
226 238 255
226 238 255
226 238 255
226 238 255
226 238 255
226 238 255
226 238 255
226 238 255
226 238 255
226 238 255
226 238 255
226 238 255
226 238 255
226 238 255
226 238 255
226 238 255
226 238 255
226 238 255
226 238 255
226 238 255
226 238 255
226 238 255
226 238 255
226 238 255
226 238 255
226 238 255
226 238 255
226 238 255
226 238 255
226 238 255
226 238 255
226 238 255
226 238 255
226 238 255
226 238 255
226 238 255
226 238 255
226 238 255
226 238 255
226 238 255
226 238 255
226 238 255
226 238 255
226 238 255
226 238 255
226 238 255
226 238 255
226 238 255
226 238 255
226 238 255
226 238 255
226 238 255
226 238 255
226 238 255
226 238 255
226 238 255
226 238 255
226 238 255
226 238 255
226 238 255
226 238 255
226 238 255
226 238 255
226 238 255
226 238 255
226 238 255
226 238 255
226 238 255
226 238 255
226 238 255
226 238 255
226 238 255
226 238 255
226 238 255
226 238 255
226 238 255
226 238 255
226 238 255
226 238 255
226 238 255
226 238 255
226 238 255
226 238 255
226 238 255
226 238 255
226 238 255
226 238 255
226 238 255
226 238 255
226 238 255
226 238 255
226 238 255
226 238 255
226 238 255
226 238 255
226 238 255
226 238 255
226 238 255
226 238 255
226 238 255
226 238 255
226 238 255
226 238 255
226 238 255
226 238 255
226 238 255
226 238 255
226 238 255
226 238 255
226 238 255
226 238 255
226 238 255
226 238 255
226 238 255
226 238 255
226 238 255
226 238 255
226 238 255
226 238 255
226 238 255
226 238 255
226 238 255
226 238 255
226 238 255
226 238 255
226 238 255
226 238 255
226 238 255
226 238 255
226 238 255
226 238 255
226 238 255
226 238 255
226 238 255
226 238 255
226 238 255
226 238 255
226 238 255
226 238 255
226 238 255
226 238 255
226 238 255
226 238 255
226 238 255
226 238 255
226 238 255
226 238 255
226 238 255
226 238 255
226 238 255
226 238 255
226 238 255
226 238 255
226 238 255
226 238 255
226 238 255
226 238 255
226 238 255
226 238 255
226 238 255
226 238 255
226 238 255
226 238 255
226 238 255
226 238 255
226 238 255
226 238 255
226 238 255
226 238 255
226 238 255
226 238 255
226 238 255
226 238 255
226 238 255
226 238 255
226 238 255
226 238 255
226 238 255
226 238 255
226 238 255
226 238 255
226 238 255
226 238 255
226 238 255
226 238 255
226 238 255
226 238 255
226 238 255
226 238 255
226 238 255
226 238 255
226 238 255
226 238 255
226 238 255
226 238 255
226 238 255
226 238 255
226 238 255
226 238 255
226 238 255
226 238 255
226 238 255
226 238 255
226 238 255
226 238 255
226 238 255
226 238 255
226 238 255
226 238 255
226 238 255
226 238 255
226 238 255
226 238 255
226 238 255
226 238 255
226 238 255
226 238 255
226 238 255
226 238 255
226 238 255
226 238 255
226 238 255
226 238 255
226 238 255
226 238 255
226 238 255
226 238 255
226 238 255
226 238 255
202 215 237
65 94 155
12 56 135
12 56 135
8 63 140
12 65 142
7 59 137
9 54 134
15 56 136
12 57 136
16 59 137
8 58 137
12 58 137
13 58 136
8 52 132
7 47 129
11 52 133
12 42 127
13 40 124
8 42 128
9 42 128
8 42 128
5 40 126
6 34 123
12 32 121
13 29 119
7 23 117
9 24 117
6 26 119
0 21 118
11 27 120
8 23 119
10 24 119
15 26 120
2 20 118
9 28 120
17 31 121
16 31 121
11 31 122
10 30 122
11 31 121
12 31 122
15 33 122
12 31 121
17 34 122
14 31 121
12 29 120
2 26 120
9 28 120
12 31 121
0 34 122
3 35 123
0 37 123
0 37 123
7 32 123
14 30 122
11 33 123
6 36 124
0 33 123
0 33 123
0 34 122
2 35 121
6 34 124
0 34 124
7 34 124
8 33 123
7 33 123
8 41 124
16 46 128
14 43 127
2 34 124
9 36 124
7 37 124
0 40 125
11 42 126
0 39 125
8 41 125
6 40 125
0 41 126
0 44 128
0 43 129
8 46 130
9 50 131
1 51 133
13 57 136
9 60 139
25 60 143
51 84 129
81 110 101
102 128 132
193 204 210
179 186 188
156 154 144
151 143 113
157 147 118
163 155 123
153 149 118
105 120 135
25 88 158
15 80 152
15 69 144
15 64 140
4 64 140
5 67 143
15 68 144
6 67 143
5 61 140
13 60 139
10 61 139
8 64 140
9 70 144
10 71 146
12 71 146
8 66 143
18 65 141
10 64 141
13 66 142
19 70 144
12 69 144
8 66 143
11 66 142
17 64 142
14 68 143
2 64 142
12 69 144
11 62 140
10 58 138
2 62 139
6 66 141
10 66 142
109 126 172
205 217 239
226 238 255
226 238 255
226 238 255
226 238 255
226 238 255
226 238 255
226 238 255
226 238 255
226 238 255
226 238 255
226 238 255
226 238 255
226 238 255
226 238 255
226 238 255
226 238 255
226 238 255
226 238 255
226 238 255
226 238 255
226 238 255
226 238 255
226 238 255
226 238 255
226 238 255
226 238 255
226 238 255
226 238 255
226 238 255
226 238 255
226 238 255
226 238 255
226 238 255
226 238 255
226 238 255
226 238 255
226 238 255
226 238 255
226 238 255
226 238 255
226 238 255
226 238 255
226 238 255
226 238 255
226 238 255
226 238 255
226 238 255
226 238 255
226 238 255
226 238 255
226 238 255
226 238 255
226 238 255
226 238 255
226 238 255
226 238 255
226 238 255
226 238 255
226 238 255
226 238 255
226 238 255
226 238 255
226 238 255
226 238 255
226 238 255
226 238 255
226 238 255
226 238 255
226 238 255
226 238 255
226 238 255
226 238 255
226 238 255
226 238 255
226 238 255
226 238 255
226 238 255
226 238 255
226 238 255
226 238 255
226 238 255
226 238 255
226 238 255
226 238 255
226 238 255
226 238 255
226 238 255
226 238 255
226 238 255
226 238 255
226 238 255
226 238 255
226 238 255
226 238 255
226 238 255
226 238 255
226 238 255
226 238 255
226 238 255
226 238 255
226 238 255
226 238 255
226 238 255
226 238 255
226 238 255
226 238 255
226 238 255
226 238 255
226 238 255
226 238 255
226 238 255
226 238 255
226 238 255
226 238 255
226 238 255
226 238 255
226 238 255
226 238 255
226 238 255
226 238 255
226 238 255
226 238 255
226 238 255
226 238 255
226 238 255
226 238 255
226 238 255
226 238 255
226 238 255
226 238 255
226 238 255
226 238 255
226 238 255
226 238 255
226 238 255
226 238 255
226 238 255
226 238 255
226 238 255
226 238 255
226 238 255
226 238 255
226 238 255
226 238 255
226 238 255
226 238 255
226 238 255
226 238 255
226 238 255
226 238 255
226 238 255
226 238 255
226 238 255
226 238 255
226 238 255
226 238 255
226 238 255
226 238 255
226 238 255
226 238 255
226 238 255
226 238 255
226 238 255
226 238 255
226 238 255
226 238 255
226 238 255
226 238 255
226 238 255
226 238 255
226 238 255
226 238 255
226 238 255
226 238 255
226 238 255
226 238 255
226 238 255
226 238 255
226 238 255
226 238 255
226 238 255
226 238 255
226 238 255
226 238 255
226 238 255
226 238 255
226 238 255
226 238 255
226 238 255
226 238 255
226 238 255
226 238 255
226 238 255
226 238 255
226 238 255
226 238 255
226 238 255
226 238 255
226 238 255
226 238 255
226 238 255
226 238 255
226 238 255
226 238 255
226 238 255
226 238 255
226 238 255
226 238 255
226 238 255
226 238 255
226 238 255
226 238 255
226 238 255
226 238 255
226 238 255
226 238 255
226 238 255
226 238 255
226 238 255
226 238 255
226 238 255
226 238 255
226 238 255
226 238 255
226 238 255
226 238 255
226 238 255
226 238 255
226 238 255
226 238 255
226 238 255
226 238 255
226 238 255
226 238 255
226 238 255
226 238 255
226 238 255
226 238 255
226 238 255
226 238 255
226 238 255
226 238 255
226 238 255
226 238 255
226 238 255
226 238 255
226 238 255
226 238 255
226 238 255
226 238 255
226 238 255
226 238 255
226 238 255
226 238 255
226 238 255
226 238 255
226 238 255
226 238 255
226 238 255
226 238 255
226 238 255
226 238 255
226 238 255
226 238 255
226 238 255
226 238 255
226 238 255
226 238 255
226 238 255
218 231 250
124 142 184
13 63 141
11 57 136
15 62 139
14 66 142
8 63 140
11 61 139
8 60 139
10 60 138
6 60 138
7 59 138
14 62 140
1 61 139
12 54 134
9 58 136
12 49 132
9 49 131
12 46 128
5 47 129
12 50 130
14 51 131
18 53 132
13 48 130
10 40 127
5 35 124
12 33 122
11 29 120
11 29 120
15 31 121
12 30 120
9 30 120
10 30 120
9 29 120
7 31 121
0 27 121
10 29 121
13 34 123
0 35 124
0 36 124
0 34 124
8 35 124
3 33 123
8 35 124
5 33 124
13 33 122
11 31 121
10 31 122
13 32 122
4 33 124
13 38 125
0 39 124
4 40 125
11 43 126
12 40 126
2 39 125
9 43 126
3 42 127
6 41 126
4 39 125
8 37 124
11 36 124
0 34 124
8 35 124
17 38 125
0 36 124
8 39 124
13 42 127
15 45 127
2 35 125
14 38 126
18 39 126
3 35 125
9 41 126
11 42 126
16 44 127
7 41 126
0 40 126
5 44 128
0 41 128
10 48 130
15 53 134
12 58 137
5 59 139
3 64 141
37 82 132
60 93 106
129 145 148
210 220 231
176 186 195
192 199 202
164 162 149
162 152 126
166 155 128
165 156 125
157 151 124
144 143 120
119 125 133
44 94 153
13 67 144
6 67 143
6 68 144
11 65 142
7 64 140
12 62 139
10 58 139
11 63 141
21 64 141
7 58 136
9 64 141
15 70 145
13 66 141
10 66 141
2 62 138
0 61 139
0 61 140
3 61 141
15 66 143
11 62 139
13 59 138
12 61 139
13 65 141
8 65 142
11 62 140
9 66 142
12 67 142
6 63 140
10 65 142
145 160 195
219 231 250
226 238 255
226 238 255
226 238 255
226 238 255
226 238 255
226 238 255
226 238 255
226 238 255
226 238 255
226 238 255
226 238 255
226 238 255
226 238 255
226 238 255
226 238 255
226 238 255
226 238 255
226 238 255
226 238 255
226 238 255
226 238 255
226 238 255
226 238 255
226 238 255
226 238 255
226 238 255
226 238 255
226 238 255
226 238 255
226 238 255
226 238 255
226 238 255
226 238 255
226 238 255
226 238 255
226 238 255
226 238 255
226 238 255
226 238 255
226 238 255
226 238 255
226 238 255
226 238 255
226 238 255
226 238 255
226 238 255
226 238 255
226 238 255
226 238 255
226 238 255
226 238 255
226 238 255
226 238 255
226 238 255
226 238 255
226 238 255
226 238 255
226 238 255
226 238 255
226 238 255
226 238 255
226 238 255
226 238 255
226 238 255
226 238 255
226 238 255
226 238 255
226 238 255
226 238 255
226 238 255
226 238 255
226 238 255
226 238 255
226 238 255
226 238 255
226 238 255
226 238 255
226 238 255
226 238 255
226 238 255
226 238 255
226 238 255
226 238 255
226 238 255
226 238 255
226 238 255
226 238 255
226 238 255
226 238 255
226 238 255
226 238 255
226 238 255
226 238 255
226 238 255
226 238 255
226 238 255
226 238 255
226 238 255
226 238 255
226 238 255
226 238 255
226 238 255
226 238 255
226 238 255
226 238 255
226 238 255
226 238 255
226 238 255
226 238 255
226 238 255
226 238 255
226 238 255
226 238 255
226 238 255
226 238 255
226 238 255
226 238 255
226 238 255
226 238 255
226 238 255
226 238 255
226 238 255
226 238 255
226 238 255
226 238 255
226 238 255
226 238 255
226 238 255
226 238 255
226 238 255
226 238 255
226 238 255
226 238 255
226 238 255
226 238 255
226 238 255
226 238 255
226 238 255
226 238 255
226 238 255
226 238 255
226 238 255
226 238 255
226 238 255
226 238 255
226 238 255
226 238 255
226 238 255
226 238 255
226 238 255
226 238 255
226 238 255
226 238 255
226 238 255
226 238 255
226 238 255
226 238 255
226 238 255
226 238 255
226 238 255
226 238 255
226 238 255
226 238 255
226 238 255
226 238 255
226 238 255
226 238 255
226 238 255
226 238 255
226 238 255
226 238 255
226 238 255
226 238 255
226 238 255
226 238 255
226 238 255
226 238 255
226 238 255
226 238 255
226 238 255
226 238 255
226 238 255
226 238 255
226 238 255
226 238 255
226 238 255
226 238 255
226 238 255
226 238 255
226 238 255
226 238 255
226 238 255
226 238 255
226 238 255
226 238 255
226 238 255
226 238 255
226 238 255
226 238 255
226 238 255
226 238 255
226 238 255
226 238 255
226 238 255
226 238 255
226 238 255
226 238 255
226 238 255
226 238 255
226 238 255
226 238 255
226 238 255
226 238 255
226 238 255
226 238 255
226 238 255
226 238 255
226 238 255
226 238 255
226 238 255
226 238 255
226 238 255
226 238 255
226 238 255
226 238 255
226 238 255
226 238 255
226 238 255
226 238 255
226 238 255
226 238 255
226 238 255
226 238 255
226 238 255
226 238 255
226 238 255
226 238 255
226 238 255
226 238 255
226 238 255
226 238 255
226 238 255
226 238 255
226 238 255
226 238 255
226 238 255
226 238 255
226 238 255
226 238 255
226 238 255
226 238 255
226 238 255
226 238 255
226 238 255
226 238 255
226 238 255
226 238 255
226 238 255
226 238 255
226 238 255
226 238 255
226 238 255
226 238 255
226 238 255
226 238 255
226 238 255
226 238 255
226 238 255
226 238 255
226 238 255
226 238 255
226 238 255
184 198 224
61 91 154
11 63 140
9 63 140
18 63 140
14 65 142
15 64 141
12 64 140
15 62 140
6 60 139
7 58 138
15 61 139
6 65 141
18 61 139
5 60 138
14 52 133
11 52 133
14 57 136
12 54 134
8 50 130
14 57 135
4 56 135
9 57 137
18 51 133
19 48 131
6 39 125
6 38 124
10 30 121
4 26 119
2 30 121
10 38 122
0 35 122
15 43 126
11 40 126
11 45 128
0 46 129
2 41 126
5 40 125
10 40 125
14 39 125
14 38 125
9 36 124
16 39 125
11 36 124
0 34 124
0 34 124
3 34 124
8 36 125
19 44 127
9 41 126
14 43 127
7 47 128
9 45 127
0 40 126
4 46 128
2 49 130
1 46 129
11 43 127
10 42 126
1 36 124
0 38 125
0 37 125
6 36 124
0 38 124
5 33 124
0 35 124
0 44 127
0 43 126
8 43 127
12 43 127
5 40 126
0 44 127
0 43 127
2 46 128
4 45 128
11 42 126
8 43 128
4 48 130
9 53 132
6 59 136
5 65 141
12 71 146
21 73 150
20 90 151
73 111 146
181 195 205
204 212 221
201 209 219
186 187 176
174 163 142
169 160 133
167 160 132
170 159 129
166 155 124
140 142 120
84 106 145
14 75 148
0 69 145
12 64 142
16 64 141
10 66 141
4 64 140
3 57 137
8 59 138
11 63 140
21 63 140
15 55 136
8 54 135
14 54 135
14 59 138
16 56 136
14 54 134
13 60 138
9 59 138
5 58 137
12 59 137
9 59 137
10 63 140
9 67 143
11 71 145
13 69 144
6 64 140
11 63 140
14 62 139
51 80 148
175 189 216
226 238 255
226 238 255
226 238 255
226 238 255
226 238 255
226 238 255
226 238 255
226 238 255
226 238 255
226 238 255
226 238 255
226 238 255
226 238 255
226 238 255
226 238 255
226 238 255
226 238 255
226 238 255
226 238 255
226 238 255
226 238 255
226 238 255
226 238 255
226 238 255
226 238 255
226 238 255
226 238 255
226 238 255
226 238 255
226 238 255
226 238 255
226 238 255
226 238 255
226 238 255
226 238 255
226 238 255
226 238 255
226 238 255
226 238 255
226 238 255
226 238 255
226 238 255
226 238 255
226 238 255
226 238 255
226 238 255
226 238 255
226 238 255
226 238 255
226 238 255
226 238 255
226 238 255
226 238 255
226 238 255
226 238 255
226 238 255
226 238 255
226 238 255
226 238 255
226 238 255
226 238 255
226 238 255
226 238 255
226 238 255
226 238 255
226 238 255
226 238 255
226 238 255
226 238 255
226 238 255
226 238 255
226 238 255
226 238 255
226 238 255
226 238 255
226 238 255
226 238 255
226 238 255
226 238 255
226 238 255
226 238 255
226 238 255
226 238 255
226 238 255
226 238 255
226 238 255
226 238 255
226 238 255
226 238 255
226 238 255
226 238 255
226 238 255
226 238 255
226 238 255
226 238 255
226 238 255
226 238 255
226 238 255
226 238 255
226 238 255
226 238 255
226 238 255
226 238 255
226 238 255
226 238 255
226 238 255
226 238 255
226 238 255
226 238 255
226 238 255
226 238 255
226 238 255
226 238 255
226 238 255
226 238 255
226 238 255
226 238 255
226 238 255
226 238 255
226 238 255
226 238 255
226 238 255
226 238 255
226 238 255
226 238 255
226 238 255
226 238 255
226 238 255
226 238 255
226 238 255
226 238 255
226 238 255
226 238 255
226 238 255
226 238 255
226 238 255
226 238 255
226 238 255
226 238 255
226 238 255
226 238 255
226 238 255
226 238 255
226 238 255
226 238 255
226 238 255
226 238 255
226 238 255
226 238 255
226 238 255
226 238 255
226 238 255
226 238 255
226 238 255
226 238 255
226 238 255
226 238 255
226 238 255
226 238 255
226 238 255
226 238 255
226 238 255
226 238 255
226 238 255
226 238 255
226 238 255
226 238 255
226 238 255
226 238 255
226 238 255
226 238 255
226 238 255
226 238 255
226 238 255
226 238 255
226 238 255
226 238 255
226 238 255
226 238 255
226 238 255
226 238 255
226 238 255
226 238 255
226 238 255
226 238 255
226 238 255
226 238 255
226 238 255
226 238 255
226 238 255
226 238 255
226 238 255
226 238 255
226 238 255
226 238 255
226 238 255
226 238 255
226 238 255
226 238 255
226 238 255
226 238 255
226 238 255
226 238 255
226 238 255
226 238 255
226 238 255
226 238 255
226 238 255
226 238 255
226 238 255
226 238 255
226 238 255
226 238 255
226 238 255
226 238 255
226 238 255
226 238 255
226 238 255
226 238 255
226 238 255
226 238 255
226 238 255
226 238 255
226 238 255
226 238 255
226 238 255
226 238 255
226 238 255
226 238 255
226 238 255
226 238 255
226 238 255
226 238 255
226 238 255
226 238 255
226 238 255
226 238 255
226 238 255
226 238 255
226 238 255
226 238 255
226 238 255
226 238 255
226 238 255
226 238 255
226 238 255
226 238 255
226 238 255
226 238 255
226 238 255
226 238 255
226 238 255
226 238 255
226 238 255
226 238 255
226 238 255
226 238 255
226 238 255
226 238 255
226 238 255
226 238 255
226 238 255
226 238 255
226 238 255
226 238 255
226 238 255
226 238 255
226 238 255
226 238 255
226 238 255
226 238 255
226 238 255
226 238 255
226 238 255
226 238 255
205 218 240
104 127 175
13 74 148
14 77 149
13 69 145
16 68 144
14 68 143
16 66 143
13 64 141
8 61 139
13 59 137
13 60 138
12 65 141
14 66 142
11 65 142
8 55 135
7 54 133
6 58 137
4 55 135
13 55 133
9 46 129
9 48 131
17 51 132
9 47 131
14 49 131
12 46 129
14 43 127
14 33 123
3 31 120
9 33 121
13 40 125
9 46 130
7 44 128
16 45 128
5 42 127
15 46 128
15 49 129
10 44 129
15 44 129
12 41 128
10 43 126
4 43 126
7 44 129
16 42 127
3 37 125
19 42 127
13 40 126
10 43 127
14 47 129
5 45 129
6 46 130
0 43 129
0 42 128
6 46 130
16 49 130
5 47 130
13 50 130
13 49 130
15 40 127
5 37 125
7 37 125
10 36 125
2 36 122
7 35 124
0 39 124
0 41 126
1 45 129
6 46 130
0 40 127
12 47 129
1 54 132
7 50 132
2 49 131
7 51 131
6 49 130
2 47 129
5 50 133
9 54 134
9 61 138
10 67 143
14 76 150
43 87 141
97 122 134
138 159 173
204 216 229
202 214 225
205 209 204
168 166 139
169 158 117
172 157 120
165 159 132
148 144 129
96 108 142
35 81 146
14 67 145
17 69 147
6 65 143
11 62 140
14 63 140
13 63 140
6 67 141
15 64 140
11 61 139
12 65 142
10 61 138
0 57 134
10 55 133
8 54 135
9 53 134
8 53 134
6 53 134
12 54 135
7 56 136
10 58 137
12 61 139
10 63 140
9 71 146
10 71 146
11 66 143
12 65 141
12 63 140
12 62 139
106 125 173
205 218 239
226 238 255
226 238 255
226 238 255
226 238 255
226 238 255
226 238 255
226 238 255
226 238 255
226 238 255
226 238 255
226 238 255
226 238 255
226 238 255
226 238 255
226 238 255
226 238 255
226 238 255
226 238 255
226 238 255
226 238 255
226 238 255
226 238 255
226 238 255
226 238 255
226 238 255
226 238 255
226 238 255
226 238 255
226 238 255
226 238 255
226 238 255
226 238 255
226 238 255
226 238 255
226 238 255
226 238 255
226 238 255
226 238 255
226 238 255
226 238 255
226 238 255
226 238 255
226 238 255
226 238 255
226 238 255
226 238 255
226 238 255
226 238 255
226 238 255
226 238 255
226 238 255
226 238 255
226 238 255
226 238 255
226 238 255
226 238 255
226 238 255
226 238 255
226 238 255
226 238 255
226 238 255
226 238 255
226 238 255
226 238 255
226 238 255
226 238 255
226 238 255
226 238 255
226 238 255
226 238 255
226 238 255
226 238 255
226 238 255
226 238 255
226 238 255
226 238 255
226 238 255
226 238 255
226 238 255
226 238 255
226 238 255
226 238 255
226 238 255
226 238 255
226 238 255
226 238 255
226 238 255
226 238 255
226 238 255
226 238 255
226 238 255
226 238 255
226 238 255
226 238 255
226 238 255
226 238 255
226 238 255
226 238 255
226 238 255
226 238 255
226 238 255
226 238 255
226 238 255
226 238 255
226 238 255
226 238 255
226 238 255
226 238 255
226 238 255
226 238 255
226 238 255
226 238 255
226 238 255
226 238 255
226 238 255
226 238 255
226 238 255
226 238 255
226 238 255
226 238 255
226 238 255
226 238 255
226 238 255
226 238 255
226 238 255
226 238 255
226 238 255
226 238 255
226 238 255
226 238 255
226 238 255
226 238 255
226 238 255
226 238 255
226 238 255
226 238 255
226 238 255
226 238 255
226 238 255
226 238 255
226 238 255
226 238 255
226 238 255
226 238 255
226 238 255
226 238 255
226 238 255
226 238 255
226 238 255
226 238 255
226 238 255
226 238 255
226 238 255
226 238 255
226 238 255
226 238 255
226 238 255
226 238 255
226 238 255
226 238 255
226 238 255
226 238 255
226 238 255
226 238 255
226 238 255
226 238 255
226 238 255
226 238 255
226 238 255
226 238 255
226 238 255
226 238 255
226 238 255
226 238 255
226 238 255
226 238 255
226 238 255
226 238 255
226 238 255
226 238 255
226 238 255
226 238 255
226 238 255
226 238 255
226 238 255
226 238 255
226 238 255
226 238 255
226 238 255
226 238 255
226 238 255
226 238 255
226 238 255
226 238 255
226 238 255
226 238 255
226 238 255
226 238 255
226 238 255
226 238 255
226 238 255
226 238 255
226 238 255
226 238 255
226 238 255
226 238 255
226 238 255
226 238 255
226 238 255
226 238 255
226 238 255
226 238 255
226 238 255
226 238 255
226 238 255
226 238 255
226 238 255
226 238 255
226 238 255
226 238 255
226 238 255
226 238 255
226 238 255
226 238 255
226 238 255
226 238 255
226 238 255
226 238 255
226 238 255
226 238 255
226 238 255
226 238 255
226 238 255
226 238 255
226 238 255
226 238 255
226 238 255
226 238 255
226 238 255
226 238 255
226 238 255
226 238 255
226 238 255
226 238 255
226 238 255
226 238 255
226 238 255
226 238 255
226 238 255
226 238 255
226 238 255
226 238 255
226 238 255
226 238 255
226 238 255
226 238 255
226 238 255
226 238 255
226 238 255
226 238 255
226 238 255
226 238 255
226 238 255
226 238 255
226 238 255
226 238 255
226 238 255
226 238 255
226 238 255
226 238 255
226 238 255
226 238 255
226 238 255
226 238 255
226 238 255
226 238 255
226 238 255
224 236 254
168 185 215
27 87 155
14 86 153
16 79 150
11 69 144
17 69 144
13 66 142
7 67 144
1 61 139
9 60 139
18 60 140
12 55 137
11 62 140
8 64 141
14 61 139
18 59 137
10 54 135
3 59 137
16 57 136
11 55 135
11 50 132
7 45 129
17 47 128
11 41 126
2 47 129
11 44 128
9 39 125
10 35 122
14 31 121
10 36 124
20 53 133
11 52 133
14 49 130
14 40 127
11 43 127
12 54 135
12 51 134
12 46 130
5 48 130
2 48 129
5 51 131
9 46 128
0 46 128
5 47 130
17 54 134
13 51 133
11 48 130
3 42 127
6 46 129
0 46 130
0 47 130
5 47 130
7 48 131
0 49 130
14 52 133
10 54 135
5 49 132
4 46 130
15 47 129
14 43 126
0 34 124
0 34 124
0 34 124
0 35 125
4 37 126
12 43 129
9 49 131
0 50 130
3 52 131
7 51 131
0 47 130
5 47 130
1 49 130
10 51 132
8 52 133
6 51 133
13 58 137
8 64 142
20 74 148
85 118 145
153 170 186
197 207 220
219 230 239
184 192 188
173 166 141
171 163 131
166 158 122
155 147 117
144 144 123
63 98 145
24 68 146
17 69 146
21 74 149
4 65 143
19 65 142
8 64 140
16 64 141
10 64 142
7 68 144
15 65 142
15 65 142
10 60 138
15 53 134
13 56 136
11 58 136
8 58 138
12 58 138
19 58 137
11 59 138
12 59 137
2 60 138
12 64 141
11 66 143
10 73 147
11 72 146
11 61 139
13 67 144
12 65 142
46 77 145
160 174 206
225 237 255
226 238 255
226 238 255
226 238 255
226 238 255
226 238 255
226 238 255
226 238 255
226 238 255
226 238 255
226 238 255
226 238 255
226 238 255
226 238 255
226 238 255
226 238 255
226 238 255
226 238 255
226 238 255
226 238 255
226 238 255
226 238 255
226 238 255
226 238 255
226 238 255
226 238 255
226 238 255
226 238 255
226 238 255
226 238 255
226 238 255
226 238 255
226 238 255
226 238 255
226 238 255
226 238 255
226 238 255
226 238 255
226 238 255
226 238 255
226 238 255
226 238 255
226 238 255
226 238 255
226 238 255
226 238 255
226 238 255
226 238 255
226 238 255
226 238 255
226 238 255
226 238 255
226 238 255
226 238 255
226 238 255
226 238 255
226 238 255
226 238 255
226 238 255
226 238 255
226 238 255
226 238 255
226 238 255
226 238 255
226 238 255
226 238 255
226 238 255
226 238 255
226 238 255
226 238 255
226 238 255
226 238 255
226 238 255
226 238 255
226 238 255
226 238 255
226 238 255
226 238 255
226 238 255
226 238 255
226 238 255
226 238 255
226 238 255
226 238 255
226 238 255
226 238 255
226 238 255
226 238 255
226 238 255
226 238 255
226 238 255
226 238 255
226 238 255
226 238 255
226 238 255
226 238 255
226 238 255
226 238 255
226 238 255
226 238 255
226 238 255
226 238 255
226 238 255
226 238 255
226 238 255
226 238 255
226 238 255
226 238 255
226 238 255
226 238 255
226 238 255
226 238 255
226 238 255
226 238 255
226 238 255
226 238 255
226 238 255
226 238 255
226 238 255
226 238 255
226 238 255
226 238 255
226 238 255
226 238 255
226 238 255
226 238 255
226 238 255
226 238 255
226 238 255
226 238 255
226 238 255
226 238 255
226 238 255
226 238 255
226 238 255
226 238 255
226 238 255
226 238 255
226 238 255
226 238 255
226 238 255
226 238 255
226 238 255
226 238 255
226 238 255
226 238 255
226 238 255
226 238 255
226 238 255
226 238 255
226 238 255
226 238 255
226 238 255
226 238 255
226 238 255
226 238 255
226 238 255
226 238 255
226 238 255
226 238 255
226 238 255
226 238 255
226 238 255
226 238 255
226 238 255
226 238 255
226 238 255
226 238 255
226 238 255
226 238 255
226 238 255
226 238 255
226 238 255
226 238 255
226 238 255
226 238 255
226 238 255
226 238 255
226 238 255
226 238 255
226 238 255
226 238 255
226 238 255
226 238 255
226 238 255
226 238 255
226 238 255
226 238 255
226 238 255
226 238 255
226 238 255
226 238 255
226 238 255
226 238 255
226 238 255
226 238 255
226 238 255
226 238 255
226 238 255
226 238 255
226 238 255
226 238 255
226 238 255
226 238 255
226 238 255
226 238 255
226 238 255
226 238 255
226 238 255
226 238 255
226 238 255
226 238 255
226 238 255
226 238 255
226 238 255
226 238 255
226 238 255
226 238 255
226 238 255
226 238 255
226 238 255
226 238 255
226 238 255
226 238 255
226 238 255
226 238 255
226 238 255
226 238 255
226 238 255
226 238 255
226 238 255
226 238 255
226 238 255
226 238 255
226 238 255
226 238 255
226 238 255
226 238 255
226 238 255
226 238 255
226 238 255
226 238 255
226 238 255
226 238 255
226 238 255
226 238 255
226 238 255
226 238 255
226 238 255
226 238 255
226 238 255
226 238 255
226 238 255
226 238 255
226 238 255
226 238 255
226 238 255
226 238 255
226 238 255
226 238 255
226 238 255
226 238 255
226 238 255
226 238 255
226 238 255
226 238 255
226 238 255
226 238 255
226 238 255
226 238 255
226 238 255
226 238 255
226 238 255
226 238 255
226 238 255
226 238 255
226 238 255
226 238 255
226 238 255
226 238 255
226 238 255
214 227 246
109 137 182
15 91 156
12 85 153
13 75 148
16 68 144
16 70 145
12 69 145
10 63 141
4 65 142
7 64 141
12 63 140
17 64 140
16 64 141
12 61 139
6 59 138
15 62 139
10 60 137
9 57 137
11 54 135
9 45 129
13 44 129
16 42 126
7 38 125
3 42 127
13 42 126
4 42 127
11 42 126
17 42 126
14 42 126
7 49 131
13 58 135
0 58 136
9 57 136
11 48 130
15 43 127
11 52 134
14 54 135
3 54 132
13 57 135
10 56 135
6 51 133
12 52 134
14 52 133
3 50 131
15 54 132
9 51 132
0 51 132
1 54 134
2 53 134
8 55 134
11 59 137
10 58 137
18 56 134
20 62 139
18 61 139
11 55 135
5 49 130
12 47 128
0 41 126
6 40 126
8 38 125
6 37 124
4 36 124
9 43 127
5 49 131
9 51 132
16 56 133
10 55 133
5 48 131
3 46 129
0 45 129
1 49 131
3 50 133
6 48 132
19 59 137
9 62 139
27 79 151
89 118 143
158 178 198
217 226 238
197 209 214
171 172 154
170 164 134
160 152 110
144 142 123
62 97 147
40 85 151
16 78 152
6 77 150
16 71 145
13 66 144
10 62 140
13 63 139
26 66 141
56 87 138
63 86 142
51 80 141
14 66 143
9 62 138
14 57 137
17 56 137
8 58 137
13 60 138
8 59 136
11 58 137
8 61 140
12 62 139
8 62 139
8 65 142
17 72 147
28 80 150
44 76 146
19 63 140
14 66 142
10 68 144
113 131 177
210 222 243
226 238 255
226 238 255
226 238 255
226 238 255
226 238 255
226 238 255
226 238 255
226 238 255
226 238 255
226 238 255
226 238 255
226 238 255
226 238 255
226 238 255
226 238 255
226 238 255
226 238 255
226 238 255
226 238 255
226 238 255
226 238 255
226 238 255
226 238 255
226 238 255
226 238 255
226 238 255
226 238 255
226 238 255
226 238 255
226 238 255
226 238 255
226 238 255
226 238 255
226 238 255
226 238 255
226 238 255
226 238 255
226 238 255
226 238 255
226 238 255
226 238 255
226 238 255
226 238 255
226 238 255
226 238 255
226 238 255
226 238 255
226 238 255
226 238 255
226 238 255
226 238 255
226 238 255
226 238 255
226 238 255
226 238 255
226 238 255
226 238 255
226 238 255
226 238 255
226 238 255
226 238 255
226 238 255
226 238 255
226 238 255
226 238 255
226 238 255
226 238 255
226 238 255
226 238 255
226 238 255
226 238 255
226 238 255
226 238 255
226 238 255
226 238 255
226 238 255
226 238 255
226 238 255
226 238 255
226 238 255
226 238 255
226 238 255
226 238 255
226 238 255
226 238 255
226 238 255
226 238 255
226 238 255
226 238 255
226 238 255
226 238 255
226 238 255
226 238 255
226 238 255
226 238 255
226 238 255
226 238 255
226 238 255
226 238 255
226 238 255
226 238 255
226 238 255
226 238 255
226 238 255
226 238 255
226 238 255
226 238 255
226 238 255
226 238 255
226 238 255
226 238 255
226 238 255
226 238 255
226 238 255
226 238 255
226 238 255
226 238 255
226 238 255
226 238 255
226 238 255
226 238 255
226 238 255
226 238 255
226 238 255
226 238 255
226 238 255
226 238 255
226 238 255
226 238 255
226 238 255
226 238 255
226 238 255
226 238 255
226 238 255
226 238 255
226 238 255
226 238 255
226 238 255
226 238 255
226 238 255
226 238 255
226 238 255
226 238 255
226 238 255
226 238 255
226 238 255
226 238 255
226 238 255
226 238 255
226 238 255
226 238 255
226 238 255
226 238 255
226 238 255
226 238 255
226 238 255
226 238 255
226 238 255
226 238 255
226 238 255
226 238 255
226 238 255
226 238 255
226 238 255
226 238 255
226 238 255
226 238 255
226 238 255
226 238 255
226 238 255
226 238 255
226 238 255
226 238 255
226 238 255
226 238 255
226 238 255
226 238 255
226 238 255
226 238 255
226 238 255
226 238 255
226 238 255
226 238 255
226 238 255
226 238 255
226 238 255
226 238 255
226 238 255
226 238 255
226 238 255
226 238 255
226 238 255
226 238 255
226 238 255
226 238 255
226 238 255
226 238 255
226 238 255
226 238 255
226 238 255
226 238 255
226 238 255
226 238 255
226 238 255
226 238 255
226 238 255
226 238 255
226 238 255
226 238 255
226 238 255
226 238 255
226 238 255
226 238 255
226 238 255
226 238 255
226 238 255
226 238 255
226 238 255
226 238 255
226 238 255
226 238 255
226 238 255
226 238 255
226 238 255
226 238 255
226 238 255
226 238 255
226 238 255
226 238 255
226 238 255
226 238 255
226 238 255
226 238 255
226 238 255
226 238 255
226 238 255
226 238 255
226 238 255
226 238 255
226 238 255
226 238 255
226 238 255
226 238 255
226 238 255
226 238 255
226 238 255
226 238 255
226 238 255
226 238 255
226 238 255
226 238 255
226 238 255
226 238 255
226 238 255
226 238 255
226 238 255
226 238 255
226 238 255
226 238 255
226 238 255
226 238 255
226 238 255
226 238 255
226 238 255
226 238 255
226 238 255
226 238 255
226 238 255
226 238 255
226 238 255
226 238 255
226 238 255
226 238 255
226 238 255
226 238 255
226 238 255
226 238 255
226 238 255
226 238 255
226 238 255
226 238 255
226 238 255
226 238 255
226 238 255
181 199 225
61 111 167
14 89 156
15 80 151
11 79 149
15 75 148
14 68 144
12 65 141
12 60 139
16 61 139
14 68 143
10 65 141
10 62 140
13 65 142
16 65 141
8 61 139
9 59 138
8 63 140
13 69 144
13 64 140
4 54 133
9 40 126
16 34 125
7 40 127
8 41 127
12 46 130
7 53 134
19 58 136
15 54 134
13 50 131
10 52 132
17 54 136
11 60 136
12 57 134
16 49 131
9 47 130
11 54 133
12 57 135
9 60 138
12 60 138
17 55 135
12 53 134
2 49 131
5 51 131
10 56 136
5 59 137
5 58 138
10 60 138
4 60 138
14 62 139
17 62 140
11 59 139
9 54 133
4 56 135
18 60 139
12 54 136
13 54 135
5 54 135
10 51 132
6 44 129
4 45 127
0 42 127
0 41 127
8 45 129
9 50 132
3 55 136
11 60 138
19 59 138
14 58 136
15 54 134
11 58 137
8 58 138
7 57 136
5 59 138
16 64 141
38 85 152
98 129 160
150 169 187
195 204 209
169 165 143
166 159 123
153 146 106
143 138 100
84 114 147
25 84 151
8 81 152
5 79 151
8 77 149
10 69 145
11 65 143
9 67 145
36 76 142
70 94 134
96 112 133
80 102 132
24 71 141
15 63 141
0 61 138
12 57 137
10 58 137
11 61 139
10 62 141
6 63 139
9 67 142
16 67 143
8 66 142
3 67 143
10 67 144
19 74 148
88 112 163
34 78 148
17 77 149
65 103 162
180 194 221
226 238 255
226 238 255
226 238 255
226 238 255
226 238 255
226 238 255
226 238 255
226 238 255
226 238 255
226 238 255
226 238 255
226 238 255
226 238 255
226 238 255
226 238 255
226 238 255
226 238 255
226 238 255
226 238 255
226 238 255
226 238 255
226 238 255
226 238 255
226 238 255
226 238 255
226 238 255
226 238 255
226 238 255
226 238 255
226 238 255
226 238 255
226 238 255
226 238 255
226 238 255
226 238 255
226 238 255
226 238 255
226 238 255
226 238 255
226 238 255
226 238 255
226 238 255
226 238 255
226 238 255
226 238 255
226 238 255
226 238 255
226 238 255
226 238 255
226 238 255
226 238 255
226 238 255
226 238 255
226 238 255
226 238 255
226 238 255
226 238 255
226 238 255
226 238 255
226 238 255
226 238 255
226 238 255
226 238 255
226 238 255
226 238 255
226 238 255
226 238 255
226 238 255
226 238 255
226 238 255
226 238 255
226 238 255
226 238 255
226 238 255
226 238 255
226 238 255
226 238 255
226 238 255
226 238 255
226 238 255
226 238 255
226 238 255
226 238 255
226 238 255
226 238 255
226 238 255
226 238 255
226 238 255
226 238 255
226 238 255
226 238 255
226 238 255
226 238 255
226 238 255
226 238 255
226 238 255
226 238 255
226 238 255
226 238 255
226 238 255
226 238 255
226 238 255
226 238 255
226 238 255
226 238 255
226 238 255
226 238 255
226 238 255
226 238 255
226 238 255
226 238 255
226 238 255
226 238 255
226 238 255
226 238 255
226 238 255
226 238 255
226 238 255
226 238 255
226 238 255
226 238 255
226 238 255
226 238 255
226 238 255
226 238 255
226 238 255
226 238 255
226 238 255
226 238 255
226 238 255
226 238 255
226 238 255
226 238 255
226 238 255
226 238 255
226 238 255
226 238 255
226 238 255
226 238 255
226 238 255
226 238 255
226 238 255
226 238 255
226 238 255
226 238 255
226 238 255
226 238 255
226 238 255
226 238 255
226 238 255
226 238 255
226 238 255
226 238 255
226 238 255
226 238 255
226 238 255
226 238 255
226 238 255
226 238 255
226 238 255
226 238 255
226 238 255
226 238 255
226 238 255
226 238 255
226 238 255
226 238 255
226 238 255
226 238 255
226 238 255
226 238 255
226 238 255
226 238 255
226 238 255
226 238 255
226 238 255
226 238 255
226 238 255
226 238 255
226 238 255
226 238 255
226 238 255
226 238 255
226 238 255
226 238 255
226 238 255
226 238 255
226 238 255
226 238 255
226 238 255
226 238 255
226 238 255
226 238 255
226 238 255
226 238 255
226 238 255
226 238 255
226 238 255
226 238 255
226 238 255
226 238 255
226 238 255
226 238 255
226 238 255
226 238 255
226 238 255
226 238 255
226 238 255
226 238 255
226 238 255
226 238 255
226 238 255
226 238 255
226 238 255
226 238 255
226 238 255
226 238 255
226 238 255
226 238 255
226 238 255
226 238 255
226 238 255
226 238 255
226 238 255
226 238 255
226 238 255
226 238 255
226 238 255
226 238 255
226 238 255
226 238 255
226 238 255
226 238 255
226 238 255
226 238 255
226 238 255
226 238 255
226 238 255
226 238 255
226 238 255
226 238 255
226 238 255
226 238 255
226 238 255
226 238 255
226 238 255
226 238 255
226 238 255
226 238 255
226 238 255
226 238 255
226 238 255
226 238 255
226 238 255
226 238 255
226 238 255
226 238 255
226 238 255
226 238 255
226 238 255
226 238 255
226 238 255
226 238 255
226 238 255
226 238 255
226 238 255
226 238 255
226 238 255
226 238 255
226 238 255
226 238 255
226 238 255
226 238 255
226 238 255
226 238 255
226 238 255
226 238 255
226 238 255
226 238 255
226 238 255
226 238 255
226 238 255
226 238 255
226 238 255
226 238 255
226 238 255
226 238 255
220 233 251
151 175 208
28 98 161
11 86 154
14 76 148
11 77 149
15 83 152
11 72 145
15 63 141
16 63 140
19 72 146
11 71 146
14 69 145
11 70 144
9 66 142
13 59 138
11 61 139
18 65 142
13 66 144
10 65 141
15 53 135
17 42 127
12 41 127
10 50 131
11 50 131
7 51 132
11 59 137
14 59 138
14 57 136
9 49 131
0 43 129
11 51 133
11 55 134
10 58 137
12 59 138
7 59 137
4 60 138
6 63 141
10 67 143
4 63 140
18 64 140
8 58 137
14 50 131
14 53 133
13 59 138
17 58 136
9 57 136
16 62 139
19 65 140
8 59 136
4 55 135
17 64 140
15 63 140
20 64 141
12 58 139
14 59 139
9 62 139
12 55 135
0 47 131
0 50 131
8 50 132
6 47 130
11 46 128
5 50 130
9 57 136
5 62 140
2 61 139
2 58 137
15 56 137
9 60 138
7 61 140
13 69 144
6 72 145
3 74 147
54 96 154
87 122 155
138 158 174
148 162 172
152 158 141
150 141 116
137 139 122
115 130 132
64 109 150
18 80 152
19 80 152
10 74 147
11 66 142
10 63 141
11 65 143
15 64 142
9 68 145
20 73 145
17 72 145
12 68 145
13 59 138
14 61 139
12 57 136
14 57 136
14 63 140
13 66 143
13 67 143
12 66 143
14 68 144
14 65 142
14 63 141
18 72 146
15 70 144
20 75 149
18 80 150
17 80 150
125 149 190
224 236 254
226 238 255
226 238 255
226 238 255
226 238 255
226 238 255
226 238 255
226 238 255
226 238 255
226 238 255
226 238 255
226 238 255
226 238 255
226 238 255
226 238 255
226 238 255
226 238 255
226 238 255
226 238 255
226 238 255
226 238 255
226 238 255
226 238 255
226 238 255
226 238 255
226 238 255
226 238 255
226 238 255
226 238 255
226 238 255
226 238 255
226 238 255
226 238 255
226 238 255
226 238 255
226 238 255
226 238 255
226 238 255
226 238 255
226 238 255
226 238 255
226 238 255
226 238 255
226 238 255
226 238 255
226 238 255
226 238 255
226 238 255
226 238 255
226 238 255
226 238 255
226 238 255
226 238 255
226 238 255
226 238 255
226 238 255
226 238 255
226 238 255
226 238 255
226 238 255
226 238 255
226 238 255
226 238 255
226 238 255
226 238 255
226 238 255
226 238 255
226 238 255
226 238 255
226 238 255
226 238 255
226 238 255
226 238 255
226 238 255
226 238 255
226 238 255
226 238 255
226 238 255
226 238 255
226 238 255
226 238 255
226 238 255
226 238 255
226 238 255
226 238 255
226 238 255
226 238 255
226 238 255
226 238 255
226 238 255
226 238 255
226 238 255
226 238 255
226 238 255
226 238 255
226 238 255
226 238 255
226 238 255
226 238 255
226 238 255
226 238 255
226 238 255
226 238 255
226 238 255
226 238 255
226 238 255
226 238 255
226 238 255
226 238 255
226 238 255
226 238 255
226 238 255
226 238 255
226 238 255
226 238 255
226 238 255
226 238 255
226 238 255
226 238 255
226 238 255
226 238 255
226 238 255
226 238 255
226 238 255
226 238 255
226 238 255
226 238 255
226 238 255
226 238 255
226 238 255
226 238 255
226 238 255
226 238 255
226 238 255
226 238 255
226 238 255
226 238 255
226 238 255
226 238 255
226 238 255
226 238 255
226 238 255
226 238 255
226 238 255
226 238 255
226 238 255
226 238 255
226 238 255
226 238 255
226 238 255
226 238 255
226 238 255
226 238 255
226 238 255
226 238 255
226 238 255
226 238 255
226 238 255
226 238 255
226 238 255
226 238 255
226 238 255
226 238 255
226 238 255
226 238 255
226 238 255
226 238 255
226 238 255
226 238 255
226 238 255
226 238 255
226 238 255
226 238 255
226 238 255
226 238 255
226 238 255
226 238 255
226 238 255
226 238 255
226 238 255
226 238 255
226 238 255
226 238 255
226 238 255
226 238 255
226 238 255
226 238 255
226 238 255
226 238 255
226 238 255
226 238 255
226 238 255
226 238 255
226 238 255
226 238 255
226 238 255
226 238 255
226 238 255
226 238 255
226 238 255
226 238 255
226 238 255
226 238 255
226 238 255
226 238 255
226 238 255
226 238 255
226 238 255
226 238 255
226 238 255
226 238 255
226 238 255
226 238 255
226 238 255
226 238 255
226 238 255
226 238 255
226 238 255
226 238 255
226 238 255
226 238 255
226 238 255
226 238 255
226 238 255
226 238 255
226 238 255
226 238 255
226 238 255
226 238 255
226 238 255
226 238 255
226 238 255
226 238 255
226 238 255
226 238 255
226 238 255
226 238 255
226 238 255
226 238 255
226 238 255
226 238 255
226 238 255
226 238 255
226 238 255
226 239 255
226 239 255
226 239 255
226 239 255
226 239 255
226 239 255
226 239 255
226 239 255
226 239 255
226 239 255
226 239 255
226 239 255
226 239 255
226 239 255
226 239 255
226 239 255
226 239 255
226 239 255
226 239 255
226 239 255
226 239 255
226 239 255
226 239 255
226 239 255
226 239 255
226 239 255
226 239 255
226 239 255
226 239 255
226 239 255
226 239 255
226 239 255
226 239 255
226 239 255
226 239 255
226 239 255
226 239 255
226 239 255
226 239 255
227 239 255
227 239 255
227 239 255
227 239 255
227 239 255
227 239 255
227 239 255
227 239 255
213 226 246
122 155 194
17 98 160
10 90 156
13 85 153
13 89 155
13 78 150
16 70 145
19 63 140
18 68 144
15 72 145
16 76 146
10 73 147
19 71 147
15 63 141
14 67 142
14 65 142
10 63 140
10 68 144
12 66 141
18 58 137
12 49 130
18 53 132
6 50 131
14 48 131
10 52 133
17 54 134
8 57 136
17 54 135
9 51 134
12 55 135
7 53 133
11 55 134
10 58 136
11 61 139
9 64 141
10 65 143
8 62 140
10 56 136
8 54 135
10 54 135
9 46 128
8 49 130
11 55 136
18 63 140
11 63 140
5 66 141
8 76 150
9 65 142
20 65 141
6 61 139
5 60 139
10 58 139
3 58 138
7 59 137
6 50 133
3 47 132
3 54 134
14 59 137
6 51 132
6 46 129
9 57 135
1 61 139
11 65 141
12 63 141
8 59 138
17 57 137
7 59 138
9 69 144
16 71 146
7 70 146
21 74 147
36 86 152
81 120 158
161 180 197
164 178 196
149 167 174
93 115 139
126 134 121
142 142 120
58 106 157
11 82 152
21 77 149
21 68 144
10 67 143
14 68 144
13 65 142
10 66 142
10 70 145
15 67 143
5 69 143
9 66 143
13 66 142
6 60 138
12 57 136
7 57 136
14 62 140
10 67 142
10 72 146
15 70 145
8 69 144
14 74 146
13 76 149
10 77 149
15 85 153
21 83 152
129 149 190
210 224 244
227 239 255
227 239 255
227 239 255
227 239 255
227 239 255
227 239 255
227 239 255
226 239 255
226 239 255
226 239 255
226 239 255
226 239 255
226 239 255
226 239 255
226 239 255
226 239 255
226 239 255
226 239 255
226 239 255
226 239 255
226 239 255
226 239 255
226 239 255
226 239 255
226 239 255
226 239 255
226 239 255
226 239 255
226 239 255
226 239 255
226 239 255
226 239 255
226 239 255
226 239 255
226 239 255
226 239 255
226 239 255
226 239 255
226 239 255
226 239 255
226 239 255
226 239 255
226 239 255
226 239 255
226 239 255
226 239 255
226 239 255
226 238 255
226 238 255
226 238 255
226 238 255
226 238 255
226 238 255
226 238 255
226 238 255
226 238 255
226 238 255
226 238 255
226 238 255
226 238 255
226 238 255
226 238 255
226 238 255
226 238 255
226 238 255
226 238 255
226 238 255
226 238 255
226 238 255
226 238 255
226 238 255
226 238 255
226 238 255
226 238 255
226 238 255
226 238 255
226 238 255
226 238 255
226 238 255
226 238 255
226 238 255
226 238 255
226 238 255
226 238 255
226 238 255
226 238 255
226 238 255
226 238 255
226 238 255
226 238 255
226 238 255
226 238 255
226 238 255
226 238 255
226 238 255
226 238 255
226 238 255
226 238 255
226 238 255
226 238 255
226 238 255
226 238 255
226 238 255
226 238 255
226 238 255
226 238 255
226 238 255
226 238 255
226 238 255
226 238 255
226 238 255
226 238 255
226 238 255
226 238 255
226 238 255
226 238 255
226 238 255
226 238 255
226 238 255
226 238 255
226 238 255
226 238 255
226 238 255
226 238 255
226 238 255
226 238 255
226 238 255
226 238 255
226 238 255
226 238 255
226 238 255
226 238 255
226 238 255
226 238 255
226 238 255
226 238 255
226 238 255
226 238 255
226 238 255
226 238 255
226 238 255
226 238 255
226 238 255
226 238 255
226 238 255
226 238 255
226 238 255
226 238 255
226 238 255
226 238 255
226 238 255
226 238 255
226 238 255
226 238 255
226 238 255
226 238 255
226 238 255
226 238 255
226 238 255
226 238 255
226 238 255
226 238 255
226 238 255
226 238 255
226 238 255
226 238 255
226 238 255
226 238 255
226 238 255
226 238 255
226 238 255
226 238 255
226 238 255
226 238 255
226 238 255
226 238 255
226 238 255
226 238 255
226 238 255
226 238 255
226 238 255
226 238 255
226 238 255
226 238 255
226 238 255
226 238 255
226 238 255
226 238 255
226 238 255
226 238 255
226 238 255
226 238 255
226 238 255
226 238 255
226 238 255
226 238 255
226 238 255
226 238 255
226 238 255
226 238 255
226 238 255
226 238 255
226 238 255
226 238 255
226 238 255
226 238 255
226 239 255
226 239 255
226 239 255
226 239 255
226 239 255
226 239 255
226 239 255
226 239 255
226 239 255
226 239 255
226 239 255
226 239 255
226 239 255
226 239 255
226 239 255
226 239 255
226 239 255
226 239 255
226 239 255
226 239 255
226 239 255
226 239 255
226 239 255
226 239 255
226 239 255
226 239 255
226 239 255
227 239 255
227 239 255
227 239 255
227 239 255
227 239 255
227 239 255
227 239 255
227 239 255
227 239 255
227 239 255
227 239 255
227 239 255
227 239 255
227 239 255
227 239 255
227 239 255
227 239 255
227 239 255
227 239 255
227 239 255
227 239 255
227 239 255
227 239 255
227 239 255
227 239 255
227 239 255
227 239 255
227 239 255
227 239 255
227 239 255
227 239 255
227 239 255
227 239 255
227 239 255
227 239 255
227 239 255
227 239 255
227 239 255
227 239 255
227 239 255
227 239 255
227 239 255
227 239 255
227 239 255
227 239 255
227 239 255
227 239 255
227 239 255
227 239 255
227 239 255
227 239 255
227 239 255
227 239 255
227 239 255
227 239 255
227 239 255
227 239 255
227 239 255
227 239 255
227 239 255
227 239 255
189 207 231
105 146 188
19 101 162
12 89 156
12 89 156
13 91 156
18 78 150
15 72 146
7 68 142
13 77 148
18 80 150
14 78 150
11 81 151
14 70 145
16 70 145
7 68 144
12 66 143
11 73 147
13 70 146
13 63 140
16 50 132
11 55 134
20 57 137
15 54 135
16 60 138
13 63 141
21 60 138
17 57 136
13 51 132
17 58 136
10 57 136
14 57 137
13 58 138
10 64 141
4 64 141
11 64 142
9 62 140
8 58 138
11 57 135
13 54 134
10 50 132
12 55 135
12 62 140
20 65 141
3 67 143
16 70 145
7 69 146
6 68 145
14 64 141
4 62 141
0 60 139
11 61 139
19 58 137
12 53 134
10 53 132
14 57 137
13 59 138
10 57 135
9 55 134
16 64 140
3 63 141
13 61 139
14 56 137
7 59 138
13 60 139
16 63 142
12 68 144
9 65 140
15 63 141
10 66 142
18 73 150
41 97 153
123 151 178
152 170 192
166 181 201
156 175 188
158 169 167
144 149 127
118 132 120
66 99 140
34 81 149
25 74 143
11 70 144
12 71 146
11 66 144
15 65 143
5 74 147
7 75 148
7 70 144
13 64 140
10 60 137
11 64 141
15 65 141
13 63 141
12 64 142
13 72 147
15 87 154
19 85 153
9 76 148
11 77 149
9 76 149
22 78 151
119 140 184
186 201 226
227 239 255
227 239 255
227 239 255
227 239 255
227 239 255
227 239 255
227 239 255
227 239 255
227 239 255
227 239 255
227 239 255
227 239 255
227 239 255
227 239 255
227 239 255
227 239 255
227 239 255
227 239 255
227 239 255
227 239 255
227 239 255
227 239 255
227 239 255
227 239 255
227 239 255
227 239 255
227 239 255
227 239 255
227 239 255
227 239 255
227 239 255
227 239 255
227 239 255
227 239 255
227 239 255
227 239 255
227 239 255
227 239 255
227 239 255
227 239 255
227 239 255
227 239 255
227 239 255
227 239 255
227 239 255
227 239 255
227 239 255
227 239 255
227 239 255
227 239 255
227 239 255
227 239 255
227 239 255
227 239 255
227 239 255
227 239 255
227 239 255
227 239 255
227 239 255
227 239 255
226 239 255
226 239 255
226 239 255
226 239 255
226 239 255
226 239 255
226 239 255
226 239 255
226 239 255
226 239 255
226 239 255
226 239 255
226 239 255
226 239 255
226 239 255
226 239 255
226 239 255
226 239 255
226 239 255
226 239 255
226 239 255
226 239 255
226 239 255
226 239 255
226 239 255
226 239 255
226 239 255
226 238 255
226 238 255
226 238 255
226 238 255
226 238 255
226 238 255
226 238 255
226 238 255
226 238 255
226 238 255
226 238 255
226 238 255
226 238 255
226 238 255
226 238 255
226 238 255
226 238 255
226 238 255
226 238 255
226 238 255
226 238 255
226 238 255
226 238 255
226 238 255
226 238 255
226 238 255
226 238 255
226 238 255
226 238 255
226 238 255
226 238 255
226 238 255
226 238 255
226 238 255
226 238 255
226 238 255
226 238 255
226 238 255
226 238 255
226 238 255
226 238 255
226 238 255
226 238 255
226 238 255
226 238 255
226 238 255
226 238 255
226 238 255
226 238 255
226 238 255
226 238 255
226 238 255
226 238 255
226 238 255
226 238 255
226 238 255
226 238 255
226 238 255
226 238 255
226 238 255
226 238 255
226 238 255
226 238 255
226 238 255
226 238 255
226 238 255
226 238 255
226 238 255
226 238 255
226 238 255
226 238 255
226 238 255
226 238 255
226 238 255
226 238 255
226 238 255
226 238 255
226 238 255
226 238 255
226 238 255
226 238 255
226 238 255
226 238 255
226 238 255
226 238 255
226 238 255
226 238 255
226 238 255
226 238 255
226 238 255
226 238 255
226 238 255
226 238 255
226 239 255
226 239 255
226 239 255
226 239 255
226 239 255
226 239 255
226 239 255
226 239 255
226 239 255
226 239 255
226 239 255
226 239 255
226 239 255
226 239 255
226 239 255
226 239 255
226 239 255
226 239 255
226 239 255
227 239 255
226 239 255
226 239 255
227 239 255
227 239 255
227 239 255
227 239 255
227 239 255
227 239 255
227 239 255
227 239 255
227 239 255
227 239 255
227 239 255
227 239 255
227 239 255
227 239 255
227 239 255
227 239 255
227 239 255
227 239 255
227 239 255
227 239 255
227 239 255
227 239 255
227 239 255
227 239 255
227 239 255
227 239 255
227 239 255
227 239 255
227 239 255
227 239 255
227 239 255
227 239 255
227 239 255
227 239 255
227 239 255
227 239 255
227 239 255
227 239 255
227 239 255
227 239 255
227 239 255
227 239 255
227 239 255
227 239 255
227 239 255
227 239 255
227 239 255
227 239 255
227 239 255
227 239 255
227 239 255
227 239 255
227 239 255
227 239 255
227 239 255
227 239 255
227 239 255
227 239 255
227 239 255
227 239 255
227 239 255
227 239 255
227 239 255
227 239 255
227 239 255
227 239 255
227 239 255
227 239 255
227 239 255
227 239 255
227 239 255
227 239 255
227 239 255
227 239 255
227 239 255
227 239 255
227 239 255
227 239 255
227 239 255
227 239 255
227 239 255
227 239 255
227 239 255
227 239 255
227 239 255
227 239 255
227 239 255
227 239 255
227 239 255
227 239 255
227 239 255
227 239 255
227 239 255
227 239 255
227 239 255
227 239 255
188 204 229
105 138 181
44 102 163
17 98 160
17 89 156
13 88 155
17 90 157
17 90 156
12 85 154
19 85 154
15 83 153
14 85 153
14 82 151
14 76 149
23 82 152
14 81 151
18 80 152
13 81 151
15 75 147
15 71 144
16 72 146
18 70 143
15 65 140
17 67 143
13 69 145
14 71 146
8 70 146
19 69 144
10 66 142
19 65 142
12 63 139
7 64 141
5 68 143
11 67 143
20 67 143
15 65 141
13 61 138
16 57 136
4 51 133
12 64 139
14 62 139
8 59 137
14 65 141
7 66 142
13 69 144
10 67 143
0 62 140
5 65 143
15 64 141
8 61 139
9 57 137
10 54 135
12 54 134
15 55 136
19 59 138
7 58 137
6 57 136
14 62 139
14 63 140
14 60 138
14 63 140
6 60 138
17 61 140
8 59 136
7 59 136
15 69 144
11 66 145
15 63 138
11 66 142
20 71 148
25 80 148
65 104 162
80 127 165
116 149 174
87 132 155
71 110 145
40 88 150
22 70 144
13 67 143
13 65 143
14 67 142
14 67 144
9 71 146
11 79 151
10 78 150
9 74 147
16 69 145
12 71 146
4 70 146
9 67 144
11 74 147
13 82 151
16 81 152
8 83 153
12 93 158
21 96 160
24 89 156
30 76 149
91 117 169
176 191 220
225 238 255
227 239 255
227 239 255
227 239 255
227 239 255
227 239 255
227 239 255
227 239 255
227 239 255
227 239 255
227 239 255
227 239 255
227 239 255
227 239 255
227 239 255
227 239 255
227 239 255
227 239 255
227 239 255
227 239 255
227 239 255
227 239 255
227 239 255
227 239 255
227 239 255
227 239 255
227 239 255
227 239 255
227 239 255
227 239 255
227 239 255
227 239 255
227 239 255
227 239 255
227 239 255
227 239 255
227 239 255
227 239 255
227 239 255
227 239 255
227 239 255
227 239 255
227 239 255
227 239 255
227 239 255
227 239 255
227 239 255
227 239 255
227 239 255
227 239 255
227 239 255
227 239 255
227 239 255
227 239 255
227 239 255
227 239 255
227 239 255
227 239 255
227 239 255
227 239 255
227 239 255
227 239 255
227 239 255
227 239 255
227 239 255
227 239 255
227 239 255
227 239 255
227 239 255
227 239 255
227 239 255
227 239 255
227 239 255
227 239 255
227 239 255
227 239 255
227 239 255
227 239 255
227 239 255
227 239 255
227 239 255
227 239 255
227 239 255
227 239 255
227 239 255
227 239 255
227 239 255
227 239 255
227 239 255
227 239 255
227 239 255
227 239 255
227 239 255
227 239 255
227 239 255
227 239 255
226 239 255
226 239 255
226 239 255
226 239 255
226 239 255
226 239 255
226 239 255
226 239 255
226 239 255
226 239 255
226 239 255
226 239 255
226 239 255
226 239 255
226 239 255
226 239 255
226 239 255
226 239 255
226 239 255
226 239 255
226 239 255
226 239 255
226 238 255
226 238 255
226 238 255
226 238 255
226 238 255
226 238 255
226 238 255
226 238 255
226 238 255
226 238 255
226 238 255
226 238 255
226 238 255
226 238 255
226 238 255
226 238 255
226 238 255
226 238 255
226 238 255
226 238 255
226 238 255
226 238 255
226 238 255
226 238 255
226 238 255
226 238 255
226 238 255
226 238 255
226 238 255
226 238 255
226 238 255
226 238 255
226 238 255
226 238 255
226 238 255
226 238 255
226 238 255
226 238 255
226 238 255
226 239 255
226 239 255
226 239 255
226 239 255
226 239 255
226 239 255
226 239 255
226 239 255
226 239 255
226 239 255
226 239 255
226 239 255
226 239 255
226 239 255
226 239 255
226 239 255
226 239 255
227 239 255
227 239 255
227 239 255
227 239 255
227 239 255
227 239 255
227 239 255
227 239 255
227 239 255
227 239 255
227 239 255
227 239 255
227 239 255
227 239 255
227 239 255
227 239 255
227 239 255
227 239 255
227 239 255
227 239 255
227 239 255
227 239 255
227 239 255
227 239 255
227 239 255
227 239 255
227 239 255
227 239 255
227 239 255
227 239 255
227 239 255
227 239 255
227 239 255
227 239 255
227 239 255
227 239 255
227 239 255
227 239 255
227 239 255
227 239 255
227 239 255
227 239 255
227 239 255
227 239 255
227 239 255
227 239 255
227 239 255
227 239 255
227 239 255
227 239 255
227 239 255
227 239 255
227 239 255
227 239 255
227 239 255
227 239 255
227 239 255
227 239 255
227 239 255
227 239 255
227 239 255
227 239 255
227 239 255
227 239 255
227 239 255
227 239 255
227 239 255
227 239 255
227 239 255
227 239 255
227 239 255
227 239 255
227 239 255
227 239 255
227 239 255
227 239 255
227 239 255
227 239 255
227 239 255
227 239 255
227 239 255
227 239 255
227 239 255
227 239 255
227 239 255
227 239 255
227 239 255
227 239 255
227 239 255
227 239 255
227 239 255
227 239 255
227 239 255
227 239 255
227 239 255
227 239 255
227 239 255
227 239 255
227 239 255
227 239 255
227 239 255
227 239 255
227 239 255
227 239 255
227 239 255
227 239 255
227 239 255
227 239 255
227 239 255
227 239 255
227 239 255
227 239 255
227 239 255
227 239 255
227 239 255
227 239 255
227 239 255
227 239 255
227 239 255
227 239 255
227 239 255
227 239 255
227 239 255
227 239 255
227 239 255
227 239 255
227 239 255
226 238 255
191 206 229
127 153 192
41 106 165
19 94 159
21 94 158
19 93 158
16 94 159
14 88 156
15 89 155
20 89 155
18 91 156
22 89 155
23 84 152
16 91 156
18 90 156
16 86 153
21 82 151
19 83 152
17 82 151
16 70 144
12 60 138
11 59 138
15 64 140
18 61 138
18 66 142
17 68 143
17 64 140
20 60 139
17 64 141
15 67 142
16 71 145
10 69 145
9 70 146
5 68 143
18 66 141
13 68 142
10 56 136
18 65 141
10 68 145
5 65 142
12 66 143
18 64 141
9 64 141
5 66 143
6 69 144
5 67 144
7 63 140
0 59 137
11 60 138
8 57 136
18 57 137
10 67 142
16 69 143
11 58 137
12 55 135
20 61 138
13 58 137
14 62 139
13 68 144
11 64 141
12 60 139
17 57 136
14 59 139
22 80 151
14 67 145
19 65 143
7 67 144
20 65 142
18 62 141
13 64 141
13 69 145
12 82 152
12 85 154
13 77 150
20 70 145
16 70 144
23 81 151
18 77 149
14 79 149
13 80 151
15 79 151
11 76 148
13 71 146
13 66 143
5 71 146
11 75 149
16 78 150
15 76 149
20 81 152
18 83 152
20 92 157
22 93 156
100 129 177
145 161 194
167 179 208
189 202 227
226 238 255
227 239 255
227 239 255
227 239 255
227 239 255
227 239 255
227 239 255
227 239 255
227 239 255
227 239 255
227 239 255
227 239 255
227 239 255
227 239 255
227 239 255
227 239 255
227 239 255
227 239 255
227 239 255
227 239 255
227 239 255
227 239 255
227 239 255
227 239 255
227 239 255
227 239 255
227 239 255
227 239 255
227 239 255
227 239 255
227 239 255
227 239 255
227 239 255
227 239 255
227 239 255
227 239 255
227 239 255
227 239 255
227 239 255
227 239 255
227 239 255
227 239 255
227 239 255
227 239 255
227 239 255
227 239 255
227 239 255
227 239 255
227 239 255
227 239 255
227 239 255
227 239 255
227 239 255
227 239 255
227 239 255
227 239 255
227 239 255
227 239 255
227 239 255
227 239 255
227 239 255
227 239 255
227 239 255
227 239 255
227 239 255
227 239 255
227 239 255
227 239 255
227 239 255
227 239 255
227 239 255
227 239 255
227 239 255
227 239 255
227 239 255
227 239 255
227 239 255
227 239 255
227 239 255
227 239 255
227 239 255
227 239 255
227 239 255
227 239 255
227 239 255
227 239 255
227 239 255
227 239 255
227 239 255
227 239 255
227 239 255
227 239 255
227 239 255
227 239 255
227 239 255
227 239 255
227 239 255
227 239 255
227 239 255
227 239 255
227 239 255
227 239 255
227 239 255
227 239 255
227 239 255
227 239 255
227 239 255
227 239 255
227 239 255
227 239 255
227 239 255
227 239 255
227 239 255
227 239 255
227 239 255
227 239 255
227 239 255
227 239 255
227 239 255
227 239 255
227 239 255
227 239 255
227 239 255
227 239 255
227 239 255
227 239 255
226 239 255
226 239 255
226 239 255
226 239 255
226 239 255
226 239 255
226 239 255
226 239 255
226 239 255
226 239 255
226 239 255
226 239 255
226 239 255
226 239 255
226 239 255
226 239 255
226 239 255
226 239 255
226 239 255
226 238 255
226 238 255
226 238 255
226 238 255
226 238 255
226 238 255
226 238 255
226 239 255
227 239 255
227 239 255
227 239 255
227 239 255
227 239 255
227 239 255
227 239 255
227 239 255
227 239 255
227 239 255
227 239 255
227 239 255
227 239 255
227 239 255
227 239 255
227 239 255
227 239 255
227 239 255
227 239 255
227 239 255
227 239 255
227 239 255
227 239 255
227 239 255
227 239 255
227 239 255
227 239 255
227 239 255
227 239 255
227 239 255
227 239 255
227 239 255
227 239 255
227 239 255
227 239 255
227 239 255
227 239 255
227 239 255
227 239 255
227 239 255
227 239 255
227 239 255
227 239 255
227 239 255
227 239 255
227 239 255
227 239 255
227 239 255
227 239 255
227 239 255
227 239 255
227 239 255
227 239 255
227 239 255
227 239 255
227 239 255
227 239 255
227 239 255
227 239 255
227 239 255
227 239 255
227 239 255
227 239 255
227 239 255
227 239 255
227 239 255
227 239 255
227 239 255
227 239 255
227 239 255
227 239 255
227 239 255
227 239 255
227 239 255
227 239 255
227 239 255
227 239 255
227 239 255
227 239 255
227 239 255
227 239 255
227 239 255
227 239 255
227 239 255
227 239 255
227 239 255
227 239 255
227 239 255
227 239 255
227 239 255
227 239 255
227 239 255
227 239 255
227 239 255
227 239 255
227 239 255
227 239 255
227 239 255
227 239 255
227 239 255
227 239 255
227 239 255
227 239 255
227 239 255
227 239 255
227 239 255
227 239 255
227 239 255
227 239 255
227 239 255
227 239 255
227 239 255
227 239 255
227 239 255
227 239 255
227 239 255
227 239 255
227 239 255
227 239 255
227 239 255
227 239 255
227 239 255
227 239 255
227 239 255
227 239 255
227 239 255
227 239 255
227 239 255
227 239 255
227 239 255
227 239 255
227 239 255
227 239 255
227 239 255
227 239 255
227 239 255
227 239 255
227 239 255
227 239 255
227 239 255
227 239 255
227 239 255
227 239 255
227 239 255
227 239 255
227 239 255
227 239 255
227 239 255
227 239 255
227 239 255
227 239 255
227 239 255
227 239 255
205 218 239
154 177 207
110 141 183
33 98 160
62 104 162
18 86 155
15 88 155
14 87 154
14 90 156
11 92 157
17 89 156
17 93 158
18 108 165
19 103 163
12 98 160
20 86 153
18 83 152
19 79 150
18 76 148
18 72 145
15 65 141
18 67 142
10 66 141
20 77 148
21 71 145
16 71 144
17 71 145
17 73 146
7 65 140
18 69 144
15 70 145
18 70 145
14 76 147
10 73 146
6 68 144
11 69 144
13 67 143
16 62 140
15 67 143
14 73 147
9 71 145
13 70 145
13 71 146
12 67 143
15 66 143
8 69 144
15 71 144
19 68 143
7 61 139
9 68 143
9 71 145
18 73 147
19 73 147
12 66 141
13 61 139
11 69 143
6 71 145
18 76 149
15 76 149
19 72 146
17 70 144
5 67 144
11 65 143
6 70 145
10 72 147
10 71 145
13 70 145
7 72 145
4 71 145
12 69 145
3 79 150
12 88 155
11 76 149
15 78 150
20 86 153
14 74 148
18 77 149
11 68 144
11 66 142
16 65 142
12 68 142
19 70 146
21 71 146
26 77 148
30 85 153
63 101 160
123 139 180
165 176 202
159 170 200
198 208 226
226 233 246
214 225 244
227 239 255
227 239 255
227 239 255
227 239 255
227 239 255
227 239 255
227 239 255
227 239 255
227 239 255
227 239 255
227 239 255
227 239 255
227 239 255
227 239 255
227 239 255
227 239 255
227 239 255
227 239 255
227 239 255
227 239 255
227 239 255
227 239 255
227 239 255
227 239 255
227 239 255
227 239 255
227 239 255
227 239 255
227 239 255
227 239 255
227 239 255
227 239 255
227 239 255
227 239 255
227 239 255
227 239 255
227 239 255
227 239 255
227 239 255
227 239 255
227 239 255
227 239 255
227 239 255
227 239 255
227 239 255
227 239 255
227 239 255
227 239 255
227 239 255
227 239 255
227 239 255
227 239 255
227 239 255
227 239 255
227 239 255
227 239 255
227 239 255
227 239 255
227 239 255
227 239 255
227 239 255
227 239 255
227 239 255
227 239 255
227 239 255
227 239 255
227 239 255
227 239 255
227 239 255
227 239 255
227 239 255
227 239 255
227 239 255
227 239 255
227 239 255
227 239 255
227 239 255
227 239 255
227 239 255
227 239 255
227 239 255
227 239 255
227 239 255
227 239 255
227 239 255
227 239 255
227 239 255
227 239 255
227 239 255
227 239 255
227 239 255
227 239 255
227 239 255
227 239 255
227 239 255
227 239 255
227 239 255
227 239 255
227 239 255
227 239 255
227 239 255
227 239 255
227 239 255
227 239 255
227 239 255
227 239 255
227 239 255
227 239 255
227 239 255
227 239 255
227 239 255
227 239 255
227 239 255
227 239 255
227 239 255
227 239 255
227 239 255
227 239 255
227 239 255
227 239 255
227 239 255
227 239 255
227 239 255
227 239 255
227 239 255
227 239 255
227 239 255
227 239 255
227 239 255
227 239 255
227 239 255
227 239 255
227 239 255
227 239 255
227 239 255
227 239 255
227 239 255
227 239 255
227 239 255
227 239 255
227 239 255
227 239 255
227 239 255
227 239 255
227 239 255
227 239 255
227 239 255
227 239 255
227 239 255
227 239 255
227 239 255
227 239 255
227 239 255
226 239 255
227 239 255
227 239 255
227 239 255
227 239 255
227 239 255
227 239 255
227 239 255
227 239 255
227 239 255
227 239 255
227 239 255
227 239 255
227 239 255
227 239 255
227 239 255
227 239 255
227 239 255
227 239 255
227 239 255
227 239 255
227 239 255
227 239 255
227 239 255
227 239 255
227 239 255
227 239 255
227 239 255
227 239 255
227 239 255
227 239 255
227 239 255
227 239 255
227 239 255
227 239 255
227 239 255
227 239 255
227 239 255
227 239 255
227 239 255
227 239 255
227 239 255
227 239 255
227 239 255
227 239 255
227 239 255
227 239 255
227 239 255
227 239 255
227 239 255
227 239 255
227 239 255
227 239 255
227 239 255
227 239 255
227 239 255
227 239 255
227 239 255
227 239 255
227 239 255
227 239 255
227 239 255
227 239 255
227 239 255
227 239 255
227 239 255
227 239 255
227 239 255
227 239 255
227 239 255
227 239 255
227 239 255
227 239 255
227 239 255
227 239 255
227 239 255
227 239 255
227 239 255
227 239 255
227 239 255
227 239 255
227 239 255
227 239 255
227 239 255
227 239 255
227 239 255
227 239 255
227 239 255
227 239 255
227 239 255
227 239 255
227 239 255
227 239 255
227 239 255
227 239 255
227 239 255
227 239 255
227 239 255
227 239 255
227 239 255
227 239 255
227 239 255
227 239 255
227 239 255
227 239 255
227 239 255
227 239 255
227 239 255
227 239 255
227 239 255
227 239 255
227 239 255
227 239 255
227 239 255
227 239 255
227 239 255
227 239 255
227 239 255
227 239 255
227 239 255
227 239 255
227 239 255
227 239 255
227 239 255
227 239 255
227 239 255
227 239 255
227 239 255
227 239 255
227 239 255
227 239 255
227 239 255
227 239 255
227 239 255
227 239 255
227 239 255
227 239 255
227 239 255
227 239 255
227 239 255
227 239 255
227 239 255
227 239 255
227 239 255
227 239 255
227 239 255
227 239 255
227 239 255
227 239 255
227 239 255
227 239 255
227 239 255
227 239 255
227 239 255
227 239 255
227 239 255
227 239 255
229 239 255
224 234 247
198 208 226
168 181 207
96 124 173
74 110 163
36 97 160
27 101 162
13 97 160
16 95 159
19 105 164
18 106 164
17 109 166
28 109 166
16 93 158
17 91 157
20 90 156
18 88 155
22 90 155
21 82 150
21 78 149
24 89 154
17 82 151
17 92 156
19 87 153
11 69 143
16 70 143
13 71 145
16 74 147
16 79 151
20 96 159
12 92 158
16 91 157
13 81 151
15 71 145
19 56 135
13 61 139
11 74 147
11 83 152
20 85 154
19 79 150
17 78 150
14 76 149
16 82 152
18 87 156
13 80 152
12 74 148
11 84 151
7 87 154
13 90 157
19 98 161
11 85 153
15 72 147
15 77 149
12 75 148
10 79 149
15 81 153
13 86 156
21 90 156
17 87 155
21 93 157
21 87 155
18 90 155
13 81 152
12 81 151
16 86 154
10 88 155
21 92 157
23 85 154
15 79 151
17 87 154
13 84 153
14 84 153
14 80 150
19 84 153
20 80 150
24 74 146
47 82 150
131 143 183
160 170 198
146 157 193
115 129 175
199 208 226
223 230 242
229 235 245
240 245 254
238 244 254
229 240 255
227 239 255
227 239 255
227 239 255
227 239 255
227 239 255
227 239 255
227 239 255
227 239 255
227 239 255
227 239 255
227 239 255
227 239 255
227 239 255
227 239 255
227 239 255
227 239 255
227 239 255
227 239 255
227 239 255
227 239 255
227 239 255
227 239 255
227 239 255
227 239 255
227 239 255
227 239 255
227 239 255
227 239 255
227 239 255
227 239 255
227 239 255
227 239 255
227 239 255
227 239 255
227 239 255
227 239 255
227 239 255
227 239 255
227 239 255
227 239 255
227 239 255
227 239 255
227 239 255
227 239 255
227 239 255
227 239 255
227 239 255
227 239 255
227 239 255
227 239 255
227 239 255
227 239 255
227 239 255
227 239 255
227 239 255
227 239 255
227 239 255
227 239 255
227 239 255
227 239 255
227 239 255
227 239 255
227 239 255
227 239 255
227 239 255
227 239 255
227 239 255
227 239 255
227 239 255
227 239 255
227 239 255
227 239 255
227 239 255
227 239 255
227 239 255
227 239 255
227 239 255
227 239 255
227 239 255
227 239 255
227 239 255
227 239 255
227 239 255
227 239 255
227 239 255
227 239 255
227 239 255
227 239 255
227 239 255
227 239 255
227 239 255
227 239 255
227 239 255
227 239 255
227 239 255
227 239 255
227 239 255
227 239 255
227 239 255
227 239 255
227 239 255
227 239 255
227 239 255
227 239 255
227 239 255
227 239 255
227 239 255
227 239 255
227 239 255
227 239 255
227 239 255
227 239 255
227 239 255
227 239 255
227 239 255
227 239 255
227 239 255
227 239 255
227 239 255
227 239 255
227 239 255
227 239 255
227 239 255
227 239 255
227 239 255
227 239 255
227 239 255
227 239 255
227 239 255
227 239 255
227 239 255
227 239 255
227 239 255
227 239 255
227 239 255
227 239 255
227 239 255
227 239 255
227 239 255
227 239 255
227 239 255
227 239 255
227 239 255
227 239 255
227 239 255
227 239 255
227 239 255
227 239 255
227 239 255
227 239 255
227 239 255
227 239 255
227 239 255
227 239 255
227 239 255
227 239 255
227 239 255
227 239 255
227 239 255
227 239 255
227 239 255
227 239 255
227 239 255
227 239 255
227 239 255
227 239 255
227 239 255
227 239 255
227 239 255
227 239 255
227 239 255
227 239 255
227 239 255
227 239 255
227 239 255
227 239 255
227 239 255
227 239 255
227 239 255
227 239 255
227 239 255
227 239 255
227 239 255
227 239 255
227 239 255
227 239 255
227 239 255
227 239 255
227 239 255
227 239 255
227 239 255
227 239 255
227 239 255
227 239 255
227 239 255
227 239 255
227 239 255
227 239 255
227 239 255
227 239 255
227 239 255
227 239 255
227 239 255
227 239 255
227 239 255
227 239 255
227 239 255
227 239 255
227 239 255
227 239 255
227 239 255
227 239 255
227 239 255
227 239 255
227 239 255
227 239 255
227 239 255
227 239 255
227 239 255
227 239 255
227 239 255
227 239 255
227 239 255
227 239 255
227 239 255
227 239 255
227 239 255
227 239 255
227 239 255
227 239 255
227 239 255
227 239 255
227 239 255
227 239 255
227 239 255
227 239 255
227 239 255
227 239 255
227 239 255
227 239 255
227 239 255
227 239 255
227 239 255
227 239 255
227 239 255
227 239 255
227 239 255
227 239 255
227 239 255
227 239 255
227 239 255
227 239 255
227 239 255
227 239 255
227 239 255
227 239 255
227 239 255
227 239 255
227 239 255
227 239 255
227 239 255
227 239 255
227 239 255
227 239 255
227 239 255
227 239 255
227 239 255
227 239 255
227 239 255
227 239 255
227 239 255
227 239 255
227 239 255
227 239 255
227 239 255
227 239 255
227 239 255
227 239 255
227 239 255
227 239 255
227 239 255
227 239 255
227 239 255
227 239 255
227 239 255
227 239 255
227 239 255
227 239 255
227 239 255
227 239 255
227 239 255
227 239 255
227 239 255
227 239 255
227 239 255
227 239 255
227 239 255
227 239 255
227 239 255
227 239 255
227 239 255
227 239 255
227 239 255
227 239 255
227 239 255
227 239 255
227 239 255
227 239 255
227 239 255
227 239 255
227 239 255
227 239 255
227 239 255
227 239 255
228 239 255
231 240 253
210 219 234
207 216 231
195 209 227
173 189 213
130 156 191
77 124 175
27 107 166
23 102 162
18 94 158
21 93 157
26 94 157
19 90 156
19 97 160
16 95 159
17 95 159
18 107 165
28 113 169
22 110 166
27 102 162
16 84 152
20 88 154
16 83 152
16 83 152
13 76 149
17 84 153
16 86 153
14 80 150
18 84 153
10 86 154
11 88 155
13 71 145
14 64 141
19 63 139
19 67 143
19 77 149
19 86 154
23 87 155
22 88 154
15 89 155
15 87 154
15 90 156
20 93 158
17 94 158
19 97 160
24 97 160
23 92 157
22 106 163
22 100 161
17 81 151
13 86 154
14 88 155
12 89 156
18 93 159
10 88 156
18 86 155
17 90 155
19 91 156
17 82 152
23 82 153
19 92 157
19 91 156
10 87 154
19 89 155
14 97 159
17 88 155
16 86 154
22 96 159
12 89 156
31 94 158
65 102 163
68 110 166
127 148 188
172 185 211
237 242 250
229 235 246
232 238 247
242 247 255
242 247 254
240 246 255
242 247 255
236 244 255
228 239 255
227 239 255
227 239 255
227 239 255
227 239 255
227 239 255
227 239 255
227 239 255
227 239 255
227 239 255
227 239 255
227 239 255
227 239 255
227 239 255
227 239 255
227 239 255
227 239 255
227 239 255
227 239 255
227 239 255
227 239 255
227 239 255
227 239 255
227 239 255
227 239 255
227 239 255
227 239 255
227 239 255
227 239 255
227 239 255
227 239 255
227 239 255
227 239 255
227 239 255
227 239 255
227 239 255
227 239 255
227 239 255
227 239 255
227 239 255
227 239 255
227 239 255
227 239 255
227 239 255
227 239 255
227 239 255
227 239 255
227 239 255
227 239 255
227 239 255
227 239 255
227 239 255
227 239 255
227 239 255
227 239 255
227 239 255
227 239 255
227 239 255
227 239 255
227 239 255
227 239 255
227 239 255
227 239 255
227 239 255
227 239 255
227 239 255
227 239 255
227 239 255
227 239 255
227 239 255
227 239 255
227 239 255
227 239 255
227 239 255
227 239 255
227 239 255
227 239 255
227 239 255
227 239 255
227 239 255
227 239 255
227 239 255
227 239 255
227 239 255
227 239 255
227 239 255
227 239 255
227 239 255
227 239 255
227 239 255
227 239 255
227 239 255
227 239 255
227 239 255
227 239 255
227 239 255
227 239 255
227 239 255
227 239 255
227 239 255
227 239 255
227 239 255
227 239 255
227 239 255
227 239 255
227 239 255
227 239 255
227 239 255
227 239 255
227 239 255
227 239 255
227 239 255
227 239 255
227 239 255
227 239 255
227 239 255
227 239 255
227 239 255
227 239 255
227 239 255
227 239 255
227 239 255
227 239 255
227 239 255
227 239 255
227 239 255
227 239 255
227 239 255
227 239 255
227 239 255
227 239 255
227 239 255
227 239 255
227 239 255
227 239 255
227 239 255
227 239 255
227 239 255
227 239 255
227 239 255
227 239 255
227 239 255
227 239 255
227 239 255
227 239 255
227 239 255
227 239 255
227 239 255
227 239 255
227 239 255
227 239 255
227 239 255
227 239 255
227 239 255
227 239 255
227 239 255
227 239 255
227 239 255
227 239 255
227 239 255
227 239 255
227 239 255
227 239 255
227 239 255
227 239 255
227 239 255
227 239 255
227 239 255
227 239 255
227 239 255
227 239 255
227 239 255
227 239 255
227 239 255
227 239 255
227 239 255
227 239 255
227 239 255
227 239 255
227 239 255
227 239 255
227 239 255
227 239 255
227 239 255
227 239 255
227 239 255
227 239 255
227 239 255
227 239 255
227 239 255
227 239 255
227 239 255
227 239 255
227 239 255
227 239 255
227 239 255
227 239 255
227 239 255
227 239 255
227 239 255
227 239 255
227 239 255
227 239 255
227 239 255
227 239 255
227 239 255
227 239 255
227 239 255
227 239 255
227 239 255
227 239 255
227 239 255
227 239 255
227 239 255
227 239 255
227 239 255
227 239 255
227 239 255
227 239 255
227 239 255
227 239 255
227 239 255
227 239 255
227 239 255
227 239 255
227 239 255
227 239 255
227 239 255
227 239 255
227 239 255
227 239 255
227 239 255
227 239 255
227 239 255
227 239 255
227 239 255
227 239 255
227 239 255
227 239 255
227 239 255
227 239 255
227 239 255
227 239 255
227 239 255
227 239 255
227 239 255
227 239 255
227 239 255
227 239 255
227 239 255
227 239 255
227 239 255
227 239 255
227 239 255
227 239 255
227 239 255
227 239 255
227 239 255
227 239 255
227 239 255
227 239 255
227 239 255
227 239 255
227 239 255
227 239 255
227 239 255
227 239 255
227 239 255
227 239 255
227 239 255
227 239 255
227 239 255
227 239 255
227 239 255
227 239 255
227 239 255
227 239 255
227 239 255
227 239 255
227 239 255
227 239 255
227 239 255
227 239 255
227 239 255
227 239 255
227 239 255
227 239 255
227 239 255
227 239 255
227 239 255
227 239 255
227 239 255
227 239 255
227 239 255
227 239 255
227 239 255
227 239 255
227 239 255
227 239 255
227 239 255
227 239 255
227 239 255
227 239 255
227 239 255
227 239 255
227 239 255
227 239 255
227 239 255
227 239 255
227 239 255
227 239 255
227 239 255
227 239 255
227 239 255
227 239 255
227 239 255
227 239 255
227 239 255
227 239 255
227 239 255
231 241 255
236 244 255
242 247 255
243 248 255
242 246 253
223 232 243
191 206 225
162 183 209
130 155 190
165 179 206
113 139 182
65 102 162
30 90 156
28 92 157
32 97 160
15 95 157
38 95 159
35 95 159
17 98 159
21 91 157
24 90 154
26 84 153
21 86 154
21 82 150
21 88 154
17 84 153
14 81 152
15 77 149
17 80 150
17 84 153
20 75 147
47 86 153
18 72 145
22 70 145
19 77 148
21 86 152
16 84 151
20 78 149
18 79 148
22 84 152
85 117 168
106 132 177
108 135 179
93 125 174
89 122 172
64 103 163
53 98 160
29 87 155
16 86 154
16 92 156
18 91 158
13 96 160
22 100 162
17 96 160
22 95 158
35 96 159
23 92 157
39 97 160
21 94 159
17 101 162
35 113 169
111 135 180
129 151 188
131 153 188
122 147 187
102 127 175
134 151 189
157 172 201
213 221 235
224 230 241
238 244 253
241 246 254
243 248 255
243 248 255
244 248 255
242 248 255
237 245 255
231 241 255
227 239 255
227 239 255
227 239 255
227 239 255
227 239 255
227 239 255
227 239 255
227 239 255
227 239 255
227 239 255
227 239 255
227 239 255
227 239 255
227 239 255
227 239 255
227 239 255
227 239 255
227 239 255
227 239 255
227 239 255
227 239 255
227 239 255
227 239 255
227 239 255
227 239 255
227 239 255
227 239 255
227 239 255
227 239 255
227 239 255
227 239 255
227 239 255
227 239 255
227 239 255
227 239 255
227 239 255
227 239 255
227 239 255
227 239 255
227 239 255
227 239 255
227 239 255
227 239 255
227 239 255
227 239 255
227 239 255
227 239 255
227 239 255
227 239 255
227 239 255
227 239 255
227 239 255
227 239 255
227 239 255
227 239 255
227 239 255
227 239 255
227 239 255
227 239 255
227 239 255
227 239 255
227 239 255
227 239 255
227 239 255
227 239 255
227 239 255
227 239 255
227 239 255
227 239 255
227 239 255
227 239 255
227 239 255
227 239 255
227 239 255
227 239 255
227 239 255
227 239 255
227 239 255
227 239 255
227 239 255
227 239 255
227 239 255
227 239 255
227 239 255
227 239 255
227 239 255
227 239 255
227 239 255
227 239 255
227 239 255
227 239 255
227 239 255
227 239 255
227 239 255
227 239 255
227 239 255
227 239 255
227 239 255
227 239 255
227 239 255
227 239 255
227 239 255
227 239 255
227 239 255
227 239 255
227 239 255
227 239 255
227 239 255
227 239 255
227 239 255
227 239 255
227 239 255
227 239 255
227 239 255
227 239 255
227 239 255
227 239 255
227 239 255
227 239 255
227 239 255
227 239 255
227 239 255
227 239 255
227 239 255
227 239 255
227 239 255
227 239 255
227 239 255
227 239 255
227 239 255
227 239 255
227 239 255
227 239 255
227 239 255
227 239 255
227 239 255
227 239 255
227 239 255
227 239 255
227 239 255
227 239 255
227 239 255
227 239 255
227 239 255
227 239 255
227 239 255
227 239 255
227 239 255
227 239 255
227 239 255
227 239 255
227 239 255
227 239 255
227 239 255
227 239 255
227 239 255
227 239 255
227 239 255
227 239 255
227 239 255
227 239 255
227 239 255
227 239 255
227 239 255
227 239 255
227 239 255
227 239 255
227 239 255
227 239 255
227 239 255
227 239 255
227 239 255
227 239 255
227 239 255
227 239 255
227 239 255
227 239 255
227 239 255
227 239 255
227 239 255
227 239 255
227 239 255
227 239 255
227 239 255
227 239 255
227 239 255
227 239 255
227 239 255
227 239 255
227 239 255
227 239 255
227 239 255
227 239 255
227 239 255
227 239 255
227 239 255
227 239 255
227 239 255
227 239 255
227 239 255
227 239 255
227 239 255
227 239 255
227 239 255
227 239 255
227 239 255
227 239 255
227 239 255
227 239 255
227 239 255
227 239 255
227 239 255
227 239 255
227 239 255
227 239 255
227 239 255
227 239 255
227 239 255
227 239 255
227 239 255
227 239 255
227 239 255
227 239 255
227 239 255
227 239 255
227 239 255
227 239 255
227 239 255
227 239 255
227 239 255
227 239 255
227 239 255
227 239 255
227 239 255
227 239 255
227 239 255
227 239 255
227 239 255
227 239 255
227 239 255
227 239 255
227 239 255
227 239 255
227 239 255
227 239 255
227 239 255
227 239 255
227 239 255
227 239 255
227 239 255
227 239 255
227 239 255
227 239 255
227 239 255
227 239 255
227 239 255
227 239 255
227 239 255
227 239 255
227 239 255
227 239 255
227 239 255
227 239 255
227 239 255
227 239 255
227 239 255
227 239 255
227 239 255
227 239 255
227 239 255
227 239 255
227 239 255
227 239 255
227 239 255
227 239 255
227 239 255
227 239 255
227 239 255
227 239 255
227 239 255
227 239 255
227 239 255
227 239 255
227 239 255
227 239 255
227 239 255
227 239 255
227 239 255
227 239 255
227 239 255
227 239 255
227 239 255
227 239 255
227 239 255
227 239 255
227 239 255
227 239 255
227 239 255
227 239 255
227 239 255
227 239 255
227 239 255
227 239 255
227 239 255
227 239 255
227 239 255
227 239 255
227 239 255
227 239 255
227 239 255
227 239 255
227 239 255
227 239 255
227 239 255
227 239 255
227 239 255
227 239 255
227 239 255
227 239 255
227 239 255
227 239 255
227 239 255
227 239 255
227 239 255
227 239 255
234 243 255
239 246 255
244 249 255
244 249 255
245 249 255
243 248 255
246 249 254
243 248 255
238 244 253
218 225 237
201 210 227
166 179 207
168 179 206
150 162 196
191 202 220
163 178 205
125 146 187
187 197 218
178 189 212
180 191 214
183 193 216
199 207 225
187 196 218
153 169 200
128 145 184
95 123 171
92 125 175
86 117 170
131 149 188
184 195 217
178 188 212
181 192 214
120 135 179
150 160 190
168 176 202
93 109 161
88 104 157
155 163 195
212 219 233
241 246 254
222 228 240
208 215 229
183 190 211
141 154 189
145 162 196
150 168 199
63 116 168
103 139 182
105 139 183
100 130 177
78 119 171
62 113 167
70 112 168
78 125 173
43 116 169
40 112 167
97 147 186
213 228 240
231 237 246
213 222 235
235 241 248
231 238 249
235 242 250
241 247 253
242 248 255
243 248 255
242 247 255
242 248 255
243 248 255
242 247 255
237 244 255
231 241 255
228 239 255
227 239 255
227 239 255
227 239 255
227 239 255
227 239 255
227 239 255
227 239 255
227 239 255
227 239 255
227 239 255
227 239 255
227 239 255
227 239 255
227 239 255
227 239 255
227 239 255
227 239 255
227 239 255
227 239 255
227 239 255
227 239 255
227 239 255
227 239 255
227 239 255
227 239 255
227 239 255
227 239 255
227 239 255
227 239 255
227 239 255
227 239 255
227 239 255
227 239 255
227 239 255
227 239 255
227 239 255
227 239 255
227 239 255
227 239 255
227 239 255
227 239 255
227 239 255
227 239 255
227 239 255
227 239 255
227 239 255
227 239 255
227 239 255
227 239 255
227 239 255
227 239 255
227 239 255
227 239 255
227 239 255
227 239 255
227 239 255
227 239 255
227 239 255
227 239 255
227 239 255
227 239 255
227 239 255
227 239 255
227 239 255
227 239 255
227 239 255
227 239 255
227 239 255
227 239 255
227 239 255
227 239 255
227 239 255
227 239 255
227 239 255
227 239 255
227 239 255
227 239 255
227 239 255
227 239 255
227 239 255
227 239 255
227 239 255
227 239 255
227 239 255
227 239 255
227 239 255
227 239 255
227 239 255
227 239 255
227 239 255
227 239 255
227 239 255
227 239 255
227 239 255
227 239 255
227 239 255
227 239 255
227 239 255
227 239 255
227 239 255
227 239 255
227 239 255
227 239 255
227 239 255
227 239 255
227 239 255
227 239 255
227 239 255
227 239 255
227 239 255
227 239 255
227 239 255
227 239 255
227 239 255
227 239 255
227 239 255
227 239 255
227 239 255
227 239 255
227 239 255
227 239 255
227 239 255
227 239 255
227 239 255
227 239 255
227 239 255
227 239 255
227 239 255
227 239 255
227 239 255
227 239 255
227 239 255
227 239 255
227 239 255
227 239 255
227 239 255
227 239 255
227 239 255
227 239 255
227 239 255
227 239 255
227 239 255
227 239 255
227 239 255
227 239 255
227 239 255
227 239 255
227 239 255
227 239 255
227 239 255
227 239 255
227 239 255
227 239 255
227 239 255
227 239 255
227 239 255
227 239 255
227 239 255
227 239 255
227 239 255
227 239 255
227 239 255
227 239 255
227 239 255
227 239 255
227 239 255
227 239 255
227 239 255
227 239 255
227 239 255
227 239 255
227 239 255
227 239 255
227 239 255
227 239 255
227 239 255
227 239 255
227 239 255
227 239 255
227 239 255
227 239 255
227 239 255
227 239 255
227 239 255
227 239 255
227 239 255
227 239 255
227 239 255
227 239 255
227 239 255
227 239 255
227 239 255
227 239 255
227 239 255
227 239 255
227 239 255
227 239 255
227 239 255
227 239 255
227 239 255
227 239 255
227 239 255
227 239 255
227 239 255
227 239 255
227 239 255
227 239 255
227 239 255
227 239 255
227 239 255
227 239 255
227 239 255
227 239 255
227 239 255
227 239 255
227 239 255
227 239 255
227 239 255
227 239 255
227 239 255
227 239 255
227 239 255
227 239 255
227 239 255
227 239 255
227 239 255
227 239 255
227 239 255
227 239 255
227 239 255
227 239 255
227 239 255
227 239 255
227 239 255
227 239 255
227 239 255
227 239 255
227 239 255
227 239 255
227 239 255
227 239 255
227 239 255
227 239 255
227 239 255
227 239 255
227 239 255
227 239 255
227 239 255
227 239 255
227 239 255
227 239 255
227 239 255
227 239 255
227 239 255
227 239 255
227 239 255
227 239 255
227 239 255
227 239 255
227 239 255
227 239 255
227 239 255
227 239 255
227 239 255
227 239 255
227 239 255
227 239 255
227 239 255
227 239 255
227 239 255
227 239 255
227 239 255
227 239 255
227 239 255
227 239 255
227 239 255
227 239 255
227 239 255
227 239 255
227 239 255
227 239 255
227 239 255
227 239 255
227 239 255
227 239 255
227 239 255
227 239 255
227 239 255
227 239 255
227 239 255
227 239 255
227 239 255
227 239 255
227 239 255
227 239 255
227 239 255
227 239 255
227 239 255
227 239 255
227 239 255
227 239 255
227 239 255
227 239 255
227 239 255
227 239 255
227 239 255
227 239 255
227 239 255
227 239 255
227 239 255
227 239 255
227 239 255
227 239 255
227 239 255
227 239 255
227 239 255
227 239 255
227 239 255
227 239 255
227 239 255
227 239 255
227 239 255
227 239 255
227 239 255
227 239 255
227 239 255
227 239 255
227 239 255
227 239 255
228 239 255
234 243 255
238 245 255
244 249 255
245 249 255
247 250 255
245 249 255
244 249 255
244 249 255
242 248 255
243 248 255
244 249 255
242 248 255
244 249 255
243 248 255
245 249 255
242 248 255
245 249 255
243 248 254
245 249 255
243 248 255
243 248 254
240 246 255
243 248 254
240 246 253
233 240 250
234 239 248
232 237 246
225 232 243
223 230 241
224 231 241
198 207 225
175 182 207
176 183 208
229 235 246
237 243 252
240 246 254
243 247 255
237 243 251
230 235 246
226 231 243
220 226 238
207 217 233
212 221 235
231 238 247
240 247 255
242 247 254
242 248 255
238 243 252
240 246 254
235 242 251
237 243 250
232 239 248
220 229 241
231 239 249
230 239 248
234 241 250
242 247 254
242 248 255
243 248 255
244 248 255
243 248 255
242 247 255
245 249 255
243 248 255
238 245 255
234 243 255
229 240 255
227 239 255
227 239 255
227 239 255
227 239 255
227 239 255
227 239 255
227 239 255
227 239 255
227 239 255
227 239 255
227 239 255
227 239 255
227 239 255
227 239 255
227 239 255
227 239 255
227 239 255
227 239 255
227 239 255
227 239 255
227 239 255
227 239 255
227 239 255
227 239 255
227 239 255
227 239 255
227 239 255
227 239 255
227 239 255
227 239 255
227 239 255
227 239 255
227 239 255
227 239 255
227 239 255
227 239 255
227 239 255
227 239 255
227 239 255
227 239 255
227 239 255
227 239 255
227 239 255
227 239 255
227 239 255
227 239 255
227 239 255
227 239 255
227 239 255
227 239 255
227 239 255
227 239 255
227 239 255
227 239 255
227 239 255
227 239 255
227 239 255
227 239 255
227 239 255
227 239 255
227 239 255
227 239 255
227 239 255
227 239 255
227 239 255
227 239 255
227 239 255
227 239 255
227 239 255
227 239 255
227 239 255
227 239 255
227 239 255
227 239 255
227 239 255
227 239 255
227 239 255
227 239 255
227 239 255
227 239 255
227 239 255
227 239 255
227 239 255
227 239 255
227 239 255
227 239 255
227 239 255
227 239 255
227 239 255
227 239 255
227 239 255
227 239 255
227 239 255
227 239 255
227 239 255
227 239 255
227 239 255
227 239 255
227 239 255
227 239 255
227 239 255
227 239 255
227 239 255
227 239 255
227 239 255
227 239 255
227 239 255
227 239 255
227 239 255
227 239 255
227 239 255
227 239 255
227 239 255
227 239 255
227 239 255
227 239 255
227 239 255
227 239 255
227 239 255
227 239 255
227 239 255
227 239 255
227 239 255
227 239 255
227 239 255
227 239 255
227 239 255
227 239 255
227 239 255
227 239 255
227 239 255
227 239 255
227 239 255
227 239 255
227 239 255
227 239 255
227 239 255
227 239 255
227 239 255
227 239 255
227 239 255
227 239 255
227 239 255
227 239 255
227 239 255
227 239 255
227 239 255
227 239 255
227 239 255
227 239 255
227 239 255
227 239 255
227 239 255
227 239 255
227 239 255
227 239 255
227 239 255
227 239 255
227 239 255
227 239 255
227 239 255
227 239 255
227 239 255
227 239 255
227 239 255
227 239 255
227 239 255
227 239 255
227 239 255
227 239 255
227 239 255
227 239 255
227 239 255
227 239 255
227 239 255
227 239 255
227 239 255
227 239 255
227 239 255
227 239 255
227 239 255
227 239 255
227 239 255
227 239 255
227 239 255
227 239 255
227 239 255
227 239 255
227 239 255
227 239 255
227 239 255
227 239 255
227 239 255
227 239 255
227 239 255
227 239 255
227 239 255
227 239 255
227 239 255
227 239 255
227 239 255
227 239 255
227 239 255
227 239 255
227 239 255
227 239 255
227 239 255
227 239 255
227 239 255
227 239 255
227 239 255
227 239 255
227 239 255
227 239 255
227 239 255
227 239 255
227 239 255
227 239 255
227 239 255
227 239 255
227 239 255
227 239 255
227 239 255
227 239 255
227 239 255
227 239 255
227 239 255
227 239 255
227 239 255
227 239 255
227 239 255
227 239 255
227 239 255
227 239 255
227 239 255
227 239 255
227 239 255
227 239 255
227 239 255
227 239 255
227 239 255
227 239 255
227 239 255
227 239 255
227 239 255
227 239 255
227 239 255
227 239 255
227 239 255
227 239 255
227 239 255
227 239 255
227 239 255
227 239 255
227 239 255
227 239 255
227 239 255
227 239 255
227 239 255
227 239 255
227 239 255
227 239 255
227 239 255
227 239 255
227 239 255
227 239 255
227 239 255
227 239 255
227 239 255
227 239 255
227 239 255
227 239 255
227 239 255
227 239 255
227 239 255
227 239 255
227 239 255
227 239 255
227 239 255
227 239 255
227 239 255
227 239 255
227 239 255
227 239 255
227 239 255
227 239 255
227 239 255
227 239 255
227 239 255
227 239 255
227 239 255
227 239 255
227 239 255
227 239 255
227 239 255
227 239 255
227 239 255
227 239 255
227 239 255
227 239 255
227 239 255
227 239 255
227 239 255
227 239 255
227 239 255
227 239 255
227 239 255
227 239 255
227 239 255
227 239 255
227 239 255
227 239 255
227 239 255
227 239 255
227 239 255
227 239 255
227 239 255
227 239 255
227 239 255
227 239 255
227 239 255
227 239 255
227 239 255
227 239 255
227 239 255
227 239 255
227 239 255
227 239 255
227 239 255
227 239 255
227 239 255
227 239 255
227 239 255
227 239 255
227 239 255
227 239 255
232 241 255
238 245 255
241 247 255
246 250 255
245 249 255
246 250 255
247 250 255
246 250 255
243 248 254
245 249 255
243 248 254
244 249 255
243 248 255
244 248 255
243 248 255
245 249 255
242 248 255
244 249 255
243 248 255
243 248 255
244 249 255
243 248 255
244 249 255
244 248 255
244 249 255
243 248 255
244 249 255
243 248 255
244 249 255
242 247 255
244 249 255
245 249 255
243 248 255
244 249 255
244 249 255
242 248 255
242 247 254
244 249 255
244 249 255
243 248 255
242 248 255
244 249 255
242 248 255
245 249 255
244 249 255
242 247 254
238 244 252
236 242 251
238 245 252
240 246 253
242 247 254
243 248 255
243 248 255
243 248 255
243 248 255
243 248 254
245 249 255
241 247 255
235 243 255
231 241 255
228 239 255
227 239 255
227 239 255
227 239 255
227 239 255
227 239 255
227 239 255
227 239 255
227 239 255
227 239 255
227 239 255
227 239 255
227 239 255
227 239 255
227 239 255
227 239 255
227 239 255
227 239 255
227 239 255
227 239 255
227 239 255
227 239 255
227 239 255
227 239 255
227 239 255
227 239 255
227 239 255
227 239 255
227 239 255
227 239 255
227 239 255
227 239 255
227 239 255
227 239 255
227 239 255
227 239 255
227 239 255
227 239 255
227 239 255
227 239 255
227 239 255
227 239 255
227 239 255
227 239 255
227 239 255
227 239 255
227 239 255
227 239 255
227 239 255
227 239 255
227 239 255
227 239 255
227 239 255
227 239 255
227 239 255
227 239 255
227 239 255
227 239 255
227 239 255
227 239 255
227 239 255
227 239 255
227 239 255
227 239 255
227 239 255
227 239 255
227 239 255
227 239 255
227 239 255
227 239 255
227 239 255
227 239 255
227 239 255
227 239 255
227 239 255
227 239 255
227 239 255
227 239 255
227 239 255
227 239 255
227 239 255
227 239 255
227 239 255
227 239 255
227 239 255
227 239 255
227 239 255
227 239 255
227 239 255
227 239 255
227 239 255
227 239 255
227 239 255
227 239 255
227 239 255
227 239 255
227 239 255
227 239 255
227 239 255
227 239 255
227 239 255
227 239 255
227 239 255
227 239 255
227 239 255
227 239 255
227 239 255
227 239 255
227 239 255
227 239 255
227 239 255
227 239 255
227 239 255
227 239 255
227 239 255
227 239 255
227 239 255
227 239 255
227 239 255
227 239 255
227 239 255
227 239 255
227 239 255
227 239 255
227 239 255
227 239 255
227 239 255
227 239 255
227 239 255
227 239 255
227 239 255
227 239 255
227 239 255
227 239 255
227 239 255
227 239 255
227 239 255
227 239 255
227 239 255
227 239 255
227 239 255
227 239 255
227 239 255
227 239 255
227 239 255
227 239 255
227 239 255
227 239 255
227 239 255
227 239 255
227 239 255
227 239 255
227 239 255
227 239 255
227 239 255
227 239 255
227 239 255
227 239 255
227 239 255
227 239 255
227 239 255
227 239 255
227 239 255
227 239 255
227 239 255
227 239 255
227 239 255
227 239 255
227 239 255
227 239 255
227 239 255
227 239 255
227 239 255
227 239 255
227 239 255
227 239 255
227 239 255
227 239 255
227 239 255
227 239 255
227 239 255
227 239 255
227 239 255
227 239 255
227 239 255
227 239 255
227 239 255
227 239 255
227 239 255
227 239 255
227 239 255
227 239 255
227 239 255
227 239 255
227 239 255
227 239 255
227 239 255
227 239 255
227 239 255
227 239 255
227 239 255
227 239 255
227 239 255
227 239 255
227 239 255
227 239 255
227 239 255
227 239 255
227 239 255
227 239 255
227 239 255
227 239 255
227 239 255
227 239 255
227 239 255
227 239 255
227 239 255
227 239 255
227 239 255
227 239 255
227 239 255
227 239 255
227 239 255
227 239 255
227 239 255
227 239 255
227 239 255
227 239 255
227 239 255
227 239 255
227 239 255
227 239 255
227 239 255
227 239 255
227 239 255
227 239 255
227 239 255
227 239 255
227 239 255
227 239 255
227 239 255
227 239 255
227 239 255
227 239 255
227 239 255
227 239 255
227 239 255
227 239 255
227 239 255
227 239 255
227 239 255
227 239 255
227 239 255
227 239 255
227 239 255
227 239 255
227 239 255
227 239 255
227 239 255
227 239 255
227 239 255
227 239 255
227 239 255
227 239 255
227 239 255
227 239 255
227 239 255
227 239 255
227 239 255
227 239 255
227 239 255
227 239 255
227 239 255
227 239 255
227 239 255
227 239 255
227 239 255
227 239 255
227 239 255
227 239 255
227 239 255
227 239 255
227 239 255
227 239 255
227 239 255
227 239 255
227 239 255
227 239 255
227 239 255
227 239 255
227 239 255
227 239 255
227 239 255
227 239 255
227 239 255
227 239 255
227 239 255
227 239 255
227 239 255
227 239 255
227 239 255
227 239 255
227 239 255
227 239 255
227 239 255
227 239 255
227 239 255
227 239 255
227 239 255
227 239 255
227 239 255
227 239 255
227 239 255
227 239 255
227 239 255
227 239 255
227 239 255
227 239 255
227 239 255
227 239 255
227 239 255
227 239 255
227 239 255
227 239 255
227 239 255
227 239 255
227 239 255
227 239 255
227 239 255
227 239 255
227 239 255
227 239 255
227 239 255
227 239 255
227 239 255
227 239 255
227 239 255
227 239 255
227 239 255
227 239 255
227 239 255
227 239 255
227 239 255
228 239 255
232 241 254
235 244 255
240 246 255
245 249 255
244 249 255
247 250 255
246 250 255
246 250 255
244 249 255
245 249 255
245 249 255
246 250 255
246 250 255
246 250 255
246 250 255
243 248 255
243 248 255
243 248 255
246 250 255
243 248 255
244 249 255
243 248 255
244 249 255
244 249 255
244 248 255
245 249 255
245 249 255
243 248 255
245 249 255
245 249 255
243 248 255
245 249 255
243 248 255
245 249 255
245 249 255
243 248 255
242 248 255
243 248 255
240 246 254
238 245 253
240 246 253
240 245 252
234 241 249
232 240 249
241 246 253
244 248 254
244 249 255
245 249 255
245 249 255
240 247 255
237 245 255
233 242 255
228 239 255
227 239 255
227 239 255
227 239 255
227 239 255
227 239 255
227 239 255
227 239 255
227 239 255
227 239 255
227 239 255
227 239 255
227 239 255
227 239 255
227 239 255
227 239 255
227 239 255
227 239 255
227 239 255
227 239 255
227 239 255
227 239 255
227 239 255
227 239 255
227 239 255
227 239 255
227 239 255
227 239 255
227 239 255
227 239 255
227 239 255
227 239 255
227 239 255
227 239 255
227 239 255
227 239 255
227 239 255
227 239 255
227 239 255
227 239 255
227 239 255
227 239 255
227 239 255
227 239 255
227 239 255
227 239 255
227 239 255
227 239 255
227 239 255
227 239 255
227 239 255
227 239 255
227 239 255
227 239 255
227 239 255
227 239 255
227 239 255
227 239 255
227 239 255
227 239 255
227 239 255
227 239 255
227 239 255
227 239 255
227 239 255
227 239 255
227 239 255
227 239 255
227 239 255
227 239 255
227 239 255
227 239 255
227 239 255
227 239 255
227 239 255
227 239 255
227 239 255
227 239 255
227 239 255
227 239 255
227 239 255
227 239 255
227 239 255
227 239 255
227 239 255
227 239 255
227 239 255
227 239 255
227 239 255
227 239 255
227 239 255
227 239 255
227 239 255
227 239 255
227 239 255
227 239 255
227 239 255
227 239 255
227 239 255
227 239 255
227 239 255
227 239 255
227 239 255
227 239 255
227 239 255
227 239 255
227 239 255
227 239 255
227 239 255
227 239 255
227 239 255
227 239 255
227 239 255
227 239 255
227 239 255
227 239 255
227 239 255
227 239 255
227 239 255
227 239 255
227 239 255
227 239 255
227 239 255
227 239 255
227 239 255
227 239 255
227 239 255
227 239 255
227 239 255
227 239 255
227 239 255
227 239 255
227 239 255
227 239 255
227 239 255
227 239 255
227 239 255
227 239 255
227 239 255
227 239 255
227 239 255
227 239 255
227 239 255
227 239 255
227 239 255
227 239 255
227 239 255
227 239 255
227 239 255
227 239 255
227 239 255
227 239 255
227 239 255
227 239 255
227 239 255
227 239 255
227 239 255
227 239 255
227 239 255
227 239 255
227 239 255
227 239 255
227 239 255
227 239 255
227 239 255
227 239 255
227 239 255
227 239 255
227 239 255
227 239 255
227 239 255
227 239 255
227 239 255
227 239 255
227 239 255
227 239 255
227 239 255
227 239 255
227 239 255
227 239 255
227 239 255
227 239 255
227 239 255
227 239 255
227 239 255
227 239 255
227 239 255
227 239 255
227 239 255
227 239 255
227 239 255
227 239 255
227 239 255
227 239 255
227 239 255
227 239 255
227 239 255
227 239 255
227 239 255
227 239 255
227 239 255
227 239 255
227 239 255
227 239 255
227 239 255
227 239 255
227 239 255
227 239 255
227 239 255
227 239 255
227 239 255
227 239 255
227 239 255
227 239 255
227 239 255
227 239 255
227 239 255
227 239 255
227 239 255
227 239 255
227 239 255
227 239 255
227 239 255
227 239 255
227 239 255
227 239 255
227 239 255
227 239 255
227 239 255
227 239 255
227 239 255
227 239 255
227 239 255
227 239 255
227 239 255
227 239 255
227 239 255
227 239 255
227 239 255
227 239 255
227 239 255
227 239 255
227 239 255
227 239 255
227 239 255
227 239 255
227 239 255
227 239 255
227 239 255
227 239 255
227 239 255
227 239 255
227 239 255
227 239 255
227 239 255
227 239 255
227 239 255
227 239 255
227 239 255
227 239 255
227 239 255
227 239 255
227 239 255
227 239 255
227 239 255
227 239 255
227 239 255
227 239 255
227 239 255
227 239 255
227 239 255
227 239 255
227 239 255
227 239 255
227 239 255
227 239 255
227 239 255
227 239 255
227 239 255
227 239 255
227 239 255
227 239 255
227 239 255
227 239 255
227 239 255
227 239 255
227 239 255
227 239 255
227 239 255
227 239 255
227 239 255
227 239 255
227 239 255
227 239 255
227 239 255
227 239 255
227 239 255
227 239 255
227 239 255
227 239 255
227 239 255
227 239 255
227 239 255
227 239 255
227 239 255
227 239 255
227 239 255
227 239 255
227 239 255
227 239 255
227 239 255
227 239 255
227 239 255
227 239 255
227 239 255
227 239 255
227 239 255
227 239 255
227 239 255
227 239 255
227 239 255
227 239 255
227 239 255
227 239 255
227 239 255
227 239 255
227 239 255
227 239 255
227 239 255
227 239 255
227 239 255
227 239 255
227 239 255
227 239 255
227 239 255
227 239 255
227 239 255
227 239 255
227 239 255
227 239 255
227 239 255
227 239 255
227 239 255
227 239 255
227 239 255
227 239 255
227 239 255
227 239 255
227 239 255
227 239 255
227 239 255
227 239 255
230 241 255
234 243 255
237 245 255
240 246 254
242 247 254
243 248 255
245 249 255
246 250 255
243 248 255
243 248 255
245 249 255
242 248 255
245 249 255
245 249 255
242 247 255
245 249 255
245 249 255
244 249 255
242 247 255
245 249 255
244 248 255
243 248 255
244 249 255
243 248 255
244 249 255
244 249 255
244 249 255
246 250 255
242 248 255
245 249 255
241 246 254
239 245 252
239 245 253
239 244 252
235 242 249
234 242 250
234 241 249
237 244 251
238 244 252
241 246 254
241 247 255
237 245 255
236 244 255
230 241 255
227 239 255
227 239 255
227 239 255
227 239 255
227 239 255
227 239 255
227 239 255
227 239 255
227 239 255
227 239 255
227 239 255
227 239 255
227 239 255
227 239 255
227 239 255
227 239 255
227 239 255
227 239 255
227 239 255
227 239 255
227 239 255
227 239 255
227 239 255
227 239 255
227 239 255
227 239 255
227 239 255
227 239 255
227 239 255
227 239 255
227 239 255
227 239 255
227 239 255
227 239 255
227 239 255
227 239 255
227 239 255
227 239 255
227 239 255
227 239 255
227 239 255
227 239 255
227 239 255
227 239 255
227 239 255
227 239 255
227 239 255
227 239 255
227 239 255
227 239 255
227 239 255
227 239 255
227 239 255
227 239 255
227 239 255
227 239 255
227 239 255
227 239 255
227 239 255
227 239 255
227 239 255
227 239 255
227 239 255
227 239 255
227 239 255
227 239 255
227 239 255
227 239 255
227 239 255
227 239 255
227 239 255
227 239 255
227 239 255
227 239 255
227 239 255
227 239 255
227 239 255
227 239 255
227 239 255
227 239 255
227 239 255
227 239 255
227 239 255
227 239 255
227 239 255
227 239 255
227 239 255
227 239 255
227 239 255
227 239 255
227 239 255
227 239 255
227 239 255
227 239 255
227 239 255
227 239 255
227 239 255
227 239 255
227 239 255
227 239 255
227 239 255
227 239 255
227 239 255
227 239 255
227 239 255
227 239 255
227 239 255
227 239 255
227 239 255
227 239 255
227 239 255
227 239 255
227 239 255
227 239 255
227 239 255
227 239 255
227 239 255
227 239 255
227 239 255
227 239 255
227 239 255
227 239 255
227 239 255
227 239 255
227 239 255
227 239 255
227 239 255
227 239 255
227 239 255
227 239 255
227 239 255
227 239 255
227 239 255
227 239 255
227 239 255
227 239 255
227 239 255
227 239 255
227 239 255
227 239 255
227 239 255
227 239 255
227 239 255
227 239 255
227 239 255
227 239 255
227 239 255
227 239 255
227 239 255
227 239 255
227 239 255
227 239 255
227 239 255
227 239 255
227 239 255
227 239 255
227 239 255
227 239 255
227 239 255
227 239 255
227 239 255
227 239 255
227 239 255
227 239 255
227 239 255
227 239 255
227 239 255
227 239 255
227 239 255
227 239 255
227 239 255
227 239 255
227 239 255
227 239 255
227 239 255
227 239 255
227 239 255
227 239 255
227 239 255
227 239 255
227 239 255
227 239 255
227 239 255
227 239 255
227 239 255
227 239 255
227 239 255
227 239 255
227 239 255
227 239 255
227 239 255
227 239 255
227 239 255
227 239 255
227 239 255
227 239 255
227 239 255
227 239 255
227 239 255
227 239 255
227 239 255
227 239 255
227 239 255
227 239 255
227 239 255
227 239 255
227 239 255
227 239 255
227 239 255
227 239 255
227 239 255
227 239 255
227 239 255
227 239 255
227 239 255
227 239 255
227 239 255
227 239 255
227 239 255
227 239 255
227 239 255
227 239 255
227 239 255
227 239 255
227 239 255
227 239 255
227 239 255
227 239 255
227 239 255
227 239 255
227 239 255
227 239 255
227 239 255
227 239 255
227 239 255
227 239 255
227 239 255
227 239 255
227 239 255
227 239 255
227 239 255
227 239 255
227 239 255
227 239 255
227 239 255
227 239 255
227 239 255
227 239 255
227 239 255
227 239 255
227 239 255
227 239 255
227 239 255
227 239 255
227 239 255
227 239 255
227 239 255
227 239 255
227 239 255
227 239 255
227 239 255
227 239 255
227 239 255
227 239 255
227 239 255
227 239 255
227 239 255
227 239 255
227 239 255
227 239 255
227 239 255
227 239 255
227 239 255
227 239 255
227 239 255
227 239 255
227 239 255
227 239 255
227 239 255
227 239 255
227 239 255
227 239 255
227 239 255
227 239 255
227 239 255
227 239 255
227 239 255
227 239 255
227 239 255
227 239 255
227 239 255
227 239 255
227 239 255
227 239 255
227 239 255
227 239 255
227 239 255
227 239 255
227 239 255
227 239 255
227 239 255
227 239 255
227 239 255
227 239 255
227 239 255
227 239 255
227 239 255
227 239 255
227 239 255
227 239 255
227 239 255
227 239 255
227 239 255
227 239 255
227 239 255
227 239 255
227 239 255
227 239 255
227 239 255
227 239 255
227 239 255
227 239 255
227 239 255
227 239 255
227 239 255
227 239 255
227 239 255
227 239 255
227 239 255
227 239 255
227 239 255
227 239 255
227 239 255
227 239 255
227 239 255
227 239 255
227 239 255
227 239 255
227 239 255
227 239 255
227 239 255
227 239 255
227 239 255
227 239 255
227 239 255
227 239 255
227 239 255
227 239 255
227 239 255
227 239 255
227 239 255
227 239 255
227 239 255
227 239 255
227 239 255
227 239 255
227 239 255
227 239 255
227 239 255
227 239 255
227 239 255
228 239 255
230 240 254
230 240 254
232 241 253
234 242 253
234 243 253
238 245 253
240 246 253
242 247 253
241 246 252
239 244 252
236 243 250
237 244 250
238 244 252
240 246 252
241 246 253
238 244 251
240 246 253
241 247 254
242 247 253
241 246 252
238 244 252
238 244 252
236 243 250
236 243 250
238 244 251
236 243 252
236 243 252
236 243 252
233 242 253
233 242 254
233 242 255
232 241 255
228 240 255
227 239 255
227 239 255
227 239 255
227 239 255
227 239 255
227 239 255
227 239 255
227 239 255
227 239 255
227 239 255
227 239 255
227 239 255
227 239 255
227 239 255
227 239 255
227 239 255
227 239 255
227 239 255
227 239 255
227 239 255
227 239 255
227 239 255
227 239 255
227 239 255
227 239 255
227 239 255
227 239 255
227 239 255
227 239 255
227 239 255
227 239 255
227 239 255
227 239 255
227 239 255
227 239 255
227 239 255
227 239 255
227 239 255
227 239 255
227 239 255
227 239 255
227 239 255
227 239 255
227 239 255
227 239 255
227 239 255
227 239 255
227 239 255
227 239 255
227 239 255
227 239 255
227 239 255
227 239 255
227 239 255
227 239 255
227 239 255
227 239 255
227 239 255
227 239 255
227 239 255
227 239 255
227 239 255
227 239 255
227 239 255
227 239 255
227 239 255
227 239 255
227 239 255
227 239 255
227 239 255
227 239 255
227 239 255
227 239 255
227 239 255
227 239 255
227 239 255
227 239 255
227 239 255
227 239 255
227 239 255
227 239 255
227 239 255
227 239 255
227 239 255
227 239 255
227 239 255
227 239 255
227 239 255
227 239 255
227 239 255
227 239 255
227 239 255
227 239 255
227 239 255
227 239 255
227 239 255
227 239 255
227 239 255
227 239 255
227 239 255
227 239 255
227 239 255
227 239 255
227 239 255
227 239 255
227 239 255
227 239 255
227 239 255
227 239 255
227 239 255
227 239 255
227 239 255
227 239 255
227 239 255
227 239 255
227 239 255
227 239 255
227 239 255
227 239 255
227 239 255
227 239 255
227 239 255
227 239 255
227 239 255
227 239 255
227 239 255
227 239 255
227 239 255
227 239 255
227 239 255
227 239 255
227 239 255
227 239 255
227 239 255
227 239 255
227 239 255
227 239 255
227 239 255
227 239 255
227 239 255
227 239 255
227 239 255
227 239 255
227 239 255
227 239 255
227 239 255
227 239 255
227 239 255
227 239 255
227 239 255
227 239 255
227 239 255
227 239 255
227 239 255
227 239 255
227 239 255
227 239 255
227 239 255
227 239 255
227 239 255
227 239 255
227 239 255
227 239 255
227 239 255
227 239 255
227 239 255
227 239 255
227 239 255
227 239 255
227 239 255
227 239 255
227 239 255
227 239 255
227 239 255
227 239 255
227 239 255
227 239 255
227 239 255
227 239 255
227 239 255
227 239 255
227 239 255
227 239 255
227 239 255
227 239 255
227 239 255
227 239 255
227 239 255
227 239 255
227 239 255
227 239 255
227 239 255
227 239 255
227 239 255
227 239 255
227 239 255
227 239 255
227 239 255
227 239 255
227 239 255
227 239 255
227 239 255
227 239 255
227 239 255
227 239 255
227 239 255
227 239 255
227 239 255
227 239 255
227 239 255
227 239 255
227 239 255
227 239 255
227 239 255
227 239 255
227 239 255
227 239 255
227 239 255
227 239 255
227 239 255
227 239 255
227 239 255
227 239 255
227 239 255
227 239 255
227 239 255
227 239 255
227 239 255
227 239 255
227 239 255
227 239 255
227 239 255
227 239 255
227 239 255
227 239 255
227 239 255
227 239 255
227 239 255
227 239 255
227 239 255
227 239 255
227 239 255
227 239 255
227 239 255
227 239 255
227 239 255
227 239 255
227 239 255
227 239 255
227 239 255
227 239 255
227 239 255
227 239 255
227 239 255
227 239 255
227 239 255
227 239 255
227 239 255
227 239 255
227 239 255
227 239 255
227 239 255
227 239 255
227 239 255
227 239 255
227 239 255
227 239 255
227 239 255
227 239 255
227 239 255
227 239 255
227 239 255
227 239 255
227 239 255
227 239 255
227 239 255
227 239 255
227 239 255
227 239 255
227 239 255
227 239 255
227 239 255
227 239 255
227 239 255
227 239 255
227 239 255
227 239 255
227 239 255
227 239 255
227 239 255
227 239 255
227 239 255
227 239 255
227 239 255
227 239 255
227 239 255
227 239 255
227 239 255
227 239 255
227 239 255
227 239 255
227 239 255
227 239 255
227 239 255
227 239 255
227 239 255
227 239 255
227 239 255
227 239 255
227 239 255
227 239 255
227 239 255
227 239 255
227 239 255
227 239 255
227 239 255
227 239 255
227 239 255
227 239 255
227 239 255
227 239 255
227 239 255
227 239 255
227 239 255
227 239 255
227 239 255
227 239 255
227 239 255
227 239 255
227 239 255
227 239 255
227 239 255
227 239 255
227 239 255
227 239 255
227 239 255
227 239 255
227 239 255
227 239 255
227 239 255
227 239 255
227 239 255
227 239 255
227 239 255
227 239 255
227 239 255
227 239 255
227 239 255
227 239 255
227 239 255
227 239 255
227 239 255
227 239 255
227 239 255
227 239 255
227 239 255
227 239 255
227 239 255
227 239 255
227 239 255
227 239 255
227 239 255
227 239 255
227 239 255
227 239 255
227 239 255
227 239 255
227 239 255
227 239 255
227 239 255
227 239 255
227 239 255
227 239 255
227 239 255
227 239 255
227 239 255
228 239 255
228 239 255
229 240 253
229 239 253
229 240 254
229 240 254
229 240 254
230 240 253
230 240 253
229 240 254
229 239 254
228 239 254
231 241 255
230 241 255
228 239 255
228 239 255
227 239 255
227 239 255
227 239 255
227 239 255
227 239 255
227 239 255
227 239 255
227 239 255
227 239 255
227 239 255
227 239 255
227 239 255
227 239 255
227 239 255
227 239 255
227 239 255
227 239 255
227 239 255
227 239 255
227 239 255
227 239 255
227 239 255
227 239 255
227 239 255
227 239 255
227 239 255
227 239 255
227 239 255
227 239 255
227 239 255
227 239 255
227 239 255
227 239 255
227 239 255
227 239 255
227 239 255
227 239 255
227 239 255
227 239 255
227 239 255
227 239 255
227 239 255
227 239 255
227 239 255
227 239 255
227 239 255
227 239 255
227 239 255
227 239 255
227 239 255
227 239 255
227 239 255
227 239 255
227 239 255
227 239 255
227 239 255
227 239 255
227 239 255
227 239 255
227 239 255
227 239 255
227 239 255
227 239 255
227 239 255
227 239 255
227 239 255
227 239 255
227 239 255
227 239 255
227 239 255
227 239 255
227 239 255
227 239 255
227 239 255
227 239 255
227 239 255
227 239 255
227 239 255
227 239 255
227 239 255
227 239 255
227 239 255
227 239 255
227 239 255
227 239 255
227 239 255
227 239 255
227 239 255
227 239 255
227 239 255
227 239 255
227 239 255
227 239 255
227 239 255
227 239 255
227 239 255
227 239 255
227 239 255
227 239 255
227 239 255
227 239 255
227 239 255
227 239 255
227 239 255
227 239 255
227 239 255
227 239 255
227 239 255
227 239 255
227 239 255
227 239 255
227 239 255
227 239 255
227 239 255
227 239 255
227 239 255
227 239 255
227 239 255
227 239 255
227 239 255
227 239 255
227 239 255
227 239 255
227 239 255
227 239 255
227 239 255
227 239 255
227 239 255
227 239 255
227 239 255
227 239 255
227 239 255
227 239 255
227 239 255
227 239 255
227 239 255
227 239 255
227 239 255
227 239 255
227 239 255
227 239 255
227 239 255
227 239 255
227 239 255
227 239 255
227 239 255
227 239 255
227 239 255
227 239 255
227 239 255
227 239 255
227 239 255
227 239 255
227 239 255
227 239 255
227 239 255
227 239 255
227 239 255
227 239 255
227 239 255
227 239 255
227 239 255
227 239 255
227 239 255
227 239 255
227 239 255
227 239 255
227 239 255
227 239 255
227 239 255
227 239 255
227 239 255
227 239 255
227 239 255
227 239 255
227 239 255
227 239 255
227 239 255
227 239 255
227 239 255
227 239 255
227 239 255
227 239 255
227 239 255
227 239 255
227 239 255
227 239 255
227 239 255
227 239 255
227 239 255
227 239 255
227 239 255
227 239 255
227 239 255
227 239 255
227 239 255
227 239 255
227 239 255
227 239 255
227 239 255
227 239 255
227 239 255
227 239 255
227 239 255
227 239 255
227 239 255
227 239 255
227 239 255
227 239 255
227 239 255
227 239 255
227 239 255
227 239 255
227 239 255
227 239 255
227 239 255
227 239 255
227 239 255
227 239 255
227 239 255
227 239 255
227 239 255
227 239 255
227 239 255
227 239 255
227 239 255
227 239 255
227 239 255
227 239 255
227 239 255
227 239 255
227 239 255
227 239 255
227 239 255
227 239 255
227 239 255
227 239 255
227 239 255
227 239 255
227 239 255
227 239 255
227 239 255
227 239 255
227 239 255
227 239 255
227 239 255
227 239 255
227 239 255
227 239 255
227 239 255
227 239 255
227 239 255
227 239 255
227 239 255
227 239 255
227 239 255
227 239 255
227 239 255
227 239 255
227 239 255
227 239 255
227 239 255
227 239 255
227 239 255
227 239 255
227 239 255
227 239 255
227 239 255
227 239 255
227 239 255
227 239 255
227 239 255
227 239 255
227 239 255
227 239 255
227 239 255
227 239 255
227 239 255
227 239 255
227 239 255
227 239 255
227 239 255
227 239 255
227 239 255
227 239 255
227 239 255
227 239 255
227 239 255
227 239 255
227 239 255
227 239 255
227 239 255
227 239 255
227 239 255
227 239 255
227 239 255
227 239 255
227 239 255
227 239 255
227 239 255
227 239 255
227 239 255
227 239 255
227 239 255
227 239 255
227 239 255
227 239 255
227 239 255
227 239 255
227 239 255
227 239 255
227 239 255
227 239 255
227 239 255
227 239 255
227 239 255
227 239 255
227 239 255
227 239 255
227 239 255
227 239 255
227 239 255
227 239 255
227 239 255
227 239 255
227 239 255
227 239 255
227 239 255
227 239 255
227 239 255
227 239 255
227 239 255
227 239 255
227 239 255
227 239 255
227 239 255
227 239 255
227 239 255
227 239 255
227 239 255
227 239 255
227 239 255
227 239 255
227 239 255
227 239 255
227 239 255
227 239 255
227 239 255
227 239 255
227 239 255
227 239 255
227 239 255
227 239 255
227 239 255
227 239 255
227 239 255
227 239 255
227 239 255
227 239 255
227 239 255
227 239 255
227 239 255
227 239 255
227 239 255
227 239 255
227 239 255
227 239 255
227 239 255
227 239 255
227 239 255
227 239 255
227 239 255
227 239 255
227 239 255
227 239 255
227 239 255
227 239 255
227 239 255
227 239 255
227 239 255
227 239 255
227 239 255
227 239 255
227 239 255
227 239 255
227 239 255
227 239 255
227 239 255
227 239 255
227 239 255
227 239 255
227 239 255
227 239 255
227 239 255
227 239 255
227 239 255
227 239 255
227 239 255
227 239 255
227 239 255
227 239 255
227 239 255
227 239 255
227 239 255
227 239 255
227 239 255
227 239 255
227 239 255
227 239 255
227 239 255
227 239 255
227 239 255
227 239 255
227 239 255
227 239 255
227 239 255
227 239 255
227 239 255
227 239 255
227 239 255
227 239 255
227 239 255
227 239 255
227 239 255
227 239 255
227 239 255
227 239 255
227 239 255
227 239 255
227 239 255
227 239 255
227 239 255
227 239 255
227 239 255
227 239 255
227 239 255
227 239 255
227 239 255
227 239 255
227 239 255
227 239 255
227 239 255
227 239 255
227 239 255
227 239 255
227 239 255
227 239 255
227 239 255
227 239 255
227 239 255
227 239 255
227 239 255
227 239 255
227 239 255
227 239 255
227 239 255
227 239 255
227 239 255
227 239 255
227 239 255
227 239 255
227 239 255
227 239 255
227 239 255
227 239 255
227 239 255
227 239 255
227 239 255
227 239 255
227 239 255
227 239 255
227 239 255
227 239 255
227 239 255
227 239 255
227 239 255
227 239 255
227 239 255
227 239 255
227 239 255
227 239 255
227 239 255
227 239 255
227 239 255
227 239 255
227 239 255
227 239 255
227 239 255
227 239 255
227 239 255
227 239 255
227 239 255
227 239 255
227 239 255
227 239 255
227 239 255
227 239 255
227 239 255
227 239 255
227 239 255
227 239 255
227 239 255
227 239 255
227 239 255
227 239 255
227 239 255
227 239 255
227 239 255
227 239 255
227 239 255
227 239 255
227 239 255
227 239 255
227 239 255
227 239 255
227 239 255
227 239 255
227 239 255
227 239 255
227 239 255
227 239 255
227 239 255
227 239 255
227 239 255
227 239 255
227 239 255
227 239 255
227 239 255
227 239 255
227 239 255
227 239 255
227 239 255
227 239 255
227 239 255
227 239 255
227 239 255
227 239 255
227 239 255
227 239 255
227 239 255
227 239 255
227 239 255
227 239 255
227 239 255
227 239 255
227 239 255
227 239 255
227 239 255
227 239 255
227 239 255
227 239 255
227 239 255
227 239 255
227 239 255
227 239 255
227 239 255
227 239 255
227 239 255
227 239 255
227 239 255
227 239 255
227 239 255
227 239 255
227 239 255
227 239 255
227 239 255
227 239 255
227 239 255
227 239 255
227 239 255
227 239 255
227 239 255
227 239 255
227 239 255
227 239 255
227 239 255
227 239 255
227 239 255
227 239 255
227 239 255
227 239 255
227 239 255
227 239 255
227 239 255
227 239 255
227 239 255
227 239 255
227 239 255
227 239 255
227 239 255
227 239 255
227 239 255
227 239 255
227 239 255
227 239 255
227 239 255
227 239 255
227 239 255
227 239 255
227 239 255
227 239 255
227 239 255
227 239 255
227 239 255
227 239 255
227 239 255
227 239 255
227 239 255
227 239 255
227 239 255
227 239 255
227 239 255
227 239 255
227 239 255
227 239 255
227 239 255
227 239 255
227 239 255
227 239 255
227 239 255
227 239 255
227 239 255
227 239 255
227 239 255
227 239 255
227 239 255
227 239 255
227 239 255
227 239 255
227 239 255
227 239 255
227 239 255
227 239 255
227 239 255
227 239 255
227 239 255
227 239 255
227 239 255
227 239 255
227 239 255
227 239 255
227 239 255
227 239 255
227 239 255
227 239 255
227 239 255
227 239 255
227 239 255
227 239 255
227 239 255
227 239 255
227 239 255
227 239 255
227 239 255
227 239 255
227 239 255
227 239 255
227 239 255
227 239 255
227 239 255
227 239 255
227 239 255
227 239 255
227 239 255
227 239 255
227 239 255
227 239 255
227 239 255
227 239 255
227 239 255
227 239 255
227 239 255
227 239 255
227 239 255
227 239 255
227 239 255
227 239 255
227 239 255
227 239 255
227 239 255
227 239 255
227 239 255
227 239 255
227 239 255
227 239 255
227 239 255
227 239 255
227 239 255
227 239 255
227 239 255
227 239 255
227 239 255
227 239 255
227 239 255
227 239 255
227 239 255
227 239 255
227 239 255
227 239 255
227 239 255
227 239 255
227 239 255
227 239 255
227 239 255
227 239 255
227 239 255
227 239 255
227 239 255
227 239 255
227 239 255
227 239 255
227 239 255
227 239 255
227 239 255
227 239 255
227 239 255
227 239 255
227 239 255
227 239 255
227 239 255
227 239 255
227 239 255
227 239 255
227 239 255
227 239 255
227 239 255
227 239 255
227 239 255
227 239 255
227 239 255
227 239 255
227 239 255
227 239 255
227 239 255
227 239 255
227 239 255
227 239 255
227 239 255
227 239 255
227 239 255
227 239 255
227 239 255
227 239 255
227 239 255
227 239 255
227 239 255
227 239 255
227 239 255
227 239 255
227 239 255
227 239 255
227 239 255
227 239 255
227 239 255
227 239 255
227 239 255
227 239 255
227 239 255
227 239 255
227 239 255
227 239 255
227 239 255
227 239 255
227 239 255
227 239 255
227 239 255
227 239 255
227 239 255
227 239 255
227 239 255
227 239 255
227 239 255
227 239 255
227 239 255
227 239 255
227 239 255
227 239 255
227 239 255
227 239 255
227 239 255
227 239 255
227 239 255
227 239 255
227 239 255
227 239 255
227 239 255
227 239 255
227 239 255
227 239 255
227 239 255
227 239 255
227 239 255
227 239 255
227 239 255
227 239 255
227 239 255
227 239 255
227 239 255
227 239 255
227 239 255
227 239 255
227 239 255
227 239 255
227 239 255
227 239 255
227 239 255
227 239 255
227 239 255
227 239 255
227 239 255
227 239 255
227 239 255
227 239 255
227 239 255
227 239 255
227 239 255
227 239 255
227 239 255
227 239 255
227 239 255
227 239 255
227 239 255
227 239 255
227 239 255
227 239 255
227 239 255
227 239 255
227 239 255
227 239 255
227 239 255
227 239 255
227 239 255
227 239 255
227 239 255
227 239 255
227 239 255
227 239 255
227 239 255
227 239 255
227 239 255
227 239 255
227 239 255
227 239 255
227 239 255
227 239 255
227 239 255
227 239 255
227 239 255
227 239 255
227 239 255
227 239 255
227 239 255
227 239 255
227 239 255
227 239 255
227 239 255
227 239 255
227 239 255
227 239 255
227 239 255
227 239 255
227 239 255
227 239 255
227 239 255
227 239 255
227 239 255
227 239 255
227 239 255
227 239 255
227 239 255
227 239 255
227 239 255
227 239 255
227 239 255
227 239 255
227 239 255
227 239 255
227 239 255
227 239 255
227 239 255
227 239 255
227 239 255
227 239 255
227 239 255
227 239 255
227 239 255
227 239 255
227 239 255
227 239 255
227 239 255
227 239 255
227 239 255
227 239 255
227 239 255
227 239 255
227 239 255
227 239 255
227 239 255
227 239 255
227 239 255
227 239 255
227 239 255
227 239 255
227 239 255
227 239 255
227 239 255
227 239 255
227 239 255
227 239 255
227 239 255
227 239 255
227 239 255
227 239 255
227 239 255
227 239 255
227 239 255
227 239 255
227 239 255
227 239 255
227 239 255
227 239 255
227 239 255
227 239 255
227 239 255
227 239 255
227 239 255
227 239 255
227 239 255
227 239 255
227 239 255
227 239 255
227 239 255
227 239 255
227 239 255
227 239 255
227 239 255
227 239 255
227 239 255
227 239 255
227 239 255
227 239 255
227 239 255
227 239 255
227 239 255
227 239 255
227 239 255
227 239 255
227 239 255
227 239 255
227 239 255
227 239 255
227 239 255
227 239 255
227 239 255
227 239 255
227 239 255
227 239 255
227 239 255
227 239 255
227 239 255
227 239 255
227 239 255
227 239 255
227 239 255
227 239 255
227 239 255
227 239 255
227 239 255
227 239 255
227 239 255
227 239 255
227 239 255
227 239 255
227 239 255
227 239 255
227 239 255
227 239 255
227 239 255
227 239 255
227 239 255
227 239 255
227 239 255
227 239 255
227 239 255
227 239 255
227 239 255
227 239 255
227 239 255
227 239 255
227 239 255
227 239 255
227 239 255
227 239 255
227 239 255
227 239 255
227 239 255
227 239 255
227 239 255
227 239 255
227 239 255
227 239 255
227 239 255
227 239 255
227 239 255
227 239 255
227 239 255
227 239 255
227 239 255
227 239 255
227 239 255
227 239 255
227 239 255
227 239 255
227 239 255
227 239 255
227 239 255
227 239 255
227 239 255
227 239 255
227 239 255
227 239 255
227 239 255
227 239 255
227 239 255
227 239 255
227 239 255
227 239 255
227 239 255
227 239 255
227 239 255
227 239 255
227 239 255
227 239 255
227 239 255
227 239 255
227 239 255
227 239 255
227 239 255
227 239 255
227 239 255
227 239 255
227 239 255
227 239 255
227 239 255
227 239 255
227 239 255
227 239 255
227 239 255
227 239 255
227 239 255
227 239 255
227 239 255
227 239 255
227 239 255
227 239 255
227 239 255
227 239 255
227 239 255
227 239 255
227 239 255
227 239 255
227 239 255
227 239 255
227 239 255
227 239 255
227 239 255
227 239 255
227 239 255
227 239 255
227 239 255
227 239 255
227 239 255
227 239 255
227 239 255
227 239 255
227 239 255
227 239 255
227 239 255
227 239 255
227 239 255
227 239 255
227 239 255
227 239 255
227 239 255
227 239 255
227 239 255
227 239 255
227 239 255
227 239 255
227 239 255
227 239 255
227 239 255
227 239 255
227 239 255
227 239 255
227 239 255
227 239 255
227 239 255
227 239 255
227 239 255
227 239 255
227 239 255
227 239 255
227 239 255
227 239 255
227 239 255
227 239 255
227 239 255
227 239 255
227 239 255
227 239 255
227 239 255
227 239 255
227 239 255
227 239 255
227 239 255
227 239 255
227 239 255
227 239 255
227 239 255
227 239 255
227 239 255
227 239 255
227 239 255
227 239 255
227 239 255
227 239 255
227 239 255
227 239 255
227 239 255
227 239 255
227 239 255
227 239 255
227 239 255
227 239 255
227 239 255
227 239 255
227 239 255
227 239 255
227 239 255
227 239 255
227 239 255
227 239 255
227 239 255
227 239 255
227 239 255
227 239 255
227 239 255
227 239 255
227 239 255
227 239 255
227 239 255
227 239 255
227 239 255
227 239 255
227 239 255
227 239 255
227 239 255
227 239 255
227 239 255
227 239 255
227 239 255
227 239 255
227 239 255
227 239 255
227 239 255
227 239 255
227 239 255
227 239 255
227 239 255
227 239 255
227 239 255
227 239 255
227 239 255
227 239 255
227 239 255
227 239 255
227 239 255
227 239 255
227 239 255
227 239 255
227 239 255
227 239 255
227 239 255
227 239 255
227 239 255
227 239 255
227 239 255
227 239 255
227 239 255
227 239 255
227 239 255
227 239 255
227 239 255
227 239 255
227 239 255
227 239 255
227 239 255
227 239 255
227 239 255
227 239 255
227 239 255
227 239 255
227 239 255
227 239 255
227 239 255
227 239 255
227 239 255
227 239 255
227 239 255
227 239 255
227 239 255
227 239 255
227 239 255
227 239 255
227 239 255
227 239 255
227 239 255
227 239 255
227 239 255
227 239 255
227 239 255
227 239 255
227 239 255
227 239 255
227 239 255
227 239 255
227 239 255
227 239 255
227 239 255
227 239 255
227 239 255
227 239 255
227 239 255
227 239 255
227 239 255
227 239 255
227 239 255
227 239 255
227 239 255
227 239 255
227 239 255
227 239 255
227 239 255
227 239 255
227 239 255
227 239 255
227 239 255
227 239 255
227 239 255
227 239 255
227 239 255
227 239 255
227 239 255
227 239 255
227 239 255
227 239 255
227 239 255
227 239 255
227 239 255
227 239 255
227 239 255
227 239 255
227 239 255
227 239 255
227 239 255
227 239 255
227 239 255
227 239 255
227 239 255
227 239 255
227 239 255
227 239 255
227 239 255
227 239 255
227 239 255
227 239 255
227 239 255
227 239 255
227 239 255
227 239 255
227 239 255
227 239 255
227 239 255
227 239 255
227 239 255
227 239 255
227 239 255
227 239 255
227 239 255
227 239 255
227 239 255
227 239 255
227 239 255
227 239 255
227 239 255
227 239 255
227 239 255
227 239 255
227 239 255
227 239 255
227 239 255
227 239 255
227 239 255
227 239 255
227 239 255
227 239 255
227 239 255
227 239 255
227 239 255
227 239 255
227 239 255
227 239 255
227 239 255
227 239 255
227 239 255
227 239 255
227 239 255
227 239 255
227 239 255
227 239 255
227 239 255
227 239 255
227 239 255
227 239 255
227 239 255
227 239 255
227 239 255
227 239 255
227 239 255
227 239 255
227 239 255
227 239 255
227 239 255
227 239 255
227 239 255
227 239 255
227 239 255
227 239 255
227 239 255
227 239 255
227 239 255
227 239 255
227 239 255
227 239 255
227 239 255
227 239 255
227 239 255
227 239 255
227 239 255
227 239 255
227 239 255
227 239 255
227 239 255
227 239 255
227 239 255
227 239 255
227 239 255
227 239 255
227 239 255
227 239 255
227 239 255
227 239 255
227 239 255
227 239 255
227 239 255
227 239 255
227 239 255
227 239 255
227 239 255
227 239 255
227 239 255
227 239 255
227 239 255
227 239 255
227 239 255
227 239 255
227 239 255
227 239 255
227 239 255
227 239 255
227 239 255
227 239 255
227 239 255
227 239 255
227 239 255
227 239 255
227 239 255
227 239 255
227 239 255
227 239 255
227 239 255
227 239 255
227 239 255
227 239 255
227 239 255
227 239 255
227 239 255
227 239 255
227 239 255
227 239 255
227 239 255
227 239 255
227 239 255
227 239 255
227 239 255
227 239 255
227 239 255
227 239 255
227 239 255
227 239 255
227 239 255
227 239 255
227 239 255
227 239 255
227 239 255
227 239 255
227 239 255
227 239 255
227 239 255
227 239 255
227 239 255
227 239 255
227 239 255
227 239 255
227 239 255
227 239 255
227 239 255
227 239 255
227 239 255
227 239 255
227 239 255
227 239 255
227 239 255
227 239 255
227 239 255
227 239 255
227 239 255
227 239 255
227 239 255
227 239 255
227 239 255
227 239 255
227 239 255
227 239 255
227 239 255
227 239 255
227 239 255
227 239 255
227 239 255
227 239 255
227 239 255
227 239 255
227 239 255
227 239 255
227 239 255
227 239 255
227 239 255
227 239 255
227 239 255
227 239 255
227 239 255
227 239 255
227 239 255
227 239 255
227 239 255
227 239 255
227 239 255
227 239 255
227 239 255
227 239 255
227 239 255
227 239 255
227 239 255
227 239 255
227 239 255
227 239 255
227 239 255
227 239 255
227 239 255
227 239 255
227 239 255
227 239 255
227 239 255
227 239 255
227 239 255
227 239 255
227 239 255
227 239 255
227 239 255
227 239 255
227 239 255
227 239 255
227 239 255
227 239 255
227 239 255
227 239 255
227 239 255
227 239 255
227 239 255
227 239 255
227 239 255
227 239 255
227 239 255
227 239 255
227 239 255
227 239 255
227 239 255
227 239 255
227 239 255
227 239 255
227 239 255
227 239 255
227 239 255
227 239 255
227 239 255
227 239 255
227 239 255
227 239 255
227 239 255
227 239 255
227 239 255
227 239 255
227 239 255
227 239 255
227 239 255
227 239 255
227 239 255
227 239 255
227 239 255
227 239 255
227 239 255
227 239 255
227 239 255
227 239 255
227 239 255
227 239 255
227 239 255
227 239 255
227 239 255
227 239 255
227 239 255
227 239 255
227 239 255
227 239 255
227 239 255
227 239 255
227 239 255
227 239 255
227 239 255
227 239 255
227 239 255
227 239 255
227 239 255
227 239 255
227 239 255
227 239 255
227 239 255
227 239 255
227 239 255
227 239 255
227 239 255
228 239 255
227 239 255
227 239 255
227 239 255
227 239 255
227 239 255
227 239 255
227 239 255
227 239 255
227 239 255
228 239 255
227 239 255
227 239 255
228 239 255
228 239 255
227 239 255
227 239 255
228 239 255
227 239 255
228 239 255
228 239 255
227 239 255
227 239 255
228 239 255
227 239 255
227 239 255
228 239 255
228 239 255
228 239 255
228 239 255
228 239 255
228 239 255
228 239 255
228 239 255
227 239 255
228 239 255
228 239 255
228 239 255
227 239 255
228 239 255
228 239 255
228 239 255
228 239 255
228 239 255
227 239 255
228 239 255
228 239 255
227 239 255
227 239 255
227 239 255
227 239 255
228 239 255
227 239 255
227 239 255
227 239 255
227 239 255
227 239 255
227 239 255
227 239 255
227 239 255
227 239 255
227 239 255
227 239 255
227 239 255
227 239 255
227 239 255
227 239 255
227 239 255
227 239 255
227 239 255
227 239 255
227 239 255
227 239 255
227 239 255
227 239 255
227 239 255
227 239 255
227 239 255
227 239 255
227 239 255
227 239 255
227 239 255
227 239 255
227 239 255
227 239 255
227 239 255
227 239 255
227 239 255
227 239 255
227 239 255
227 239 255
227 239 255
227 239 255
227 239 255
227 239 255
227 239 255
227 239 255
227 239 255
227 239 255
227 239 255
227 239 255
227 239 255
227 239 255
227 239 255
227 239 255
227 239 255
227 239 255
227 239 255
227 239 255
227 239 255
227 239 255
227 239 255
227 239 255
227 239 255
227 239 255
227 239 255
227 239 255
227 239 255
227 239 255
227 239 255
227 239 255
227 239 255
227 239 255
227 239 255
227 239 255
227 239 255
227 239 255
227 239 255
227 239 255
227 239 255
227 239 255
227 239 255
227 239 255
227 239 255
227 239 255
227 239 255
227 239 255
227 239 255
227 239 255
227 239 255
227 239 255
227 239 255
227 239 255
227 239 255
227 239 255
227 239 255
227 239 255
227 239 255
227 239 255
227 239 255
227 239 255
227 239 255
227 239 255
227 239 255
227 239 255
227 239 255
227 239 255
227 239 255
227 239 255
227 239 255
227 239 255
227 239 255
227 239 255
227 239 255
227 239 255
227 239 255
227 239 255
227 239 255
227 239 255
227 239 255
227 239 255
227 239 255
227 239 255
227 239 255
227 239 255
227 239 255
227 239 255
227 239 255
227 239 255
227 239 255
227 239 255
227 239 255
227 239 255
227 239 255
227 239 255
227 239 255
227 239 255
227 239 255
227 239 255
227 239 255
227 239 255
227 239 255
227 239 255
227 239 255
227 239 255
227 239 255
227 239 255
227 239 255
227 239 255
227 239 255
227 239 255
227 239 255
227 239 255
227 239 255
227 239 255
227 239 255
227 239 255
227 239 255
227 239 255
227 239 255
227 239 255
227 239 255
227 239 255
227 239 255
227 239 255
227 239 255
227 239 255
227 239 255
227 239 255
227 239 255
227 239 255
227 239 255
227 239 255
227 239 255
227 239 255
227 239 255
227 239 255
227 239 255
227 239 255
